/* XPM */
static char *info[] = {
/* columns rows colors chars-per-pixel */
"16 16 53 1 ",
"  c None",
". c black",
"X c #204A87",
"o c #204A87",
"O c #204A87",
"+ c black",
"@ c #888A85",
"# c #204A87",
"$ c #888A85",
"% c #EEEEEC",
"& c #888A85",
"* c #EFEFEE",
"= c black",
"- c #EEEEED",
"; c #F3F3F3",
": c #F6F6F5",
"> c #204A87",
", c #728BAE",
"< c #748AA2",
"1 c #788DA4",
"2 c #7A95B4",
"3 c #7A95B5",
"4 c #7C93B3",
"5 c #7D8385",
"6 c #7D91A7",
"7 c #869CB8",
"8 c #888A85",
"9 c #8A8C87",
"0 c #92A5BE",
"q c #A0A19E",
"w c #A4A4A3",
"e c #ABACA9",
"r c #ADADAA",
"t c #ADBBCC",
"y c #B8B7B5",
"u c #B9B8B7",
"i c #BAB9B6",
"p c #BDC8D4",
"a c #BFBEBD",
"s c #C4C3C2",
"d c #C6C4C2",
"f c #CAC9C8",
"g c #D2D1D0",
"h c #D4D3D2",
"j c #D4D3D3",
"k c #E4E3E2",
"l c #E5E3E2",
"z c #ECEBE9",
"x c #F0F0EE",
"c c #F0F0EF",
"v c gray94",
"b c gray97",
"n c gray98",
/* pixels */
"                ",
"   @8@      +8@ ",
"   8z8@    +8*8 ",
"    8x8    8v8+ ",
"@8 @8n8   @89+  ",
"8:e8blr% @8@    ",
"@8;c-=i8@8@     ",
" @8888gw8$      ",
"      y8u8@.    ",
"  X>>>5rfa8@    ",
" X>tt4>$8ja8@.  ",
"o>p110> @8kd8$  ",
">t1<24>  @8hs8  ",
">t63,>O   @8q8  ",
">077>O     $&$  ",
"#>>>O           "
};
