/* XPM */
static char *nullspace[] = {
/* columns rows colors chars-per-pixel */
"256 256 256 2 ",
"   c #34793C",
".  c #5B6D3A",
"X  c #357452",
"o  c #387069",
"O  c #3A5B6C",
"+  c #545853",
"@  c #665555",
"#  c #4E6F54",
"$  c #6A704E",
"%  c #505670",
"&  c #6B5273",
"*  c #486768",
"=  c #4E6F6F",
"-  c #6D7074",
";  c #6C3A75",
":  c #A3357B",
">  c #EE1475",
",  c #D12D75",
"<  c #EA2775",
"1  c #D61775",
"2  c #8F4B7B",
"3  c #8D7773",
"4  c #92705E",
"5  c #C94874",
"6  c #69893B",
"7  c #308853",
"8  c #32926F",
"9  c #30AC78",
"0  c #20A26E",
"q  c #4F8851",
"w  c #738D4D",
"e  c #4B9074",
"r  c #729172",
"t  c #52AC75",
"y  c #71AD75",
"u  c #71A45D",
"i  c #78CE78",
"p  c #76DF7A",
"a  c #319349",
"s  c #8C8B55",
"d  c #B1B159",
"f  c #989869",
"g  c #899778",
"h  c #979777",
"j  c #8E8B71",
"k  c #A4956F",
"l  c #97A878",
"z  c #99B778",
"x  c #8FAE71",
"c  c #A7B878",
"v  c #ABB06E",
"b  c #A1A35B",
"n  c #C5BA6F",
"m  c #B2D158",
"M  c #88C979",
"N  c #98C878",
"B  c #87D778",
"V  c #98D779",
"C  c #93D16A",
"Z  c #A7C878",
"A  c #A7D778",
"S  c #B1D06E",
"D  c #92E676",
"F  c #AFE670",
"G  c #A6E15B",
"H  c #C5D566",
"J  c #838E3D",
"K  c #533995",
"L  c #733791",
"P  c #5137AD",
"I  c #6D31AB",
"U  c #661FA0",
"Y  c #395591",
"T  c #39579C",
"R  c #525190",
"E  c #704E90",
"W  c #556B8D",
"Q  c #777789",
"!  c #696997",
"~  c #776998",
"^  c #6A7798",
"/  c #777798",
"(  c #6D6D89",
")  c #524FAC",
"_  c #6D55AF",
"`  c #5968B9",
"'  c #5471B4",
"]  c #7777A6",
"[  c #6768B9",
"{  c #6878B9",
"}  c #716FAC",
"|  c #5237CA",
" . c #3577F3",
".. c #2878DC",
"X. c #5550CA",
"o. c #5877C6",
"O. c #5270CC",
"+. c #6868C6",
"@. c #6878C6",
"#. c #7272CC",
"$. c #4877F1",
"%. c #6F5BCA",
"&. c #3C38AA",
"*. c #913593",
"=. c #B23094",
"-. c #9634AC",
";. c #AD33AC",
":. c #AE1B99",
">. c #D0158D",
",. c #CB2E8F",
"<. c #DB1F94",
"1. c #8F4F93",
"2. c #B04E94",
"3. c #866899",
"4. c #867897",
"5. c #8E728E",
"6. c #AC6D98",
"7. c #9847A8",
"8. c #9859B8",
"9. c #904EAE",
"0. c #A747B6",
"q. c #AE4FAB",
"w. c #8777A8",
"e. c #9767B8",
"r. c #906EAE",
"t. c #A96FAD",
"y. c #C84C93",
"u. c #C650A8",
"i. c #C26B9E",
"p. c #A936C3",
"a. c #9353C5",
"s. c #8E6CC6",
"d. c #A658C3",
"f. c #C02ACA",
"g. c #37998D",
"h. c #19B396",
"j. c #30B090",
"k. c #3699AC",
"l. c #12B4AE",
"z. c #30B2AE",
"x. c #129C9C",
"c. c #589997",
"v. c #51928C",
"b. c #689889",
"n. c #779789",
"m. c #788798",
"M. c #679797",
"N. c #789898",
"B. c #6E888D",
"V. c #4FAF91",
"C. c #79A788",
"Z. c #78A898",
"A. c #78B798",
"S. c #6DB08E",
"D. c #5592B0",
"F. c #6988A8",
"G. c #7787A8",
"H. c #6898A7",
"J. c #7798A7",
"K. c #6987B9",
"L. c #7788B8",
"P. c #6897B8",
"I. c #7797B8",
"U. c #52AEAE",
"Y. c #68A8A8",
"T. c #77A7A7",
"R. c #78B6A8",
"E. c #68A7B7",
"W. c #77A7B7",
"Q. c #68B8B8",
"!. c #77B7B7",
"~. c #68B6A7",
"^. c #32C492",
"/. c #14C6AE",
"(. c #2AC5AE",
"). c #19C597",
"_. c #50C992",
"`. c #78C797",
"'. c #75CE8C",
"]. c #56C6AD",
"[. c #70CAB1",
"{. c #79E38E",
"}. c #15B7CE",
"|. c #2FB5D0",
" X c #3989EF",
".X c #33B5EE",
"XX c #2898DC",
"oX c #5887C8",
"OX c #5898D7",
"+X c #538ED2",
"@X c #6887C7",
"#X c #7789C7",
"$X c #6898C7",
"%X c #7897C7",
"&X c #6899D7",
"*X c #7798D6",
"=X c #6C88D5",
"-X c #59A7D7",
";X c #58B8D7",
":X c #52B0CD",
">X c #68B8C7",
",X c #68A7D8",
"<X c #77A7D9",
"1X c #67B7D8",
"2X c #71ACCA",
"3X c #4E8FEA",
"4X c #6C97E5",
"5X c #51B2EA",
"6X c #6DAEE6",
"7X c #15C6CD",
"8X c #29C5CE",
"9X c #2DC3F0",
"0X c #59C6D9",
"qX c #56C8CE",
"wX c #67C6C8",
"eX c #67C6D7",
"rX c #73CCCD",
"tX c #54C6E7",
"yX c #6BC6E5",
"uX c #6DE1C1",
"iX c #878788",
"pX c #879888",
"aX c #878897",
"sX c #879897",
"dX c #969191",
"fX c #A89194",
"gX c #88A788",
"hX c #97A887",
"jX c #88B888",
"kX c #97B887",
"lX c #87A797",
"zX c #97A797",
"xX c #87B797",
"cX c #97B896",
"vX c #ABB08E",
"bX c #8798A8",
"nX c #8D8EAE",
"mX c #AB8CA9",
"MX c #8AAEAD",
"NX c #AEAAA6",
"BX c #C4B590",
"VX c #88C888",
"CX c #97C886",
"ZX c #88D787",
"AX c #97D786",
"SX c #8CCB96",
"DX c #ABCE87",
"FX c #90E688",
"GX c #88C8AD",
"HX c #AAE586",
"JX c #C5C78A",
"KX c #8698C7",
"LX c #8793D0",
"PX c #89ABCD",
"IX c #84A5E2",
"UX c #87C8D0",
/* pixels */
" X..........XXXX..XX..XXXX..XXoX+X' k.O.O.O.o.o.+.o.+.` +.#.@.@.@.#.+.@.#.#.@.#.#.{ @.@.#.I.%XI.KX*XLXIXLXLXLXIXLXPXIXLXLX<XIXLXLXLXKXLXKXLXPXPXKXKXMXnXMXMXMXMXbXMXMXKXMXbXMXbXbXnXnXKXMXnXmXnXnXbXnXdXnXw.w.r.w.w.w.r.w.r.t.t.4.w.r.r.e.e.e.9.8.t.r.5.r.r.r.r.r.3.~ } ~ ~ 3.~ ~ ! ! ! ! ^ } ' ` ^ ! _ [ } [ _ } [ _ r.[ { ` %.+.} +.[ [ +.@.{ { { { [ [ +.+.+.+.#.+.#.#.+.+.O.+.[ +.+.[ [ [ ` [ [ { ' { { { @.o.O.o.O.o.O.o.o.' oXo.' O.oXoXD.D.o.' D.' O.' +XoXK.' #.o.' o.` { { @.@X@.K.oXoX+X@X@X@.=X=X=X=X=X=X=X4X#.#.*X*X",
"....XX........XXXXXXXX X+XXX+X+X+XoXk.k.O.O.O.o.@.{ ` ` o.@.@.o.O.#.#.o.@.#.#.@X@.@XK.L.L.I.I.%X%XKXLXIXLXLXPXIXIXIXPXIXIXIXIXIXLXLXPXPXKXKXLXKXMXPXPXMXnXbXMXMXMXbXMXnXMXMXbXbXbXnXMXNXbXbXbXnXnXbXMXmXaXw.nXw.w.w.r.w.r.r.w.t.t.t.t.r.e.e.9.8.r.r.r.r.3.r.3.r.r.~ ~ } ~ ~ ~ ~ ~ ! ^ ! W ^ ! ' } } } ! _ } } _ _ } [ } [ +.` +.+.[ { { { { [ { { [ { #.[ +.+.+.+.+.+.#.#.#.+.O.+.%._ %.+.[ { [ [ [ ` ' { [ { @.+.O.+.o.' D.' O.' o.o.o.oXo.o.oXoXo.+Xo.' ' O.O.oXK.@.@.+.o.{ ` ` { @X@X@.@.K.oXoX@X@X@.#.=X=X=X=X=X=X=X=X*XLX*X",
"..XX..........XXXXXXXX X X XXX+XoX' +Xk.oXO.O.o.o.o.o.o.o.+XO.o.o.o.@.O.@.#.@.=X@X#XK.@.K.P.%XKXKXKXKXPXLXLXLXLXLXLXIXIXIXIXLX4X<XIXLXIXLXPXPXLXPXMXPXPXPXKXPXMXMXbXnXbXMXMXnXbXbXbXMXMXMXMXMXnXnXnXnXnXnXw.aXw.nXw.w.w.nXmXt.r.r.t.w.r.e.r.8.8.r.r.r.r.5.5.5.r.3.3.~ } ! ! E ~ ~ ! ! ! ! ^ ! ! [ ` ! ! _ } [ } [ } } } [ [ [ [ @.{ ' { ` [ { { [ [ } +.[ _ +.+.+.@.+.#.#.#.+.#.+.[ [ ` ` } _ ` ` ` ` ' ' { { { ` ` ' ' ' o.o.o.O.o.' o.{ o.oXoX+Xo.' ' ' ' O.' o.o.@.oXO.' O.` { { { @X@X@.@.@X@.oX@X@X@.=X@X#.=X@X*X=X=X*X#X*X",
"............XXXX..XXXX X X3X+X+X+XoX..XXk.oXo.o.o.O.oXoXo.oX+X@.=X+X+X+X@.@.@.=X=X#X@X@X@XP.P.%XKXKXIXIXIXLXLXLXLX*XIXIXIX<X<X<X<XIXIXPXIXLXLXLXPXPXPXPXPXPXMXnXMXnXnXnXnXnXbXbXMXMXMXMXMXMXMXPXMXnXbXnXnXaXaXaX] ] w.w.r.nXt.t.r.r.e.e.r.8.e.8.9.9.3.4.r.3.3.r.w.r.w./ ~ ~ ~ ~ ! ~ ! ! ! ! ! } W ! _ } ' } } { [ [ [ } [ [ %.[ [ { { { [ [ +.{ { } [ [ +.+.+.+.#.#.#.#.#.#.#.+.+.[ _ _ _ _ ` ` ' ` ' ' ' ' { { [ ' ' ' ' o.D.oXoX' o.' @.o.o.oXo.o.o.o.' ' ' ' O.O.O.oX' ' o.o.+.@.{ @.@.@X#.@.@X@X@X@X#.#.#X=X=X@X&X=X#X#X*XLX",
"......................3X X XXX+XXXO.+X+XoXk.O.o.O.o.+X+X+XO.+X=X+Xo.oX+Xo.@.@XoX@XK.%X#X%X$X%X%X*XLXLXIX<XIXIXIXIX*XIX*XIXIX<X<X<XIX<XIXPXLXLXPXKXPXPXPXPXPXPXKXbXI.I.bXMXbXbXMXMXMXMXbXMXMXMXMXMXnXnXbXnXaXnXbXw.G.] w.w.w.r.w.r.r.r.e.r.r.r.8.r.9.r.5.5.3.3.3.3./ 4./ ! / } ~ ~ ~ ! ~ ! ( ^ } } } ` [ ^ } { } { [ } { [ [ [ +.` { o.{ { #.@.{ [ [ [ [ [ [ +.+.+.+.#.#.#.#.+.%.+.[ +.+.+.` ) ) ` ` ` ' ` ' ' O.' ` ' ` ' o.` D.D.O.o.o.o.o.o.@XoXoXD.D.D.' ' ' O.' ' oXo.o.' ' ' o.@XK.#X=X@X=X@.@X#.@X@.@.@X@.%X$XL.P.@X=X*X*X",
" . ...............$.$. X$.+X+X+X X XXX+XoXoXoXo.oX+X+X+X3XO.@.=X=X+X=X+X+X=X@XoX@X#XP.%XI.$X%X%XKXLXPXPXPXIXIXIXIXLX*X*X4XIXLX<X<XIXIX<XPXPXIXPXPXIXPXPXPXPXKXbXI.I.nXMXMXW.I.MXMXbXlXMXMXMXMXPXPXnXbXnXw.nXnXbXnX] nXr.w.w.w.w.r.r.8.e.e.e.r.e.e.8.5.3.w.3.~ ~ 3.4.~ ~ ~ ~ ~ ~ ! ~ ! ~ ! ~ ~ ~ ~ / } } [ { ] ] { } ] } } +.%.+.{ @.@.{ { #.K.{ ' { [ [ [ [ { #.#.#.} #.%.+.+.%.%.[ ` [ [ [ ` _ [ ` ' ' ' ' ' ` ' ' ` ` X.` o.o.' ' ' @.o.oX=X@X@XoXoXoX' ' ' O.' o.oXo.' O.o.' ' ' @X@X@.@.@.@.@X@.=X@Xo.@.@X=X$X$X$XP.$X$X%X%X",
" . ... . ... ....... ... XXX3X+X X+XO.+XoX+XoX+X+X+X3X3X3XO.+X=X=X@.O.+XOX@X@X&X@X@X*X%X$X$X%XPXKXLXKXKX<XIX*X4X*X*XLX4X*X<X,X<X4X4XPX<X<XIXIXPX*XIX<X%X%X2XKXbXI.I.I.W.I.I.MXbXbXbXbXbXMXbXW.W.MXKXbXnXnXL.nXG.w.w.nXw.r.r.w.r.r.r.r.e.r.r.r.r.r.3.r.3.3.1.~ 3./ ~ 3.] ~ 3.] ! ! ! ~ ! 3.} ] ] } ] / } } } ^ } } { { } { +.#.%.#.O.@.@.K.@.{ { ` ' [ { [ { #.@.[ { @.[ #.#.%.#.%.[ +.[ ` [ [ _ ` _ _ ` ` ' ' ' ' ' o.O.` X.O.' O.o.o.o.@.=X@X=X@XoX{ ' ' ' ' oXo.{ ' o.' ' ` { { oX@.@X#.o.oX@.oX@.@X@.@Xo.@X@X@X#X$XF.oX$X$X%X",
" . . . . . . .$.$. .....3X X3X3X X3XO.+X+XOX+X+X+X3X X3X+X+X+X+X@.=X#.=X@X@X+XOX=X&X&X%X$X%X*X<XPXPXLXLXIXIX<XIXLXLXLX*X<X<X<X6X4X4X<X<X6XIXIXIX<X<X*X<X%XI.%XI.I.%X2XW.%XI.I.bXnXnXbXnXbXbXI.MXI.KXI.nXnXI.L.L.G.] w.w.~ 3.w.r.r.8.8.r.} 3.~ r.r.3.3.3.~ 3.3.~ 3.~ ~ ~ } ] } } } ~ ~ ~ ] w.w.] ^ ] ^ ~ ] ] } { { { { { K.#.@.+.+.+.@.#.@X@.{ { { @.@.+.{ @.@.#.#.@.+.#.#.#.#.#.+.[ ` [ [ [ [ [ _ ) [ ` o.{ ' ' ' ' ` ` ` X.O.O.o.o.o.o.O.o.@X@XoXo.o.{ { ' ' o.` ' o.{ ` ' { { oX@X{ @Xo.@.oXoXoX=X=X@XK.@X@X#XL.@XK.P.$X@X=X%X",
" . . . ... . .$. . .O.$.+X3X3X+X3X3X3X3XOX+XoX+X+X3X+X3X+X+XoXoX+X=X&X=X+X+X&X&XOX,X&X%X$X*X,X*XIXKXKXPXLXIXIX<XIXLXLX*X*X<X,X6X<X6X<XPX<X<X6X,X<X2XKXPX%X$X$XI.%X2X2XP.W.P.L.G.J.G.I.KXJ.I.I.nXnXnXnXnXnXnXnXL.] w.nXw.w.r.w.r.r.8.r.r.r.~ 3.3.3.3.3.] 3.4.3.~ ~ ( ~ 3.] } ] ~ ! ] ~ 4.3.] ] ] ] ] / ~ } / ^ ] { { { { @XK.#.{ @.@.+.+.@.[ [ { { { +.[ %.[ @.[ #.#.#.@.[ %.%.%.[ +.[ { [ _ [ ` _ ' ) ) [ ` ` ' ' ' ` [ X.` X.+.` +.O.o.O.o.@XoX@XoX@.` [ { ' { o.' o.{ { { ' oX@X@.K.{ o.oXoXoXo.oXoX#.@XK.L.=XK.#XP.@XL.L.%X=X",
" . . . . . .$.$...$...$.3X$.+X+X+X3X3X3X+X+XoXoX+X+X+X3X+X+X+XOXOXoX@X&X+XOXOX&X&X$X2X$X$X&X&X<X<XPX2X<X*XIX<X<XIXIX*X*X&X&X4X6X,X<X<X<X<X<X<X6X<X<X%X%X%X$X$XP.I.I.I.I.I.I.K.L.J.I.nXbXI.nXbXbXI.nXbXbXnXnXnXw.w.nXaXnXw.w.nXr.r.r.r.r.3.r.~ 3.3.4.~ ] 3.4.( ~ ~ ~ ~ 4.w.] ^ } } 3.3.3.} ^ ] } ] G./ / ^ F.F.^ F.{ { o.o.@.+.+.+.@.@.+.[ +.[ } { [ [ [ [ +.+.#.s.s.#.[ } [ [ _ _ [ [ { } _ _ ` ' ` ` ` ) ) ` ` ` ' ' ` [ ` o.+.@.` @.o.o.@.oX@XK.K.@.@.[ { ` ' o.K.K.K.{ { { @Xo.' K.K.@.@X@XoXoX=X=X#X@X@X=X#X=X@X#X#XL.%X#X*X",
" . . . . . .$. .O.$.$.$.$.+X+X+Xo.+X3X3X+XOX+XOX+X+X3X3X+X=X+X&X+X+XoX$XOXOX-X-X&X-X,X-X,X&X&X<X<X<X<X<X<X<X4X<XIX*X*X*X&X,X&X6X4X<X<X<X2X<X,X,X,X*X%X%X%XI.P.P.L.I.L.P.$X%X@X#XP.L.I.W.I.I.bXnXJ.nXJ.bXnXnXnXnXnXnXG.aXaXw.w.r.r.r.r.r.w.r.3.3.3.4.4.4./ 5.~ ! ~ ! / ] ] ] ~ ! ~ 3.] ] ] ~ ] } ] F.F.G.m.F.F.{ { K.@.@.o.{ ` @.[ { +.{ [ { ] } [ ' ` [ +.#.@.#.#.#.#.} [ [ _ %.%._ [ { _ ` _ ` ) ` ` ) ` ) ` [ _ ' ` ` ` ` ` +.+.+.o.o.K.o.oXP.@X{ K.{ o.o.[ [ o.K.K.D.K.{ { { ' ' { ' K.o.oXoX=X=X#X#X#X@X=X#X@X$X#X%X#X#X#X*X",
" . . . . . ...$.$.$.$.3X3X3XOX+X+X=X3X3XOX+X+X+X+X+XOXOX+X=XoX+X$X+XOXOXOXOX-X-X:X:X,X,X4X,X&X<X,X<XIXIX6X6X<X<X*X*X=X*X4X4X4X4X4X&X<X<X%X2X$X,XOX$X$X%X=X%X%X$X$X@X@X$X%X#X%X#XP.I.E.J.J.G.G.J.J.J.J.bXbXbXnXnXnXaXnXnXnXw.r.r.r.r.e.r.w.w.w.4.3.3.4.3.4.~ / ~ ! ^ / / 4.~ ~ ~ / / / ] } ] ] ] ] F.G.m.F.F.F.K.D.D.K.{ { { { ` ` { ' { } } [ [ [ [ [ @.+.@.#.#.%.s.#.} { [ _ _ [ [ [ [ _ _ _ ` W W ' ` ) ` ` ` ) ` ) ` ` ` ` [ ` { ` @.o.D.oX@X@X@.@X@.@.@.{ @.+.@.{ K.K.@X{ { { o.K.K.o.@X@.@X=X$X#X%X#X=X%X#X*X=X=XLX*X#X=X*X",
" . . . . .$... .$.$.$.$.3X3X3X+XoX+XO.+X3X+X+X$XOXOX+XOX+X+X=X+XOXOXOXOXOXOXOX,X-X-X,X,X&X&X6X4X<X<X<X4X<X<X<X*X&X*X*X<X*X6X4XOX&X,X,X<X&X2X*X$X$X$X&X*X%X%X&X$X*X#X%X%X@XL.%XL.@XI.J.E.J.F.F.G.J.J.I.nXJ.aXnXL.aXsXG.aX] nXw.} ] } w.w.] } 4.w.3.3.3.} / / ~ ~ ! / / m.4.w./ 5.4.] aX] ] F.] ] G.G.} ^ ^ { K.D.{ K.{ { @.@X{ @.` { { [ [ { [ +.[ [ { { { +.#.#.#.[ _ [ %.+.%.%.%._ _ [ ` ` ` ` ` ) ` R ) ) ' ` ) ` ` O.` X.` ` [ ' o.@.' K.@XP.K.{ { =X@.{ @.{ { L.K.{ K.K.oX{ K.o.{ D.K.@.@X@X@X%X%X#X=X#X#X*XKX%X#XLX#X%X*X*X",
" . . . . .$.$.$.O.O.$.$.$.3X+X+X+X=X3X3X3X+X+X+X+XOXOXOXOXOX3X=XOXOXOXOXOX5XOX-X-X,X6X<X<X*X4X4X6X<X<XIX4X4X4X*X*X*X<X<X4X,X6X,X,X,X,X*X*X<X2X$X&X&X$X*X=X@X#X*X*X#X#X#X@X@X#XL.L.I.P.P.F.K.L.G.I.P.L.G.G.G.G.I.L.J.m.G.4.aXw.w.nXw.G.nXw.] ~ 3.w.3.3.] ~ ~ ~ ~ ~ ~ Q / / w./ 4.m.G.aX] ] F.F.F.^ ] F.F.{ } ' K.{ { ' { o.@.@.o.[ ` { @.{ [ [ [ [ [ [ } [ +.#.#.[ _ _ +.#.+.%.%._ _ ` [ _ ) _ [ ` ! ) ) R ) ` ` ) ` ` [ ` ` X.` [ [ +.+.K.K.K.P.@X#X=X@X@XK.K.K.L.K.G.{ ' { ' o.@XD.K.F.L.K.{ K.#X%X%X#X=X*X%XLXLXKXKXKXLX*XPXLX",
" . . .$.$.3X3X$.$.O.O.$.$.O.O.+X3XO.3X3X3X+X+X+XOX3XOXOXOXOXOXOXOXOXOX+XOX3X-X6X&X,X6X,X*X4X*X4X6X<X4X4X4X*X&X&X*X<X*X<X*X4X,X6X6X,X&X*X,X%X&X&X$XOXoX=X=X$X@X=X@X@.=X=X#.#X#.K.#XK.K.K.P.F.G.P.P.F.G.aXG.m.aXJ.J.J.m.] m.G.w.nX] w.w.G.aXw.3.3.4.~ w.] } ~ 4.4./ 5./ / / / 4.4.aXJ./ m.] G.M.G.] ] G.G.] F.K.{ F.K.K.{ { oX@.oX' { o.+.{ +.[ [ [ ` _ [ [ [ [ +._ _ [ +.+.%.[ %._ ) _ _ [ [ ` _ _ ) ) ) R ` ) ` ` ) [ +.` ` ` [ [ } +.#.{ L.@XK.@XL.K.@XK.{ K.{ @X@X{ K.K.' { { K.K.K.P.K.P.K.P.L.%X#XLX*X*XKXPXLXLXLXKXLXPXKXLX",
" .$.$.$.$.$.$.$.$.$.$.$.@.#.@.3X$.$.+X3X+X+XOXOXOX3XOXOXOX3XOXOX-X+XOXOX3X3XOX6X6X<X4X*X4X4X6X6X,X6X*X4X&X<X*X<X$X*X<X<X,X,X<X<X6X,X,X,X*X$X@X$X@XOX&X=X&X$X$X@X@X=X@.#.#.#.@.#X@X{ K.K.K.G.H.K.H.L.L.G.G.G.J.J.J.N.N.m./ ] G.G.G.aXaXaX4.aX4.w.~ ~ ] 3.~ ~ 3.Q Q 4./ 4./ / m.aXm.sXaXm.m.G.] F.F.F.] G.] G.F.K.} { K.K.#X@X@.oXo.o.o.[ +.+.+.` } [ } } _ _ [ %.[ %.[ [ %.%.%.%._ _ ` ) _ [ [ [ ) ) ! ) R W ` ) ` [ [ +.[ ` [ [ [ } } { K.L.#.#XL.L.#X@X@X{ K.K.K.#X@.L.L.K.{ K.K.K.F.P.P.P.K.K.#XKX%XKX%XLXLXKXKXKXMXKXPXLXIXKX",
"$. .$.3X$.$.$.3Xo.$.$.$.o.O.+X$.O.+X+X3X+X+XOX+X3X+X+XOXOXOXOXOXOX+X-X3XOXOX,X-X-X,X4X<X,X<X<X6X4X6X<X4X<X<X4X4X,X*X&X1X<X<X<X6X6X<X<X,X&X&X$X&X=X=XOX@XoX=X@X@X@X@X@.=X#.#X#X#XK.@XL.K.G.K.F.J.F.I.F.I.G.G.J.J.bXnXJ.G.G.G.] aX] 4./ ] ] ] / w.~ ~ 3.3.] ~ ! ( 4.4.5.4.m.m.m.N.aXsXpXm.J.m.F.F.G.F.^ ] G.] { ] F.^ K.@X{ K.o.D.o.o.@.{ @.` ` ' ' ` [ [ +.%.+.%.%.%.+.+.+.%.+.%._ ) [ ) [ ) ` +.` ` ' ' ) R ) ) ) +.` ` ` _ _ [ [ } } #.L.L.@.#.L.K.K.K.{ L.F.{ K.K.{ @XK.G.K.F.K.K.F.P.P.$XI.K.K.LXLXLXnXLXnXKXKXKX*X%XLXLXKX*X",
" .$.$. X .$.3X3XO.O.O.$.O.$.$.+X+X3X+X+X3X+X=X=X+X+X3X3X3X3X3X+X&X&X-X5XOX,X-X4X&X-X,X<X&X<X*X4X6X6X6X6X6X*X4X&X*X*X,X2X<X<X<X6X6X<X*X*X=X=X+X&X=X@X@X=X@X@X&X@X@X@X@X#X#X#X=X#X$XP.L.L.K.P.H.F.G.I.P.J.I.nXL.I.nXnXnXL.G.G.aXaX] ] ] ] ] ] ^ / 3.3.4.4.Q / ( Q ~ 5.4.5.aXm.N.sXdXsXN.sXm.m.F.F.F.F.G.G.G.G.F.] F.F.K.K.K.K.K.D.K.@X@X@.` ` ' ' o.o.{ [ #.+.+.+.%.%.%.+.[ +.[ +.X.` ` ` ` [ [ +.` ' W W T ) ` ) ` ` ` ` [ _ _ [ [ [ { K.{ L.{ L.#.@.@X@XK.L.{ F.F.K.F.{ { L.{ K.F.P.L.I.#X%X#X$X#X#XLXnXLXKXLXKXLXLX%XLXLXLXLX*X",
" . .3X X .$.$.$.O.+XO.3X3X3X3X$.+X+XoX3X3X3X4X$.3Xo.+X3XOXOX+XOXOX&XOX5X6X,X&XOX,X-X,X1X2X,X,X<X<X6X6X6X6X<X&X&X,X&X*X2X<X<X<X,X<X<X<X4X4X*X=XOX+XoX&X&X=XoX$XK.@X$X@.=X#X#XLX%X$XI.@XK.F.P.H.H.J.F.J.F.G.L.I.I.nXL.#XL.G.G.nXnX4.m.] / ] 4./ 5.Q 5./ 4.5.4.Q Q 5.4.4.Q 4.m.m.iXpXaXaXsXm.M.H.M.H.F.F.G.] G.F.G./ G.K.K.K.@X{ D.@.K.@.@.@.' ' ` [ +.+.+.O.+.@.[ %.X.+.+.+.%.+.[ ` ) ` ' ` [ +.X.' ` ' W ' ' ' ) ) ` ` [ ` [ [ _ _ [ { { L.K.L.K.L.#X#XK.K.L.F.] G.K.K.F.F.G.G.] K.K.P.nXI.$X%X%X%X%X#XnXnXnXLXLXKX#XLXIXLX*X#XLX",
"3X3X$. X X$.$.3X3X3X3X3X3X3X+X+X3X+XOX3X$.=X$.3X3X=X=XOXOX+XOX+X3XOX-X6X4X,X&XOX,X,X,X1X,X1X6X<X<X<X6X6X6X4X4X&X*X<X<X<XIX<X<X<X<X<X<X*X*X*X&X&X&X&X&X@X$X$XoX$X$X$XoX@X=X%XI.%X%X$X$XL.J.J.Y.H.G.F.J.G.H.I.I.I.nX#XKXnXJ.G.m.aX4./ ^ / m.4.m.4./ 5.3 iX5.5.aX4./ 4.4.4.5.m.n.sXsXn.sXN.N.M.H.H.H.H.F.F.G.L.G.] m.G.] F.K.{ K.@.K.@XK.@XoXK.{ { ` +.+.+.O.o.+.+.@.+.+.+.+.+.[ [ ` ' ` ' ` O.O.O.` ' ' ' ' ' ' ' ) ` [ [ ` _ _ _ [ { { @.@.K.L.L.#X#XK.@X{ K.{ { K.K.K.K.} F.F.G.] L.L.#X#X%X$X$XI.I.nXnXnXnXKXKXKXKXLX*X*X*XLXLX",
" .$.$. . X .3X$.$.3X3X3X3X3X3X+X3X+X+X3X$.3X$.3X3X3X=XOX3X3XOX3XOXOXOX4X4X-XOX&X$X,X6X1X,X5X6X<X6X,X<X<X6X<X4X,X,X,X6X,X,X6X,X6X<X&X&X*X&X*X&XOX=X$X$X=X@X@XK.K.K.@X$X@X@X#X%X%XW.2XI.%XP.P.F.M.H.M.F.I.P.I.$XI.I.nXL.nXbXbXnX] aXm.] m.] ] Q Q Q 5.Q 5.4.5.5.4.Q 4.4.4.aXaXsXiXpXaXsXaXG.H.M.M.M.H.F.J.F.F.G.^ F.G.] F.F.F.{ @.@XoXK.K.K.{ K.' o.{ #.o.@.+.@.[ +.+.+._ [ ` +.` ` ` ' ' O.' ' O.` ' ' ' ' ' ' ' ' ` [ ' [ ` [ _ _ [ { K.K.{ { { { #.] #XK.L.L.] ] K.K.F.K.F.F.L.L.L.L.KX%XI.#XL.%X#XnXKXLXLXKXKXLXKXKXLXLXLXLXIX",
" . . . . . .3X .$.3X3X X3X3X3X3X$.3X3X3X3X$.OX3X4X4X3X+X3X&XOXOX+XOX&XOX-X6X-X-X&X-X1X1X1X6X4X6X6X6X6X6X<X<X<X*X*X,X1X<X6X6X6X6X<X<X&X&X&X&X&X&X&X*X*X$X@X@XK.K.@X$X$XK.#X%X%XI.bX%X$X%XL.P.F.F.M.H.P.H.P.P.L.L.I.I.L.L.G.bXG.G.w.nX] ] ^ ^ ~ Q / 4.5.Q Q - 5.5.Q 5.3 iXiXiXiXiXsXsXsXaXsXH.M.M.c.H.F.K.F.F.{ G.} G.F.F.G.} { { { { { @XK.K.@XoXo.@.o.o.O.o.+.@.[ +.` [ [ [ ` o.' ` ` ' ' ' O.O.X.O.' ' ' ' ' ' ' ` ' ` ` ` ` [ +.@.` { { } } { ] L.{ #XL.L.L.K.{ L.L.K.G.G.L.L.nXnXnXKX#XL.nX#XL.nXnXnXKXKXKXKXKXKXLXIXLXPXPXIX",
" .3X . . . .$. . X . X3X X3X3X3X+X+X3X3X$.$.3X3X4X4X4X+X+XOX=X&X&XOX+X,XOX-X,XOX-X&X;X6X,X6X1X6X6X6X<X6X<X<XPXPX6X,X6X6X6X<X,X6X<X<X<X$X&X&X&X&X$X&X$X@X$XoXL.L.K.K.K.$X%XW.I.I.I.W.P.%XP.P.F.H.F.D.H.P.K.I.G.P.J.G.L.w.G.L.L.nXG.I.G.G.^ } / Q Q 4.- Q 3 - 5.3 5.Q 5.dX5.iXiXm.aXdXaXaXN.N.J.H.F.H.J.F.F.L.{ G.} } ^ { } } { { } { { @.K.@XK.@X@.#X@.@Xo.o.@.[ +.+.+.+.[ { O.@.O.+.` ' ` ` ' O.O.O.' ' ' ` ' ' ` [ ` ` X.+.) ` +.+.[ { { ] { G.K.G.L.G.L.L.I.{ { L.L.L.L.I.nXL.L.KX%X#X#X%XKXnXnXnX%XnXKXKXLX%XKXPX*XLXIX<XIXPX",
" X . . . . . X X3X X3X X X3X3X X3X3X3X3X$.$.4X4XOX4X=X4X4X=XOX-X&X&X&XOX-X,X,X,X,X,X1X6X,X<X6X6X6X6X6X6XIXIX6X<XIX6X6X6X6X<X,X6X<X<X<X<X&X&X$X&X$X$X+XK.@X@X#X#XK.K.@X#X%XW.W.W.I.P.I.I.I.F.H.H.K.P.P.P.P.F.F.K.K.L.L.L.K.L.G.L.J.G.G.] } ] / Q B.Q - - - 3 5.3 5.5.5.iX5.aXaXiXaXaXbXbXbXN.J.H.E.J.J.H.G.J.F.F.F.{ { { ] ] L.{ { { { { { L.#X=X=X@X=X@Xo.@.o.+.` o.O.+.O.O.o.@.[ ` O.O.O.O.O.O.' O.O.O.` ` ' ' ' ' ` O.+.X.+.+.O.O.` { { G.{ ] L.nXnXJ.nXnXI.L.#XKXnXnXL.I.I.nXL.nXnXKXKX%X%XnX%X%XI.KXLXKXKXKX%XPX2X<X*XIXIXIX",
" . . .$. . . X$. X X X . X3X3X X3X$.$.$.3X3X3X4XOX3XOX4XOX+X&X&X4XOXOX&X&X&X&X,X-X,X1X6X6X1X6X<X6X6X<X<X1X<X<X<X6X6X6X6X<X<X*X,X*X2X<X,XOX&X&X@X$X$X$XK.$X$XL.@XP.P.L.I.E.E.I.MXW.I.I.W.T.H.J.J.H.H.P.I.P.F.F.K.G.G.J.L.G.G.G.bXG.m.] ] G.G./ 4./ / j - 3 3 3 Q Q j 3 5.iXaX5.iXm.m.aXbXN.J.J.P.J.F.H.F.M.L.M.F.F.F.G.K.K.F.{ L.F.K.{ { K.K.=XoX=X@X@.o.@.@X@.' ` +.o.O.o.O.o.` ` O.` O.O.O.O.' O.O.' O.' ' ' ` ` ' ' X.O.O.X.O.o.o.{ [ { } { L.L.G.nXbXI.L.L.I.#XI.#XnXnXKXnXI.%XnXnX#XKX<XKXKXnXnXLXKXKXLXLXLX%XKX<XIXIXIXIXLX",
" . . .$.$.$.$.$. X X .$.$.3X3X3X3X3X3X3X3X3X4X4X4X3X4X4X3XOXOX&XOX&XOXOX-X,X&X,XOX-X6X6X6X6X6X6X<X<X<X6X6X6X<X<X<X6X<X<X<X<X6X4X*X<X,X,X&X&X&X$XP.$X$XP.I.$XP.P.K.$XI.$XW.E.%X%XI.I.I.W.E.I.E.T.P.H.I.H.H.H.m.G.J.J.m.nXG.G.J.J.m.w.r.] ] aXQ ~ ~ aXiX- 3 j 3 - B.r iX5.aX4.5.4.n.N.bXbXJ.J.J.J.J.J.F.G.F.G.F.F.G.G.F.G.F.} { G.K.K.K.{ @.@.@X=X@X@.@XoXo.@.K.@.@.+.@.o.' o.@.{ ` ` O.O.' O.O.O.O.' O.O.o.' o.` ` ` ` ` +.` X.+.@.@.[ [ +.{ K.#.L.G.G.L.L.#X#XI.#X%XKXL.nX#XnXI.I.LX%XKXKX%XKXKXLXKXLXLXKXLX%X%XnXKXKXPXLXIXPXPX",
" .$. .$.$. .$. X3X3X .$.$. X .3X3X3X3X3X3X3X3X3X4X3X3X3X4XOX4X4X&X4XOXOXOXOX&X&X&X-X,X-X5X-X6X<X6X<X<X<X6X1X6X6X6X4X&X*X*X<X6X,X<X,X,X-X-X,XOX$X$X$XP.I.I.$X$XP.$XI.I.P.$XP.E.2XE.W.T.E.T.P.W.J.E.H.H.P.G.m.F.H.m.G.m.G.J.aXG.G.m.4.] w.w.aXaX~ 5.4.4.iXiXj j j - iX3 5.5.m.4.m.m.m.m.aXbXG.J.J.J.N.F.m.G.m.F.F.^ ^ G.F.{ ] { nXK.K.{ K.@X#.@.=Xo.=X@X=X@.@X@.@.o.o.o.o.O.o.o.' O.' ` O.' O.O.O.O...' o.O.o.` ` [ +.` o.O.X.X.[ o.+.[ #.{ #.{ { L.{ L.] L.{ #X#XnXKXI.nXnX%XKX#X*X%X*XKX#X*X%XLXKXnXLXLXKXLXLX%XLXLXLXKXKXIXIXPX",
" .$.$.$.3X$. .3X$.$.$.$.3X X .3X X3X3X3X3X3X3X3X3X3X3X3X3X3X3X4X6X4XOX-XOXOX=X&X&X,X5X5X5X-X,X6X6X6X6X6X6X6X6X6X<X6X<X*XIXIXIX<X<X<X4X,X-X:X:X$X$X%XW.I.I.E.P.$XE.2XP.I.I.W.W.W.Q.E.E.W.W.W.W.W.J.H.F.G.m.G.G.aXG.G.G.m.N.aXG.G.] m.aXaXaX4.4.4.Q 5.iXiXiXiXj j r 3 3 5.5.aXm.m.m.aXaXm.J.J.J.J.N.N.N.G.G.m.F.F.F.F.^ ^ ] G.] G.G.K.K.@XK.@.@.@.O.+Xo.@X+X+Xo.o.oXo.o.o.K.o.D.' O.O.O.' ' O.O.O.O.O.O.O.O.O.O.` +.+.' o.` ` ) +.X.+.+.#.#.@.K.{ { +.#.{ ] L.L.#XL.%XL.KXKX%X%X*X%X<X*XKXLXLX#X#XLXKXKXLX%X%X%XKXKXPXPXPXPXPXPXIX",
" . .$.$. .$. X3X3X$. .$.$.$.$.$.$. .3X$.3X3X3X3X3X3X3X4X3X5X6X4X4X4X&X-X&XOXOX&X,X-X,X6X6X1X1X6X<X1X6X6X6X6X6X<X4X,X,X*X,X<X<X,X,X<X,X&XOX2X-X2X2XP.P.I.P.H.E.E.W.H.J.J.E.J.bXR.W.W.E.2XI.J.I.P.P.J.G.F.G.F.G.nXaXm.aXsXm.N.aXm.G.aXG.nXaX4.5.5.5.iX5.5.dXdXpXj j 3 5.5.5.4.m.aXaXaXN.B.aXbXbXJ.J.lXJ.J.J.m./ m.m.G.m.] ] m.L.] L.K.#XK.#.=X#.@X@.o.o.O.o.o.o.@XoXo.o.' O.' O.{ ' O.' O.O.O.' ..O.O.O.O.O.` ' ` ' [ o.' +.` ` X.X.+.#.@.{ @.+.[ { +.#.#.#.} #.#X#XLX%XKX=XKX$X*X&X*X2XKXLX*X#XI.*XLXLX%XLX*XKXI.nXKXKXKXPXPXPXIX",
" . . X$.$. .$.$.$.$.$.$.$.$.$.$.3X X$.$.3X3X3X3X3X3X4X4XOX3X5X,X,X,X&X-XOX-X&X&X&XOX-X6X6X<X1X1X<X<X<X1X6X<X<X6X6X,X*X*X&X$X*X*X,X,X,X&X$X,X$X>X$X$XI.P.$XP.E.E.W.W.T.T.J.T.W.R.MXW.W.E.W.W.I.P.P.J.J.G.J.I.J.aXbXG.aXm.pXsXaXN.sXN.bXaXaXaXiX5.iXiXiX6.j iXiXj iX5.5.5.5.4.4.m.B.sXN.m.M.J.N.N.N.bXbXbXaXm./ / m.m.^ / / m.F.G.K.K.{ K.@.#X=X=Xo.#.@.@.@.o.O.oXo.o.{ ' ' ' ' ' ' O.O.O.O.O.' O.O.o.O.O.O.O.+.o.' ` ' o.+.O.` X.O.+.+.#.#.@.+.@.[ [ { s.#.} { L.L.#X#X#X@X*X&X=X%X*XLXKX%X*X%X%XLX*XLX*X%XLX%XW.W.nXKXPXPXPXPXPX",
" . . . .$.$.$.$.$.$.$.$.$.$.$.$.3X .$.$.3X3X3X3X3X4X4X4XOX4X6X6X4X,X,X-XOX-XOXOXOX:X,X,X,X1X<X1X1X2X<X6X<X6X<X4X4X*X&X*X<X&X*X4X<X,X,X&X$X$X,X2XE.%XW.E.E.P.E.T.W.W.W.!.W.Y.R.!.T.E.J.E.I.I.J.P.H.T.F.J.J.L.nXJ.J.w.aXm.m.aXJ.sXbXbXsXaXsXaXaXdX5.iXiXiX5.5.iXj iXaX5.aXaXaXaXm.iXm.m.m.B.G.J.N.sXN.bXbXN.m.aX/ m.] w.m.aXaXG.K.L.L.@X{ @X{ #XoXoX=X@.o.@XoXoXo.o.{ ' ' ' O.' ' ' ` O.O.O.O.O.O.O.o.O.O.O.X.` +.+.` +.o.O.+.` O.+.O.+.@.o.+.@.#.#.+.#.r.} r.s.s.s.#X#.=X=X=X=X=X=X*XLX%X*X=XLX%X#XLXLX*X*XLX*X%X%XMXKXPXPXKX2XPX",
" .$.$. . .$.$.$.$.$.$.$.$.$.$.$.$.3X3X$.$.$.3X3X3XOXOX4X4X4X4X6XOX,X-XOXOX-X-XOXOX,X-X-X1X1X1X1X1X1X6X6X6X6X4X*X*X*X%X*X4X,X&X<X&X&X4X&X&X$X$X2X>XW.I.2X2X2X>XW.!.!.!.~.~.R.T.T.Y.Y.Y.H.Y.W.J.P.P.P.P.H.F.L.G.bXbXaX4.aXaXaXsXsXaXbXbXsXsXaX4.dXdX5.5.5.5.iXiXiXiXaXaX4.4.m.m.aXaXB.B.n.B.N.N.N.N.N.N.J.N.G.m.m.m.] / 4.m.] L.G.L.{ #.@.{ @XK.@.o.@.@.@X@.@XoXoX=XoXoX' o.' O.O.' ' O.O.O.O.O.O.o.O.O.O.` ` ` +.[ { [ { ` ` ` O.+.o.[ +.@.%.%.#.#.#.%.r.s.s.#.s.s.s.#.=X=X=X#.=X*X*XLX*X=XLXLXIXLXLXLX*XLXLXKXKXKXPXPXPXPX2XPXPX",
" .$. . . . .$.$.$. .$.$.$.3X$.$.3X3X3X$.3X3X3X3X3XOXOX,X4X4X4X4X4X6XOX-XOX:XOX$X$X,X-X-X:X-X;X1X6X6X6X6X<X<X6X<X*X*X*X%X&X*X*X*X<X4X&X&X&X,X,X2X2XQ.2X2X%XW.!.I.W.!.E.W.!.T.T.R.R.Y.Y.Y.H.P.P.E.H.T.H.H.J.I.bXnXG.sXaXiXiXaXdXdXnXaXpXdXaXaXaXmXdXaX5.dX5.j dXdXg 5.Q aXm.4.m.m.iXiXB.n.n.N.iXN.N.N.J.sXN.M.] aXm.4./ / m.m.] L.L.@.@X@.@.@.=X#.@.oX@X+X@.oXoX@XO.oXoXD.o.' o.O.O.O.' ' O.O.O.O.O.O.O.O.O.+.O.+.` [ O.O.+.O.+.o.o.+.+.+.O.#.#.#.#.#.#.#.#.#.#.s.#X#.#.#X=X#.#X=X*X*X*XKX#X*X*XIXIX*XKX%XLXKXKXKXPXPX2X<X%XPX%X2X",
" . . . .$. . . . .$.$. . X3X$.$. .3X3X3X3X3X3X3XOX5XOX4X4X4X4X4X4X4X4X,X,X,X,X$X$X2X>X-X-X-X,X1X1X6X,X6X,X<X<X<X*X*X*X*X%X*X%X<X*X4X4X,X-X&X,X,X>X,X2X2X!.2XKXW.E.E.E.Q.R.Y.T.T.Y.T.Y.Y.Y.P.E.E.E.Y.T.H.J.J.H.G.bXJ.J.aXaXaXaXdXiXdXiXdXiXdX4.mXdXaX5.iXh h dXh j iXaXaXiXiXiXQ B.iXiXm.B.n.N.J.M.T.Y.Z.M.m.m.aXm.4.] ] / G.aXL.L.K.P.K.@X@X@.=X=X+X+XoXo.oXo.o.oXoXoXoXD.oXO.o.O.O.o.O.' o.O.O.O.O.O.O.O.O.O.O.O.+.o.O.O.O.O.o.o.o.o.O.@.@.o.@.#.#.{ #.#.#.#.#.#.@.@X#X#X@.#.=X%XLXKXLXKX%X*XIXKXKXKX%X%XPXPXPX<X2XbX%X2X2X2X%X",
" X . X . X X X .3X$.3X .3X . X$. .3X3X3X3X3X3X X3XOX-X&X,X4X6X6X4X6X,X2X,X1X,X$X$X1X:X;X:X-X,X1X6X6X,X,X2X2X<X*X<X*X*X%X*X*X*X4X,X&X,X-X,X-X&X&X&X$X2X%X%X*X%XW.W.$XW.E.E.T.Y.!.R.A.Y.Y.H.U.Y.U.P.T.J.J.M.J.N.J.bXbXaXm.sXbXaXdXiXaXiXaXdXdXdXnXdXdXiXdXpXj pXh iXpXm.iXaXiXiXm.iXiXm.aXn.N.M.N.M.N.S.Z.N.N.N.N.G.aX] aXm.w.G.G.K.P.K.F.K.@X@X=X=X+X=X=XoX' ' o.D.o.o.oXo.oX+X+XoXoXO.' O.O.O.O.o.O.' O.o.O.o.O.O.o.O.O.O.O.+.o.o.o.o.o.o.{ @.o.@.#.K.#.{ L.#X#.@.#.@.#.#.#.@.#.#X=XLXLXIXKX*XLXPXLXLX%X%XKXKXPXPXKXKX%X%X2X%X%X",
" X X X X X X X3X X3X3X X X .$.3X X3X3X3X3X3X X3XXXOXOX,X5X6X4X6X,X6X-X,X1X1X2X,X-X;X1X;X1X;X1X,X2X,X,X,X,X$X2X2XKX%X%X*X&X*X&X4X&X,X,X,X,X&X&X&X$X%XW.W.MXKXKXnXKXW.W.W.R.T.~.R.Z.~.~.Y.U.Y.Y.E.E.Y.T.T.Z.Z.bXbXbXnXbXnXnXsXaXdXdXiXaXaXiXpXdXdXpXiXpXpXdXpXpXl gXsXpXaXaXaXaXaXaXQ iXaXm.N.N.N.M.b.N.Z.n.N.sXsXm.m.aXm.G.aXL.L.I.F.K.K.{ @XoX=X@.o.=X@Xo.oX' K.oXoX+X+X+X+XoX+XoXoXo.o.O.O.O.O.' o.O.O.o.o.o.o.O.o.O.O.O.o.+.@.@.@X@.oX' { @.@.@.K.{ L.L.{ #.#.{ #.{ @.{ @.#.@.@X#X#XLXLXIXIXLXKXLX%X%XLXKXKXKXKXKXKX%X$X%X%X%X",
" X X X3X X X3X3X X3X X X X3X3X3X3X3X3X3X3X3X3X3X-X-X-X,X-X5X6X4X6X5X<X6X6X,X2X2X>X:X>X;X;X;X,X1X$X<X<X,X2X$X2X<X<X<X2X2X<X&X,X4X,X-X,X&X,X,X&X*X*X%XI.W.%XI.%XI.I.I.W.W.H.E.T.!.Y.Y.Y.Y.~.U.E.E.Y.W.J.T.Y.Y.J.bXaXnX/ nXaXbXdXaXdXaXaXdXpXdXdXdXaXdXpXg gXg g hXpXpXsXsXpXiXpXaXiX4.m.aXm.M.n.Z.n.b.M.b.b.N.n.gXN.H.G.bXN.J.J.#XP.K.K.{ K.@.@X@X@X=X@.oXoX{ oXK.D.+Xo.+XoX+X+X+XoXo.' o.o.O.O.O.oX' ' O.O.oXoXoXoXo.O.O.O.O.o.o.oXoXo.K.K.o.oX@X@.K.@.K.L.@X#.@.{ { { { #X#.{ { { #X%XKXLXKX<XLXKXI.#X*X%XKXKXPX2X%X%X&X&X@X2XI.",
" X X3X3X X X X3X X X X X3X3X3X3X3X3X3X3X3X3X3X3X5X-X-X,X;X-X6X6X4X&X6X<X,X,X2X2X:X>X;X;X:X-X,X,X,X<X,X2X2X,X2X,X2X,X<X2X2X,XOX,X3XOX4X,X,X&X*X*X*X%XL.I.L.I.I.I.I.nXI.P.P.E.W.R.R.Y.Y.~.Y.H.P.E.P.J.E.Y.W.Y.J.bXm.aX4.4.aXdXdXdXaXdXdXdXzXdXdXaXsXsXpXgXgXg g l h h j pXiXpXiXaXm.m.4.iXpXn.C.Z.C.n.n.S.Z.b.n.n.Z.N.N.aXbXbXW.I.I.P.@X@XK.K.K.@X@XoX$X@XoXK.D.oXoX+X+X+X+XoX+XoXo.oXoXo.oX+Xo.O.O.oXO.O.O.oXoX+X+X+XO.O.$.O.O.o.o.oX@.@.oXoXoXK.L.@X@XK.@X@X@X@X{ @.#XL.@X#X{ @.#.#X#XKXI.KXKXKXKXKX%X%X%XKXKXPXPXKX%X<X%X%X$X$X",
"3X3X3X5X3X X X X XXX3X3X X3X3X3X3X3X3X3XOXOXOXOXOX:X-X;X-X-X,X6X4X4X,X&X,X-X,X2X:X>X;X;X;X-X1X1X,X,X1X1X2X6X>X1X>X>X1X1X1X1X,X6X,X4X&X&X,X*X*X<X*XKX%X#XbX%XI.I.I.%XK.P.H.Y.T.R.T.Y.Y.~.~.E.Y.P.P.Y.W.H.J.T.J.bXsXaXaXaXdXfXdXdXdXdXdXdXdXpXpXsXsXpXgXg x x g h pXh pXpXpXpXaXsXaXN.m.m.B.n.N.Z.S.C.C.M.c.b.b.Z.M.Y.J.J.bXJ.G.nXP.K.$X$X@X@X#X#XP.$XP.@XP.D.oXoXoXoXoXoX@XoX@X=X+XoXoXD.+X=X+X+Xo.O.O.O.oX+XoX+X+X+X3X$.O.O.+Xo.O.+XoX@X' ' P.P.K.K.L.P.L.P.I.L.@XK.#X#X@X@.K.L.{ L.%XKX#XI.KXKXKX%XLX%X%X%X%XIX%X%X&X&X&X%X$X$X",
"3X3X3X3X3X X.X X X X X3X X3X3X3X3X3X3X3X3XOXOXOXOX-X,X-X,X6X4X4X,X,X,X&XOX-X-X,X1X:X;X;X-X6X,X1X1X1X1X1X>X1X2X>X2X>X>X1X1X1X,X,X&X4X4X&X&X*X*X*XLXLX*XKXnX%XI.I.I.$XI.P.P.Y.E.T.T.Y.V.~.U.Y.E.H.E.Y.T.E.J.J.M.N.N.aXaXdXdXmXt.dXdXsXdXdXpXpXn.gXpXpXpXn.gXg h l pXl l g gXn.pXN.sXN.N.N.N.N.C.C.b.C.b.b.S.S.Z.Z.Z.~.J.T.J.J.bXJ.P.P.K.$X@X@XoX$X$XP.P.P.P.P.P.oXD.oXoX@X=X@X=X$X$X$X$XoX@XoXoXoX+X+X+X+X+X+X+X+X+X+X+X$.+XO.$.O.O.O.oXoXoXK.D.P.$XK.K.$X#XI.I.#XL.L.@X@X#.@.#.@.{ K.L.%XL.I.I.KXKXnXI.%X*X%X%XPXKX%X%X&X&XOX$X$X",
"3X3X X5X3X X XXX X X X3X3X3X5X3X3X3X3X3XOX-XOX-X-XOX-X-X6X,X6X4X4X,X&XOX&X>X2X-X-X:X-X1X1X1X1X1X1X1X1X1X1XeXwXwX1X2X1X1X;X;X,X-X&X4X4X,X*X*X*XKXKX%X%XKXnXKXL.nXI.%XL.I.H.W.E.T.~.Y.~.Y.Y.~.W.H.I.H.J.Y.W.T.F.J.m.aXaXpXiXdXaXiXdXdXdXdXhXpXpXsXpXgXpXpXpXx l hXpXhXdXpXsXpXN.pXN.pXN.n.n.N.C.N.C.n.C.C.M.Y.S.~.T.Z.T.H.T.bXJ.G.P.P.P.K.$X@XP.$X$X$XP.P.P.P.oXoXP.D.oX@X@X@X$X@X+X+XoXD.+XoXoXo.+X+XoX+XoX+X+XOX+X3X3X+XO.+X+Xo.o.+XoXoXoXoXP.W.K.L.#XI.$X%XI.I.L.@X@X#.@.@X#.@.@X] #XLXI.nXKXnXnXKXKX*X%XI.%X%X%XI.$X@X$X$X$X$X",
"3X3X3X3X X3X3X5X5X X X3X3X3X3X5X-X3X-XOX-X-X3X5X5X-X5X6X6X6X6X6X6X,X&X$X,X,X2X,X$X-X-X;X;X;X:X1X1X1X1XyXyXeX1XwX>X>X>X1X,X-X5X5X&X&X&X&X&X%X<XKXLXKXLXLX%XI.nXKXKXL.nXI.P.E.!.R.T.R.T.H.H.Y.Y.J.J.J.Z.T.T.I.P.J.m.sXdXpXiXdXiXdXdXfXdXhXhXsXlXlXpXgXlXpXpXgXpXhXpXdXdXdXdXlXC.N.sXsXpXn.n.n.b.b.S.Z.Z.S.Z.N.Z.R.T.J.T.J.W.T.bXG.P.I.P.P.P.$XP.$X$X$XP.P.oX@X$XoXOXOXP.@X@X$X@X$X@XoX@XD.OX+X+X+X+XoX+X+X+X+XoX+X+X+X+X+XoX+X+XO.+X+XD.D.D.+XP.P.#X#X#X%X@X%X%X%X$X#X@.@.@X=XL.L.{ L.L.nXnXnXbXKXKXnXL.%X%X%X%X%X%XL.P.@X@X@XoX$X",
"3X5X5X X5X.X5X.X5X.X3X3X3X3X5X5X-X+X3X+X-X5X5X-X-X5X-X6X6X<X<X4X,X6X4XOX,X1X-X6X-X-X-X;X:X:X;X;X;X1X6XyXyXeXwXwX>X[.1X1X1X;X;X6X6X-X,X4X*X,X%X2XKX%XKXKXKXL.KXKXnXnXI.I.I.E.T.Z.R.T.T.T.T.J.T.J.N.J.T.T.I.I.I.bXsXaXdXpXdXdXdXdXfXdXdXzXpXgXpXzXsXgXgXpXpXpXhXdXpXg iXpXhXdXn.lXpXgXn.gXr n.C.C.Z.C.Z.C.C.J.Y.Y.N.H.J.T.J.T.J.sXI.J.E.P.2X$X$X%X$X$XP.P.P.-X$X$XD.P.$XP.$X$X&X&XOX$X$X$XOX+X+XoX+X+XOXOX+X+XOXOX+XOX+X+X+X+X+X3X+X$X+X+XoX+XK.$XP.L.L.#X%X%X%X%X@X#X@.@.#.#X#X#XLXw.KXKXI.I.nXKXLXKXLXLX#X%XL.%XI.L.K.@XK.D.P.$X",
"5X5X3X.X.X X5X5X.X5X.X5X5X5X-X5XOX3X:XOX5X5X5X5X5X;X-X,X1X6X6X6X4X-X-X,X-X,X,X,X;X-X-X;X;X:X0XqX0X1X;XeX1XeX>XwXwX>X>X;X;X;X-X1X,X,X6X&X*X*X*X*X%X%XKXKX%XKXKXKXL.nXnXMXbXJ.Y.T.J.T.T.T.Y.J.J.T.lXN.sXJ.J.bXJ.bXsXdXdXdXdXdXdXdXdXdXzXzXlXpXsXsXpXpXlXpXpXgXdXdXdXpXdXsXpXsXsXsXgXgXpXgXg pXgXC.Z.Z.C.Z.N.Z.M.T.Y.J.J.N.bXbXbXbXJ.T.E.W.$X$X$X$X$X$XP.$XP.$X$XD.$XE.E.$X,X,XOX,X&X&X&X$X&XOXOXOX+XOXOXOXOXOXOXOX3X3X+X+X+X+X+XOX+XOX+XoX@X@X$X$X@XK.I.#X#X#X#X=X=X=X=X@.@.#X#XLXLXKXnXnXKXI.%X%X#XLXLXKXKXKXnX#XI.P.F.K.oXoXD.oX",
"3X5X3X.X5X.X5X5X5X5X5X5X5X5X3X5X5X-X-XOX:X;X5X;X-X1X,X,X<X6X6X6X4X,X-X<X1X,X,X;X-X-X-X;X-X;X;X0XeX1X;XeXeXyXwX>XwXwX;X;X-X>X1X6X,X,X6X&X&X*X<X%X2X%X%X%XLXbXKXnX#XKXnXbXnXJ.T.J.J.MXbXbXJ.J.J.J.J.T.J.bXbXsXbXbXdXdXpXdXsXdXdXpXpXhXdXlXzXpXlXlXdXhXhXhXzXlXsXsXgXpXsXdXsXdXpXzXpXpXpXC.y n.C.n.C.Y.C.Z.gXZ.Z.Z.Z.T.T.J.bXT.I.J.J.E.P.$X,X$X%X$XW.P.2X$X$XP.P.E.U.>XE.E.$X:X>X-X-X$X$X@XOX+XOX+XOXOX+XOXOXOXOXOX+XOX3X+XoX+X+XOX+X+XoXK.oX@X@XI.P.K.#X%X=X#X#X#X%X#.@.{ #.#X{ #X#XnXnXnXnXKX#X*XnXL.%XKX%XL.I.@XK.#XP.K.D.@XoXD.",
"5X3X5X5X5X5X5X5X5X5X.X5X5X5X5X5X5X-X-X-X-X5X;X0X1X6X<X<X,X6X6X6X6X6X,X6X6X,X6X,XOX-X,X-X;X;X;XtXeXeX0XtXtX0XwXwX0X0X0X;X-X,X1X1X,X,X&X*X<X*X2X<X%X%X%X%XI.KXnXKXnXKXLXKXbXJ.bXJ.I.bXJ.J.bXbXT.J.J.J.J.bXN.N.N.bXbXdXdXdXdXdXpXpXh pXgXgXzXdXlXzXzXzXhXhXgXlXgXzXzXsXpXdXsXpXdXzXlXlXC.n.C.C.gXgXS.Z.C.lXlXlXlXZ.lXT.lXT.Z.sXJ.I.I.E.P.$X$X%XW.%X%XW.W.2XW.$XE.E.E.2X2XE.2X>X>X-X$X$X$XOXOXOXOXOXOXOX3X3X+XOX-X3XOXOX3X+X+X+XOXOX+XoX+XoX$XOX@XL.L.$X=X*X#X@X%X%XLX#.#.#.#.#X@.#XnX#XLXr.nXKX*X%XL.L.#XKXLXL.K.@XK.@X@XK.P.D.D.D.",
"3X3X5X3X5X5X3X5X5X5X5X5X5X5X5X-X-X-X-X;X;X5X;XeX6X6X6X,X6X<X6X1X6X,X6X6X6X-X,X5X-X-X-X,X1X;X;X0X0X0X0XtX0XtXqXeX;X;XtXtX6X,X-X1X,X-X,X<X<X2X2X2X2X2X$X$X%X%XKX%X#XLXnXKXnXbXI.bXbXbXL.J.nXbXJ.I.H.H.J.I.bXN.lXlXzXdXdXzXdXzXdXpXhXpXpXdXdXzXzXzXzXhXhXhXhXpXdXvXdXzXlXdXpXsXdXsXlXlXgXb.C.Z.C.gXC.C.C.N.N.N.bXlXN.Z.T.T.N.bXI.J.W.P.I.$X$XW.W.W.I.T.Q.!.P.E.$XE.E.2X2XE.>X>X>X2X,X&X$X&XOXOXOXOXOX4X3X3XOXOX-X+X3X3X3X3X3X+X+XOX+XoXoXoX$X$X$X@X@X%X&X$X%X$X&X*X*X#X#.{ @XL.#.KX#XL.] w.nXLX#X%X#XL.L.KX%X{ #XL.K.@X$X$XK.P.F.H.",
"3X3X5X3X5X4X5X5X-X5X5X5X5X5X0X5X5X5X;X;X-X5X1X1X1X5X5X6X,X6X6X<X6X6X6X6X6X6X4X6X6X-X,X,X1X1XqX0XtX0X0XtX0XqXeX0X0X1X1X;X5X6X1X1X1X1X,X<X*X$XE.2X2X2X2X2X*X$XKXKXKXKXnXnXnXbXnXbXnXnXnXnXbXbXMXI.J.P.I.I.J.sXbXzXzXbXdXzXdXsXdXdXpXhXdXdXdXfXzXzXzXhXzXzXhXzXhXhXdXsXzXzXpXgXlXlXgXC.C.C.pXN.sXgXC.C.C.C.pXN.N.lXJ.bXJ.J.I.W.I.I.I.I.$XI.E.W.W.MX!.!.Y.W.T.Q.Q.2X2X2X2X2X2X2X2X2X<X,X*X&X=X&X&XOXOX4X4X4X&XOXOXOXOX3X3X3XOXOX-XOXOXOX-X$X&X$X&X&X&X=X=X*X=X*X=X*X*X*X*X#X#.@.#.LXnXnXLXnX#XnXL.%XK.#X#X#X#X{ { @XK.P.$XP.K.K.F.H.",
"3X5X3X3X5X4X4X5X6X5X5X5XtXtX5X5X;X;XeX1X;X;X1X0XyXeX6X6X6X6X6X6X6X6X6X5X6X-X5X6X-X,X1X;X1X1X0XyX;X;X0XeX0X0X0X0X;X0XtXyXeX1X;X;X-X6X1X2X2X$X2X!.2X2XW.$XP.W.KXKXKXnXLXKXnXbXnXnXnXbXbXbXbXI.bXW.P.J.I.T.bXbXZ.lXlXbXzXdXzXgXzXpXpXdXhXzXzXzXzXhXzXhXhXvXfXzXhXhXhXsXzXpXzXsXsXlXC.Z.gXC.gXZ.lXsXZ.gXgXN.Z.N.lXzXbXT.J.H.T.W.E.%XP.$X%X$XE.W.W.W.W.!.!.>X>X[.!.>X2X2X2X>X,X2X>X2X2X,X&X$X&XOX&X&X&X,X4X4X=XOXOX4XOXOXOXOXOX-X:XOX+XOX+X$X$X$X$X@X&X&X$X*X$X#X*X$X=X=X#X@X#X{ LX%XKXKXnX#XnXL.P.L.K.#X{ nXL.{ @XK.$XD.P.P.P.H.D.P.",
"3X3X5X5X3X5X-X-X5X5X5XtX;XeX1X1X1XeXeX1X;XeXeX;X1XeX1X6X6X6X6X6X,X6X6X6X1X6X1X6X6X,X1X1XeX1X1XeX0X;XyX0X0XeXeXqX0X;X0XtX0X1X1X1X1X,X,X<X<X,XE.W.W.W.!.2XW.bXnXKXnXnXKXnXnXbXbXnXbXbXT.bXbXJ.W.W.J.J.lXMXsXlXlXxXlXlXlXzXgXhXhXl hXdXdXhXzXzXhXhXzXzXhXhXzXzXsXhXhXgXhXdXlXzXzXlXlXZ.C.gXpXlXN.n.Z.Z.lXlXZ.T.MXMXlXT.T.Y.W.W.T.$XE.E.P.$X$XW.W.2XW.!.!.!.2XQ.>X2X2X>X2X>X>X2X!.>X>X2XQ.2X2XOXOX4X4XOX4X4X&X&XOXOXOX-XOXOX-XOX+XOXOXOXOXOX+X$X%X%X2X$X%X*X#X*X=X&X$X%XL.@.K.#X#XLXLXLXKXI.L.G.F.L.L.K.{ ] L.K.@X@XK.P.F.P.D.D.D.H.",
".X5X.X5X5X5X5X5X1X5X5X5X;X1X;X6X1XwXeX1X>X1X;X0X;XwXeX6XyX6X6X6X4X<X6X6X6X1X5X5X5X1X;XeX0XeX1XyX1X1X0XeX0X1XtX0X;X0X1X1X1X1X1X<X1X*X2X<X<X*X2X>XE.!.E.I.2X2XKXKXnXnXnXnXnXbXbXMXnXMXsXMXbXbXJ.W.T.bXbXlXlXZ.xXxXT.lXgXlXgXgXl hXh l l hXzXhXhXgXhXcXzXzXhXdXhXhXsXlXgXzXlXzXlXC.gXgXgXpXgXlXlXN.N.Z.N.T.lXZ.lXzXMXZ.T.T.T.T.I.W.I.%X$XI.2X!.W.2X!.>X!.2X>X!.wX>X>X>XwXeXwX!.>X>X>X-X-X2X$X&X$XOXOX&X&X&X=XOXOX-XOX-X-XOX-X:X:X+X+X-X-XOX$X,X$X%X$X%X2X$X*X*X*X$X%X%X%X@X@XK.bXKXLX#XKX#XI.K.L.L.L.K.{ K.F.P.P.K.K.P.P.P.D.c.c.c.",
"3X.X5X.X5X5X5X5X5X5X5X5X5X5X;XeX1XeX1XeX1X;X1X;X1XeXeXyX6XyX6X6X6X,X6X6X6X6XtX5X;X;XtXeXyXeXqXeX1X1XeX1X;X;X;XtX0X;X0XeX1X6X6X1X,X,X,X<X<X2X2X>X>X>XE.W.2X2XPXKXnXbXbXKXbXbXbXbXlXbXzXlXlXbXsXbXbXbXJ.T.T.T.Z.lXZ.xXgXgXgXpXpXhXl g g hXgXgXkXz kXkXvXhXhXhXdXgXsXsXsXlXlXlXxXC.C.pXgXlXlXgXxXT.J.T.J.Z.xXZ.R.lXlXZ.Z.Z.J.J.W.W.bX%XW.W.!.!.!.2XPX2XPX2XMXrX>XwXqXwX>XwXrX>X1X>X-X>X1X>X-X&XOXOX&X&X&X&X&XOXOX-X-X-X-X-X:X:X:X:X:X-X:X:X:X$X-X$X2X%X$X2X$X$X$X&X*X%X=X@XI.%X%X*X%X%X%XI.#XI.L.L.L.{ ] K.K.F.K.D.P.K.D.D.D.c.c.c.",
"5X.X.X5X5X5X5X5XtX5X6X5X5X5X;XtX0X;X;X6XeX1X1X1X0X0X1XrX1X6X6X<X,X6X6X-X6X;XyX;X0X0X;XeXeXeX;XtX1XyX;XqX;X0XtXtXtX0X1X1X6X6X,X1X6X2X<X6X6X<X>X>X2X$X2X2X%XKXMXMXnXW.nXKXnXMXbXlXbXsXsXbXlXbXT.T.MXMXT.lXZ.R.Z.lXlXxXlXlXgXzXpXl hXg l hXx hXz x z kXhXgXhXhXpXl gXA.gXgXgXlXlXZ.n.gXZ.lXgXlXlXxXlXT.Z.MXZ.Z.lXR.lXZ.Z.~.~.T.I.W.$X%X%XW.!.!.>XQ.!.>X2X2X>X>XwXwX>X:X>XeX>X>X;X1X>X>X:X;X1X,X-X3X&X$X$X,X:XOX-X-XOXOX-X:X:X:X-X:X-X-X-X-X:X2X:XE.,X*X2X%X$X%X$X2X&X&X$X$X%X%X%X2X2X%XP.nXnXL.L.F.{ F.F.] { D.P.K.H.D.D.H.F.D.D.D.",
".X.X.X.X.X5X5X5X5XtX5X5X5X5XtXtXtX6X6X1X5X1X1X1X6X1XeXeXyXyX1X6X6X6X6X,X1X5X1X0X0XqX;XeX;X;XeX0XeXyX0XqX>X1X0X0XyXyX6X6X6X6X6X6X6X<X<X<X6X<X,X2X2XKXKX<X%XKXnXMXW.bXI.MXMXMXMXlXbXlXsXZ.lXbXlXT.bXT.T.T.T.R.xXA.xXlXlXlXzXsXzXhXhXjXgXl x l x l l x hXhXgXl l l gXA.C.gXC.Z.C.C.C.lXlXZ.xXxXxXlXMXT.R.R.R.T.R.T.T.T.A.~.~.Y.T.J.bXW.W.2X>X2X2X>X!.>X>X>X>XwXwXqXqX>XwXwX>X>X;X1X;X:X;X;X;X1X4XOXOX$X$X$X$X:X:X-X-XOX-X-XOX-X-X;X-X-X-X-X+X$X:X:X-X2X$X2X,X2X2X*X<X=X$X&X&X&X%X%X2X2XI.#XL.L.nX] K.K.G.{ F.D.H.H.D.D.P.F.F.F.F.c.",
".X.X.X.X.X.X5X5X5X5X5X5X5X6X5X5X5X6X;X5X1X1X1X1X1X1XyX1X1XIX6X6X6X1X1X6X1X;X0X0X:X;X;XwXeXeX1XeXeXyX0XwXeXeX0XeX;X0X1XyXyX6X6X6X<XIX<X*X<X<X2X2X2XKXLXLXKXnXKXPXKXKXbXbXMXMXT.MXlXT.R.Z.lXxXMXlXR.MXZ.R.MXR.MXZ.lXlXbXlXlXhXzXkXgXgXhXgXg pXg jXz jXx l hXx x x y y y x S.C.C.C.gXjXjXZ.xXxXxXzXxXA.T.T.A.~.Z.R.A.A.R.A.!.Q.T.bXW.2X2X2X2XW.!.rXQ.>XQ.>X[.Q.>X[.wX:X>X;X>X>XwX1X1X:X:X;X:X-X,X,X,X$X$XOX-X$X-X:X:X:X:X-X:X-X-X1X:X,X-X-X-X:X:X:X>X,X$X$X&X$X2X*X&X4X&X&X$X*X2X2X2X2XI.I.L.K.{ nX{ { L.G.L.H.H.H.D.D.D.F.F.F.D.D.",
".X.X.X.X.X.X5X5X5X5X6X5X5X6X6X6X6X5X5X6XyX6X1XeXeX1X1XeXyX6X6XIX6X6XeX1X>X1XqXqX0X;XqX>X>XeXeXeXeXeX1XeXeXeXeX0XyXeXeXyX6X6X6X6X6X<X<X<X%X*X2X<X<X<XKXLXKXKXPXPXKXKXPXbXbXT.MXT.T.T.Z.xXxXA.xXxXxXlXxXlXZ.T.T.T.lXsXlXlXlXgXhXgXhXhXhXhXhXpXx x C.C.C.x gXx x x M M '.S.S.C.x gXgXxXA.jXVXxX`.xXSX`.`.R.~.~.~.R.Z.~.R.!.!.T.MXMX2X2XW.2X2X>X>X>XQ.Q.Q.[.qXwX[.>X2X:XQ.>XwX>X0X0XqX:X;X;X;X1X-X,XOX$X+X$X+X$X$X-XU.:X:X:X:X:X:X;X-X-X:X:X:X:X:XQ.Q.:X>X$X-X-X&X*X*X&X&X&X&X*X*X2X2X%X%X#XK.@X{ L.{ K.G.K.K.F.D.H.D.D.F.F.H.H.D.D.",
".X.X.X.X.X5XtX5X5X5X5X5X5X5X6XtX5X5X5X6XyXyXyXeX1XeX1XeX1X6X6XIX6X6X6X6X1X0XqXqXqXqXqXqXwXrXeX0XeXrXeXeX1XwXwXqXwXeXyXeXyXyX6X6XIXIX<X<X%XPXPX2XPXPXKXKXLXKXPXPXMXKXKXnXMXW.T.bXJ.Z.T.xXlXA.lXT.A.lXlXlXZ.N.J.lXsXN.lXsXsXC.jXhXgXhXl jXgXg gXgXjXx x gXg x x M y y '.C.x gXjXC.gXxXgXjXA.jXVXxXGX`.A.~.~.~.Z.R.Y.A.R.!.R.MXW.!.!.2X2X!.W.Q.>XQ.>X>XQ.].>XqXwX>X:X>X;X:XwX1XqX;X;X>X;X0X;X:X1X-X-X-X-XOX$XOX:X;X-X:X:X:X:X:X:X;X-X:X-X-X:X:X:X:X:X:X:X$X$XOX&X$X&X$X,X,X&X<X-X,X%XI.I.@XK.@XK.K.L.{ K.K.F.P.P.F.c.H.D.H.D.D.D.D.",
".X.X.X.X.X5X5X5X5X5X6X5X6X5XtXtX5X5X5X5X1XyXeXeX1XeXeXrXyXyX6XIX6X6XyX6X1X0XqX0X0XqX].wXwXeXwXqXeXeX>XeXeXwX>XwX>X>X>XyXyX6XyXIX6X1X<XIXPXPX<XIX<XPXPXPXPXPXKXKXPXMXnXKXbXMXMXbXJ.Z.lXlXMXxXlXxXA.A.lXZ.lXlXA.lXZ.lXN.Z.C.jXxXkXCXkXkXz kXx y x M y C.jXx x C.A.'.S.y i y A.C.A.VXjXkXjXkXVXSXSXxXR.`.~.[.`.A.R.T.T.R.R.MXMX!.!.PXW.2X2X2X!.!.!.Q.>XE.U.>X;XeXeX;X:X>XwXqX;X:X0X;X;X;X1X1X,X1X;X:X;X;X:X:X:X;X;X;X;X:X:X:X:XqX0X;X:X-X:X:X:X:X:X:X:X:X-XOX$X$X<X&X$X2X,X-X2X,X:X2XI.P.@XK.P.G.G.G.L.] #X@XP.F.D.D.D.D.H.F.D.D.D.",
".X.X.X.X.X5XtXtX5X5XtXtX1X6X5X5XtX6X5X;X5XyXeXeX1XyXyXeXyX6XyX6XIX6X6XyX1X;X;XeXqXqX0XeXqXwXqX0X0XeXrX1XrXwXrXuXrXrXrX6X6X6XyXIX<X<XIXPXPX<X<X<X<XPX<XPXPXPXKXPXKXMXnXKXPXMXT.MXT.bXlXzXxXxXA.xXxXA.lXC.A.Z.lXMXxXlXZ.Z.lXA.xXVXxXxXjXz x M x x '.x i x y y jXjX'.y x z A.A.VXjXy N jXjXSXA.jX`.`.~.~.A.R.R.R.R.GXR.R.!.!.!.!.2X2XMX2X2X!.MX>XrXQ.Q.Q.>X:XwX0XwX>X,XwXQ.wX>XeXwX;X>X:X>X:X-X;X,X>X:X:X:X:X:X:X-X;X:X:X:X:X;X:XqX;X5X-X;X:X:X:X].:X:X-XOX2X2X$X2XE.$X$X$X$X2XE.>XI.$XP.K.P.G.I.L.{ { @XL.P.F.F.P.K.K.D.D.D.D.D.D.",
".X.X.X.X.X5X5X5XtXtXtXtX5X5XtXtX5X1XtX;X;X0X0XyX5XyXyXeXyXyXUXyXyXyXyXyX5XyX0X0XeXqXrXeXwXeX0X0XeXeXeXeXwXrXuXrXrXrX1XyXrXUXIXUX6XIXIXPXPX<X<X6XPX<XPXPXMXPXMXMXMXMXMXMXW.MXMXMXMXMXMXxXMXxXxXxXxXxXlXZ.xXxXxXR.A.xXjXA.A.xXVXSXSXVXM M M M M i '.M VXM x y y A.S.x y M z VXVXjXjXjXl jXxXxXA.`.`.S.A.A.R.MXGX[.GXGXMXMXMXMXW.2XE.W.W.MXMXMX2X>XwXwX>XwX>X>X>XeX>X>X>X>X>X>X>X;X>X>X-X>X2X,X1X;X;X;X;X;X;X;X;X;X>X:X:X:X:X:X:X;X:X;X5X-X:X:X:X:XU.U.:X-X,X2X%X2XE.P.E.E.P.P.P.$XP.$XP.K.L.I.P.I.#X#X@XK.K.F.G.F.F.H.H.H.D.D.D.D.",
".X.X.X.X5X5X5X;XtX5X5XtX5X6X;XtX;X;XyX;X;X0X0XeX6X1X1X1X6X6XyXUX6XyXyXyXyXeXtX0X0XqXqXeXwXeXeXeXeX0XrXyXeXeXrXuXrXrXyX6X1XrXyXUXUXUXyXUXPXIXPXIXPXUXPXUXUXPXMXMXMXPXMXMXPXMXMXMXMXMXMXZ.xXlXcXlXlXlXT.Z.xXA.xXR.A.A.xXA.jX`.SXVXSXSXVXZXM M i i M i M M x x x S.'.i C N N x jXC.x y gXxXxXxXA.`.`.A.A.A.A.R.!.R.R.GXR.MXMXW.W.!.!.!.W.W.!.rXrX>XrXrXwXeXQ.>X>XrXeXQ.>X>X>X>XwXwX;X>X>X>X>X;X;X1X1XtXeXwX1X1XeX1X;X:X;X;X;X:X:X;X;X5X5X:X:X:XqX:X:X:X>X,X$X!.Q.2XW.W.E.E.P.P.$XP.:XoX@X$XP.L.I.I.#X#XP.$XP.P.G.F.F.F.H.c.D.c.D.D.",
"9X.X.X5X5X5X5X5X5X5X5X5X5X5X5XtX0X0X0X;X;X0XtXyXtX;X1X6X6X6XyXyXyXyXyXyXyXtXtXtX0X0XeXeX0XeX0XeXeXeXeXrXyXeXrXrXrXrXrXyXrX1XyXUXUXUXUXUXPXIXIXUXUXUXUXUXPXPXMXMXPXPXPXMXMXPXPXMXW.MXR.MXMXcXcXlXcXMXlXlXlXxXA.R.xXGXxXxXxXVXSXVXSXSXM B i i i i i i M B M M y '.M i x C C N z z M jXjXcXlXA.`.`.R.`.SXR.Y.~.R.MXT.R.R.MXR.MX!.!.!.>XPX2X2X2X2XrXrXrXeXeXwX>XeXeX1X>X2X>XQ.wX>XqXwX;X;X>XwXeX;X;X1XeX0XwXeXeX;X1X;X;X;XqX:X;X;X>X>X:X:X:X:X;XqXqX1X>X>X2XE.Q.~.!.2XE.E.E.P.$XE.$XE.$X$X%XP.K.P.I.I.L.P.P.$XL.F.F.H.F.H.c.D.D.D.D.",
"9X.X.X5X5X5X5X5X5X5X5X5X5X5XtXtX0XeXyX0X0X;X;X0X;X0X1XyXtX6XyXyXyXyXyXyXyX0XtXtXtXyXtXtX0XwXqXeXwXeXwXeXeXeXeXrXeXrXrXyXeX1XUX1XUXyXUXUXUXrXUXUXUXUXUXUXUXPXPXPXPXPXPXPXMXUXPXPXMXMXMXMXcXSXcXlXlXbXzXlXlXxXMXxX`.cXSXxX`.'.VXVX'.`.'.i i i i i i B i i M i M M M M M M C M M jXi '.jXxXxXMX`.`.`.A.A.R.R.R.R.MXMXxXMXMXMXMX!.2XrXUX2X>X2X[.rX>X>X>XwX>X>XwXrXrXrXwX>X>XwXwXwX>X;X;XwX;XwXqXwX0XeX1X1XeXeXrXeXyX1XyX1X0X;X0X0X;X0X5XtX;X:X:X;X:X>X>XQ.>XQ.!.!.Q.Q.Q.Q.$XP.D.D.E.$XoXP.%X$X@X#XI.I.P.P.K.P.P.F.H.F.F.c.c.H.c.D.D.",
".X5X5X5X5X5X5X5X5X5X6X5XtXtXyXyXeXeX1XeXtX0X5X;XtXeX;X5XtXtXtXyXyXyXyXyXtXtXtXtX0XtXtX0XqXqXqXeXeXeXrXrXrXrXrXrXrXrXrXyXyXyXyXyXPXrXUXrXrXUXUXUXUXUXUXUXUXUXGXPXMXPXUXPXNXMXPXMXMXMXMXMXMXMXcXcXxXzXxXzXzXzXxXA.xXxXxXSXVX'.ZXZXVX'.i i B B B p M B B i VXZXAXB B B D B M M M M '.'.SXSXA.xXA.A.R.xXR.R.R.GX!.MXMXMXMXMXMXMX2X[.[.rX2X>X>X>X>X>X2X>X>X1X1XrXrXrXrXrXeXwX[.wXwX>XqX:XqXwX>XeXeXeX0XeXeXeXeXyXrX1XeX1X1XeXeX0XtX0XtX0X0X0X;X:X:X>X>X>XQ.[.wXwXQ.[.wXQ.U.E.E.E.E.P.+XoX&X$X&X$X#X$XP.I.J.P.F.F.F.F.L.F.F.D.D.D.D.D.",
".X.X5X5X5X.X5X5X5XtX5X5X5XtXtXtX0XeXeX1XtXtX;X0X0X;X0X5XtXtXtX0XtXtX0XyXeX0XtXtX0X0XqX0X0XqX0X0XeXqXeXrXwXwXrXrXrXeXrXrXrXeX1XyXeXrX1XrXUXrXrXrXUXUXUXUXUXUXGXPXMXMXUXMXMXGXMXPXMXMXMXMXcXMXxXzXzXsXzXzXxXMXlXxXxXlXxXSX`.'.ZXZXVXVXVX'.i i i B p i '.p M i ZXB B B i B B i M M '.'.'.VXSXMXxXA.A.R.A.R.R.MX[.[.GXR.R.!.MX!.MXR.!.!.!.2X>XQ.2X2X>X1X1X>X>X[.rXrXrXrXrXwXwX>X>XQ.>X:XwXwXqXqXqXwX1XeXeX>XeXeXeX1X1XeXqXeXwXqX0X0X0X:X;XqXwX:X>X>X>X>X[.[.>X>XwXwX[.Q.E.U.E.Y.U.D.P.$XP.I.K.@X$X$XP.L.I.P.D.K.F.H.F.H.D.D.D.P.K.D.",
".X.X.X9XtXtXtX5X5XtXtX5X5X5X0X0XeX0XtX0X5XtXtXtX5X5X0X;X5XtXtXtXtXtXtX0X;X0X0XtX0X0XqX0XqXqX0X0XuXqX[.>XwXwXwXrXrXrXrXrXrXyXeXeXyX1XeXrXUXrXUXUXUXUXUXPXPXGXPXPXUXMXMXMXGXGXMXMXGXGXcXMXxXMXzXzXzXlXgXcXxXlXlXlXA.xXxXGXSXSXSXZXVXM i i i i i i i '.p D '.'.'.{.B M i B M p i M i '.`.A.`.xXA.A.A.~.~.T.T.T.R.GXR.!.MX!.!.!.R.!.~.Q.Q.2X2X2X>X2X>X2X>XQ.wXwXeXwXuXrXwXwXwX[.[.Q.>X>XqXwXwXqXwXwXwX1XwXwXeXeX1X1X;X1X0XeXqXwXwX0X;X;XwX;XwX[.Q.>X>X].[.[.[.>XQ.!.E.Q.U.:XU.U.D.D.P.P.P.L.K.K.%X$XK.@X$X@XP.K.F.F.F.H.D.D.D.D.F.K.",
".X9X.X9X.X.X.X5X5XtX:X;X;X;XqXtX0X0XqX0XtXtXtXtX;XtX5X5X0XtXtXtXtX0X;XtX1X5XtX0XtXtX0XqXqXqXqXeXwXqXwX].wXwXwXrXwXrXrXrXwXeXeX0XeXeXeXrXyX1XrXUXUXUXUXPXMXGXPXMXPXMXMXMXMXGXGXMXGXGXxXMXlXlXzXsXlXlXzXxXxXgXZ.jXA.xXA.xXxXVXSXZX'.i '.i i i '.i '.i ZXD ZXi p ZXB M '.B i p i B i '.S.VXxXR.`.A.A.Z.Y.!.Z.R.!.!.!.!.!.rX!.R.T.MX!.!.W.>X!.MX2X2XPXPX>XQ.[.!.wXwX[.rX[.rXwX[.rX[.>XqX[.eXwX[.wXqXwXeX>XwX>XrXeXyX0XqX:XqXeX>X>XwXwXwX:X:X[.>XQ.Q.Q.wX>X>XwXqX2XQ.2XQ.Q.:XE.U.U.P.P.P.K.J.P.P.P.$X%XL.P.K.K.K.D.D.K.P.D.D.D.D.D.' ",
"9X9X9X9X9X9X.X5X5X5XtX;X;XqXqXqXqX8XqXtXtX;X0XtX0XtXtXtX0X0X0XtX0X0X0X0XtXtX;XtXtXtX0XqX0X0XeXeXrXwX[.[.>XwXwXeXrXrX>XrXrXrX>XeXeXeXrXrXrXyX1XUXUXUXUXUXUXUXUXPXMXMXMXGXGXGXGXGXGXSXSXxXxXzXsXlXlXlXlXxXA.A.Z.lXlXlXA.xXjX`.`.{.'.'.'.'.'.'.i i i B ZXZXZXB M ZXM ZXZXZXi i i i i '.A.SX`.`.'.A.A.A.A.R.T.R.R.[.Q.!.!.MX!.R.R.!.R.R.R.!.W.W.2X2X2X!.!.!.[.!.[.[.[.[.[.uXrXuX[.[.uXwXwXwX[.[.[.wX>X>XwXwX[.rXeXeX;XwX1XwX>X>X>XwXQ.>X>XQ.].>X>X>X:XqX].qX;XwX>X2XQ.Q.:X:XE.P.D.D.H.P.H.P.$X$XL.%X$XP.%X$X$XP.P.D.D.D.oXD.oX' D.D.",
"9X9X.X.X9X.X.X.X.X5X;X:X5XqXqXqXqX8X9X9X|.:XtX5X5XtXtX5XtXtXtXtXtXtX0X0X0X0X0XeXyXyXtXqXwXeXrXeXrXwX[.Q.>XqXqXeXwXrXwXwX>XrXwXwXeXwXeXrXrXrX>XPXUXUXPXPXPXMXPXMXPX!.MXMX[.!.GXMXMXSXR.Z.A.lXzXlXlXlXA.Z.xXA.gXgXlXxXxXSX`.VX{.'.{.VX'.i '.p p i i B ZXFXZX{.ZXB B B B B {.p p i i '.'.A.A.`.`.S.`.A.A.R.Z.MXR.MXMXMXMXGX!.MXR.MXW.W.!.2X!.2X2X2XW.W.Q.!.Q.[.Q.[.rX[.wX[.[.[.[.[.[.[.wXwX[.].[.[.Q.>XwXrXrXrXeXeXeX>XqXwXwXqX[.rX>XqX[.U.:X>X>X>XQ.Q.].].wXwX2X2XE.E.U.U.U.Y.P.H.H.H.G.K.P.E.$X<X%X$XP.K.$X@XoXD.D.D.D.D.D.K.oXD.",
"9X9X.X.X.X.X9X.X.X.X5X:X;XtXtXqXqX9X.X.X|.|.tXtXtXtXtX5XtXtX5XtXtXtX0X0XtXtXyXyXyXyXeXeXeXeXeXrXwXrXwXwX[.qXqXeXwX[.wXQ.wXrXwX1XwXwXrXrXrXrXrXUXUXGXMXPXPX!.!.MX!.MX!.R.[.GXMXMX!.MXZ.Z.Z.lXlXlXzXlXT.lXlXxXgXlXxXSXGXSXVX'.SXZXZX{.i '.p p p B i i {.'.{.p i ZXp B B ZXp '.'.'.'.M M A.SX`.`.`.`.[.R.R.R.R.R.GXR.MX!.!.MXMXMX!.!.!.MX!.!.!.W.W.!.2XQ.[.[.[.[.[.[.[.[.[.[.[.[.[.`.[.[.[.[.[.rX[.>XwXrXrXwXwXwXeXrXwX>XwX[.[.[.wX[.[.].Q.~.Q.Q.Q.Q.Q.wXwX>X[.Q.2XE.$X:XE.E.E.E.H.F.F.J.J.P.W.%X%X$X$XP.P.K.K.K.P.D.D.D.K.D.oXoXD.",
"9X9X.X.X.X.X.X|..X|..X|.:X.X5X5X9XtX.X.X.X.XtXtX.X5XtX5X5X9X.XtXtXtXtX0XtXtX0XeXyXyXyXyXeXrXrXrXrX[.[.[.[.[.].[.[.].[.Q.Q.[.>XwX>X>XrXrXrX[.[.2X!.MXMX!.!.~.W.PXW.!.Q.R.R.R.[.R.MXMXR.A.R.Z.Z.lXlXlXZ.lXlXA.hXzXxXSXxXSXSX`.ZX{.SXZX'.i '.B B p p p p {.p p ZXFXB D p ZX'.i B '.i M jX'.A.R.`.`.A.R.~.A.[.R.R.MX[.[.!.!.!.[.!.!.Q.W.!.MX!.!.!.!.W.W.Q.[.`.`.[.[.[.].[.[.[.[.[.[.[.[.[.[.rXuXrX[.wXrXrXrXrXrXrXwXrXwXrXrXqXwXwX[.[.].Q.Q.Q.wX[.Q.Q.wXwXwXwX].>X>X-XE.2XE.E.E.H.H.E.Y.H.Y.W.W.I.2XE.E.P.$X$XoXP.oXD.oXD.D.oXoXoXP.",
"9X.X9X.X.X.X.X.X.X.X.X.X|.|.|.tX:X5X;X.X.X5X.XtX5X5X5XtXtXtXtXtXtXtXtXtX0XtX1XyXeXyXyXyXeXrXrXrXrXwXrX[.[.[.Q.].U.].].[.[.Q.].wXwX>XwXwXrX!.PXMXMX!.Q.W.E.E.W.W.W.!.!.!.Q.~.!.R.R.!.!.R.R.Z.MXbXlXlXMXMXlXlXzXcXxXxXSXSXGXGXSXSX'.'.'.ZX'.ZX{.p {.p i i i i B B B B ZXZXZX{.ZXZXVXVXVX`.S.A.A.A.xXA.`.[.`.`.R.R.R.[.Q.[.>X[.!.!.R.!.T.MX!.!.!.!.W.!.!.R.[.`.[.[.[.].`.[.[.[.`.[.`.[.GX[.rXGXrXrXrXrXrXrXuXrXuXrXrXrXrXrX[.[.wX[.wXQ.Q.Q.>X>X[.[.[.[.[.[.Q.>X:X1X:XE.E.$XE.E.Y.Y.Y.T.E.T.T.I.I.W.P.E.P.P.K.oXD.D.D.K.D.oXD.oXD.oX",
".X9X.X9X9X.X.X.X.X.X|..X|.|.;X:X|.:X5X.X9X.X5X.XtX5X5X5X5XtXtXtXtXtXtXtX0X5X;X0X6XeXyXyXyXwXwXrXwXrX[.].[.].[.].].].U.Q.].U.Q.>X[.Q.Q.[.Q.Q.!.!.!.E.W.W.I.W.MXW.T.E.!.~.Q.R.[.`.[.R.!.T.T.T.MXMXbXsXMXlXxXlXkXcXxXxXSXSXSXSXSX`.{.ZXZXZXZXZXZXD p B {.i i B B B ZXB B B ZXB M i VX'.p VX`.`.`.`.`.`.A.[.~.`.A.`.[.R.GX[.[.!.[.PX!.!.MXMXR.!.!.!.!.T.R.R.[.`.[.[.`.].[.[.[.`.[.[.[.[.GXGX[.GXGXUXUX[.uXrXrXuXrXrXrX[.uX[.uXqXwXwXQ.Q.!.[.Q.>XwX[.[.[.[.[.[.>X>X2X:X-X:XE.E.P.E.E.Y.E.J.E.W.E.W.W.E.E.D.F.K.D.D.D.F.K.D.oXD.D.D.D.",
"9X.X9X9X.X.X.X.X5X.X.X:X|.|.|.|.|.;X9X9X:XtX9XtX5X5X;X5XtXtX5XtX5X;X:XqXtX5X5X;X;XeX;XeX0XeXeXwXwXwXwX[.].[.].U.Q.[.].].].].U.:XQ.Q.Q.Q.~.E.E.Q.Q.Q.W.W.I.MXW.W.W.!.MXT.T.Y.R.`.`.R.T.MXMXMXMXbXMXbXMXxXjXxXjXhXlXcXSXSXFXSXZX{.{.'.ZXZXZXB ZXD B B B i B V V V V B B B B i p ZXB i i '.VX'.SX`.`.'.'.`.`.`.`.`.A.GXMXGXGX[.MXPXMXMXMXMX[.[.GX[.R.`.`.R.`.`.`.[.[.[.].[.[.[.`.[.[.[.MXGXGXrX[.GXGX[.rXrXrXrXUXrXwX[.[.uX[.uXuX[.[.wX[.wX[.[.[.[.[.[.[.!.Q.>X:X>X1X:XE.:XD.P.H.Y.Y.E.E.T.H.P.W.W.Y.Y.D.H.H.P.D.D.D.D.D.D.D.oXD.D.",
".X9X.X.X9X.X.X.X.X.X5X|.|.|.|.|.|.|.9X8X8X5X|.5X.X5X.X5X5X.X.X5XtX;X0X0X5X5X;X:X;X1X1XeXeXeX0XwX>XwXQ.wXQ.[.].U.Q.:XQ.].[.].].].Q.~.U.Q.E.Y.~.!.E.W.W.2XKXbXMXbX!.!.W.T.R.R.~.A.[.R.!.T.bXbXlXMXlXJ.T.lXxXxXjXkXkXxXCXSXVXSXSXSXSXZXVXAXB B V V B B B p M C V V V B ZXp B B B B B p ZX'.'.'.ZXSX'.VX`.`.`.`.`.`.`.[.GXGXR.GXMXPXMX!.GXGX[.!.!.R.`.`.A.`.`.`.`.`.`.[.~.`.[.A.[.!.!.!.GXGXGX[.UX[.GX[.[.rXrXuX[.[.[.[.[.uXuX].[.wXwX[.[.[.[.[.[.[.[.[.[.[.>X>X;X2X:X$X>X>X$XE.E.E.E.E.E.H.P.P.P.J.E.Y.H.H.F.H.F.D.D.D.D.D.D.D.D.E.",
"9X.X9X.X9X.X9X.X.X.X.X|.|.|.|.|.|.|.|.8X|.5X5X5X.X5X5X5X.X.X9XtX5X5X5X;X;X:X5X:X-X:X;X;X1X1X1XwX>XwXQ.Q.Q.U.U.U.U.U.~.].].].].].].U.~.Y.Y.Y.Y.Y.W.W.2XW.!.W.%X2XT.~.R.T.R.~.~.[.A.MXT.MXT.lXbXMXMXMXlXxXxXxXjXkXCXjXkXCXSXCXFXZXZXZXZXAXD ZXAXV ZXB B C C C C V B B B p B B D B B ZXVX'.'.VX'.SXVXVX'.`.'.'.`.`.`.`.MXMXR.MXMXMXMXMX!.[.[.[.[.[.[.`.R.`.`.`.[.[.[.[.[.`.A.R.[.R.!.!.!.GXGXUXUXUXGXGX[.[.[.[.[.rXuX[.uXuX[.[.[.rX[.[.].[.[.[.[.[.[.rXwX[.>XQ.>X;X>X>X>X:XU.E.U.E.E.E.E.Y.Y.H.D.H.M.N.J.H.H.F.D.D.D.D.D.D.U.D.D.E.",
"9X.X9X9X.X.X.X.X.X.X|.|..X:X:X:X8X|.|.8X|..X.X.X|..X.X|.5X9X5X.X|.5X.X|.:X5X-X|.:X:X;X;XeXeXwXwX1XwX[.>X!.Q.E.U.U.U.U.~.~.].].].].].~.V.Y.Y.Y.Y.Y.I.W.MXW.!.E.$XE.Y.E.~.~.~.~.A.[.A.R.MXlXZ.lXbXMXzXgXjXlXgXjXCXCXCXCXCXSXZXZXZXZXSXSXAXAXAXVXN B V C V C C M C C B B B B M B B V ZX'.p {.ZXZXSXZXZXZX`.{.VX'.{.`.`.A.MXMXMXMXGXMX[.[.R.GX`.`.`.`.`.`.`.'.`._.[.`.[.[.GX`.R.R.!.!.!.!.MX[.GXGXGXGXGX[.[.[.[.[.[.[.[.[.[.[.].[.uX[.[.[.[.[.R.[.R.[.[.[.>XQ.wX>X>X$X>X>X>X:XQ.E.$XD.U.E.Y.Y.H.H.Y.Y.N.H.H.v.F.v.v.D.U.D.E.D.D.D.E.",
"9X9X9X9X.X.X.X.X.X.X5X5X.X.X|.8X8X8X8X8X9X.X|..X.X5X.X5X.X.X|..X|.|.|.|.|.-X-X:X:X;X;X0X;XqX>XeX>X>X>X!.2X2XE.E.E.Y.Y.~.~.].].].].~.~.~.~.~.Y.~.H.T.!.!.!.!.E.$X2XW.Y.~.Y.Y.Z.A.A.A.T.MXMXlXlXlXxXjXjXhXhXkXjXVXkXCXcXSXCXAXAXFXZXSXSXAXN B V CXV A S G G V C C C V B B B B C V B M B {.{.{.{.FXZXZXZXZX'.ZX{.'.`.SXSX`.MXGXGXGXGXGXGXxXGXSX`.`.`.A.'.A.S.'._.`.[.`.GXGX`.R.MXMX!.R.T.MXR.[.GXGX[.GX[.[.{.[.[.[.[.[.[.[.[.[.uXrX[.rX!.!.[.!.[.R.!.[.Q.Q.Q.wXwX>X:X>XE.Q.:XU.U.E.D.U.U.U.Y.Y.Y.Y.Y.Z.c.M.H.F.v.v.D.U.D.U.D.D.D.U.",
"9X9X.X.X.X9X.X.X.X5X.X.X9X|..X8X|.|.|.8X8X.X.X.X.X5X.X5X.X.X5X:X5X.X:X|.|.-X5X-X:X;X;X:X0XqX;XeX>X>XQ.2XE.W.W.E.Q.~.Y.~.~.~.~.].].~.~.V.V.~.A.Y.~.T.Y.~.~.E.W.Q.Q.E.T.R.~.~.~.S.S.~.S.Z.Z.A.lXgXgXjXz jXkXjXx z CXN CXCXSXFXZXSXZXSXCXAXAXAXAXAXAXD G C C C C C C C C C B C V V ZXB ZXFXZX'.FX{.ZXZXZXZXFX{.{.'.{.[.GXGXMXMXGXGXGXGXcXxXGXSXGX'.`.`.A.A.`.S.S.S.`.A.`.`.GX!.!.R.R.A.xXMXMXGXGXGXGXGX{.GX[.`.[.[.[.[.[.[.[.[.uX[.[.[.[.UX!.[.R.[.[.[.[.E.>XwX>X;X>XQ.Q.Q.Q.:XE.E.H.U.E.~.E.T.Y.Y.Y.Y.S.M.H.M.c.v.c.c.U.U.D.D.D.D.",
"9X9X9X9X.X.X.X.X.X.X.X.X.X9X|.|..X|.:X.X.X.X.X.X.X.X.X5X5X5X;X5X.X5X.X|.|.|.|.:X5X:X:X:X;X;X>X>X>X>X>X2X2XW.E.E.Q.Y.Y.~.~.~.~.].~.`.`.S.S.S.V.Y.S.Y.~.R.Y.~.~.Q.2X!.!.E.!.R.T.~.Y.S.S.Z.Z.A.Z.lXy y jXz x jXkXkXVXVXCXSXSXFXFXFXSXAXCXSXDXDXN DXV V C D G C C C C C V C B C C V V ZXFXFXZXZXZXZXFXZXZXZXFX{.{.ZX{.SX`.GXGXGXGXGXGXGXSXcXGXSXSX`.VXjXA.S.S.S.A.A.A.SXSXSXR.R.!.MXR.xXSXA.xX`.`.`.GXSX`.{.`.`.`.[.'.[.[.uX[.uXuX[.UXGX[.rXrXGX[.[.!.!.Q.!.E.:X:X>XQ.].].Q.Q.>X2XE.E.Y.U.Y.E.Y.Y.Y.S.Y.M.H.c.c.c.c.c.c.c.D.D.H.D.D.",
"9X9X9X9X9X9X.X5X.X.X.X9X9X9X.X|.|.|.|..X.X.X.X.X9X9X.X|.;X5X5X5X.X5X:X|.|.|.|.:X:X:X:X:X:X;X-X:X:X:X2X!.~.E.Y.E.Q.~.~.Y.Y.].].]._.S.S._.V.S.~.~.U.Y.~.~.~.~.E.Q.~.!.!.T.E.~.Y.R.S.S.S.~.Z.Z.jXS.A.jXz x x y x jXSXSXSXAXSXSXSXSXAXAXCXCXCXCXAXAXV N C V C G C C C C C C C C C M B B ZXFXFX'.{.ZX'.ZX{.ZXZX'.ZXZXSXSXGXGXGXMXcXGXGXGXGXcXxXSXSX`.'.A.A.S.S.A.S.A.jXVXjX`.xX`.GXMXR.xXA.A.SXSX`.VXSXSXSX'.`.`.[.`.[.[.uX{.[.GXGXuX[.GX[.[.GX[.[.!.!.Q.!.Q.Q.U.>XQ.[.[.~.Q.Q.Q.E.E.D.D.Q.Y.Y.H.Y.M.S.c.U.c.V.c.c.c.c.c.H.D.c.c.D.E.",
".X.X9X9X9X.X.X.X.X.X9X.X.X.X|.|.|.|.|..X.X.X9X.X.X.X.X|.|.:X|.|..X:X:X|.|.|.:X:X:X;X|.:X:X:X:X;X:X:X:XQ.Q.U.Y.U.U.~.~.Y.~.~.].[.~.V.V._._.V.V.~.U.~.].~.R.Q.Q.Q.U.~.~.Y.Y.~.~.~.S.S.S.~.R.Z.Z.A.jXjXkXx C.jXVXM SXSXSXSXcXSXSXFXSXAXSXSXCXDXDXV N N C D C C C C D C C V V V C C B B B FXSXZX{.{.{.ZX{.FXZX'.SXSXSXSXSXGXMXMXGXGXGXGXSXcXSXSXVX`.A.A.C.S.C.A.VX`.S.A.jXVXA.SXMXGXR.A.'.VXSX`.`.'.`.SXSX`.[.[.].[.`.[.`.{.`.[.[.[.[.GX[.[.[.[.!.Q.Q.[.Q.Q.Q.].Q.Q.!.[.Q.Q.Q.E.Y.Y.Y.E.Y.Y.H.Y.Y.M.H.~.Y.Y.c.c.M.c.c.c.Y.H.U.c.D.U.",
"9X.X.X9X9X9X.X.X|.9X.X9X.X.X|.|.|.|..X|..X9X.X.X|.|.|.|..X|.|..X|.|.|.|.|.|.|.|.:X:X:X:X;X-X-X-X-X:XQ.Q.Q.~.V.~.U.U.V.U.~.S.`.]._._._.V.V.V.V.V.V.V.].~.~.].~.Q.Y.Y.Q.Y.Y.E.Y.~.~.Z.Z.A.Y.Z.A.C.A.`.z x x z VX'.VXCXSXSXSXAXAXFXHXZXAXAXAXV V N N C C C C C C C C C D C V V V C B B B VXZX'.'.{.{.ZX`.ZXSXVXVXSXVXxXSXMXcXMXcXMXMXGXGXMXSXxXSXxXA.`.A.A.jXVXVX`.S.`.VX'.A.`.`.GXSXxX`.'.SXZX`.'.'.`.'.`.`.`.`.[.[.`.`.`.`.SXGX[.[.[.[.[.[.[.[.[.~.Q.Q.Q.].Q.Q.].[.[.Q.~.E.U.Y.T.Y.Y.D.Y.Y.H.N.b.Y.Y.S.H.c.c.b.c.c.c.c.P.U.U.D.Y.",
"9X9X9X.X9X9X9X9X.X.X.X.X|.|.|.|.8X9X.X.X.X.X.X.X|.|.|.|..X.X|.|.|.|.|.|.|..X8X;X:X-X-X:X:X-X-X-X>XQ.Q.Q.~.`.`.].V.U.U.V._._.'.[._._._.V.V.V.V.].].U.U._.~.~.~.E.~.~.Y.~.Y.Y.~.~.~.~.~.A.S.C.C.jXjXA.gXjXz jXVXjXSXSXAXAXSXAXFXFXFXFXAXAXCXAXB V C C N C C C C C G C C V C V B B B B B CXZXZX'.{.FX{.{.'.ZXZXCXCXVXVXcXSXcXcXcXcXcXMXGXGXSXcXcXxXxXxXxXVXM ZXZX'.'.S.'.A.`.`.VXSXSX'.SXVX'.`.'.'.'.'.`.`.[.[.[.[.[.[.[.`.`.GX[.`.[.[.[.[.[.[.[.[.~.[.[.[.wX].[.wXQ.Q.:XE.~.~.~.Y.E.E.P.H.Y.Y.S.S.b.S.N.H.M.M.b.v.v.c.U.U.D.D.D.D.",
"}.9X9X9X9X7X9X7X9X.X.X|.|.|.8X8X8X.X.X|.|..X.X}.9X|..X|.|.|.|.|.|.|.8X|.|.tX;X:X-X:X:X:X:X:X-X-X:XQ.Q.U.~._.].].U.U.U.~.V._.].`._._._.V._.V.V._.V.]._._._.].~.E.E.~.E.Y.Y.Y.~.~.S.S.~.A.Z.gXjXC.jXgXgXjXkXkXjXxXSXCXCXAXAXAXFXHXFXSXFXFXAXAXAXV M C C C C C C C C C C C C V B B B B B M i VX{.'.'.ZX`.VXVXCXCXcXcXxXcXcXSXxXcXcXSXcXSXGXGXcXSXkXSXcXjXVX'.VX'.ZX'.VX'.`.`.'.VX'.ZX'.'.VXZX'.'.i {.`.'.`.'.`.`.`.`.[.SX`.ZX`.'.SX[.[.{.[.`.[.[.[.Q.Q.~.Q.Q.].Q.[.Q.Q.U.E.Y.R.~.T.H.P.Y.H.Y.M.M.b.M.n.b.M.b.M.v.b.c.c.U.U.U.D.H.Y.",
"7X9X}.}.9X8X7X7X}.}.}.|.|.|.|.8X|.|.8X|.|..XXX}..X.X|.|.|.|.|.|.|.|.|.:X8X:X:X:X:X:X:X+X+X$XOX-X:XU.U.U.U.V._.U.].]._._.V.V.V.]._._._._.S.V.V.V.V._._._._.~.U.E.E.Y.Y.Y.Y.Y.Y.~.Y.S.Z.S.A.lXgXC.C.gXjXjXC.jXgXA.xXVXSXSXCXAXAXFXFXSXAXFXFXAXCXCXB B B C C C G C C C C C G C C C C B C B M '.'.'.VXVXVX`.xXSXxXcXcXcXSXSXcXcXSXCXcXcXcXcXMXcXGXSXSXcXjXA.xXVX'.'.'.VXVXVXVX{.{.{.ZX'.M B i {.ZXp '.`.`.`.`.'.`.[.`.`.{.`.'.'.`.SXSX[.GX`.SX`.`.].~.~.].].Q.E.~.Q.U.E.E.Y.E.E.E.T.H.Y.N.Y.Y.M.M.b.b.b.S.b.b.M.b.b.c.H.U.U.Y.Y.H.E.",
"7X7X7X7X9X8X8X9X8X}.|.|.|.|.7X7X7X|.|.|.|.|..X|.|.|.|.|.|.|.|.|.|.8X8X|.qX:X:X|.:X:X+XOXU.:X:X-XOXE.U.U.Y.U.].].].].].]._.]._._._._._._._._._.V.V.V._._.~.].~.~.U.U.Y.Y.V.M.M.S.A.S.C.Z.S.lXC.C.jXjXy jXjXzXZ.A.jXVXSXSXAXFXAXFXFXZXFXFXAXAXAXVXB i C i C C C G C C D G C C C C C C i i i '.'.`.`.VXSXSXSXxXSXcXkXkXcXCXSXSXCXkXzXhXzXcXhXzXSXcXxXxXSX'.SXVXVX'.VXB {.'.{.p B p ZXZXZXM B ZX'.B SX'.'.`.'.'.`.`.'.`.{.'.'.ZXZXFXSX[.SX'.`.`.[.[.].U.~.U.Y.U.Y.U.~.~.E.U.~.Y.Y.Y.Z.Y.c.Y.M.M.b.S.b.n.b.c.b.M.M.b.M.H.S.U.Y.U.E.U.",
"7X7X7X7X7X7X8X7X8X8X8X8X7X7X}.}.}.|.}.|.|.|.|.|.|.|.|.|.:X|.|.|.|.|.:XqX:XqXqX:X:X:X:X:XD.:X:X:X:XE.U.U.U.U.].].].].].].]._._._._._._._._._._._._._.~.].~.].~.~.U.U.c.c.Y.Z.S.S.M.C.Z.Z.lXxXC.C.jXjXjXjXjXcXSXxXSXSXVXVXSXSXAXFXAXAXZXFXZXZXSXVXM C C B C C D C C C C G C C C B i i i i i '.'.`.`.`.SXSXcXcXxXSXSXSXcXCXkXCXcXkXhXhXkXvXcXcXcXcXxXxXCXVXCXZXSXZX'.B p p B p D B B FXZXB M B B ZX{.{.{.ZX'.'.`.`.'.'.`.`.'.'.ZXZXZX`.ZXZX'.'.].[.~.~.~.U.Y.Y.E.E.U.U.U.~.Y.Y.H.Y.Y.Y.S.Y.Y.M.b.M.M.b.b.b.b.M.n.M.b.M.Y.U.~.~.U.U.",
"7X7X7X7X7X}.}.}.}.8X8X8X7X}.7X}.8X|.}.}.|.|.|.|.|.}.|.|.|.|.8X8X|.8X|.8X|.:XqX8Xz.|.U.:X+X:X:X$X:X:XU.U.U.U.U.]._._._._._.]._._._.V._._._._._.V._.V._.V._.~.~.~.U.U.c.S.S.S.Z.Z.S.A.S.C.C.C.C.C.S.C.x C.VXjXjXSXjXSXSXSXAXZXFXAXAXAXAXFXZXZXZXB p B B B C C C G G G G G C C B B B M i i '.VX`.`.SX`.SXSXxXSXSXcXcXDXCXkXkXkXkXkXzXcXvXvXcXcXxXMXcXCXVXCXSXZXZX{.ZXB B B {.B D ZXFXZXZXFXB ZXi i {.{.ZX{.'.'.'.'.'.'.'.`.VX'.'.SX`.`.SX`.`.'.[.[.[.Q.~.V.Y.Y.E.E.Y.U.~.U.U.Y.M.Y.Y.Y.H.H.c.b.M.M.M.b.M.C.b.n.b.M.M.Y.H.V.U.~.U.U.",
"7X7X7X7X7X}.7X7X7X7X7X7X}.}.}.}.}.|.}.}.}..X|.|.|.|.8X8X|.|.8X8X8X|.|.|.|.|.|.:X|.:X:X:XU.:XD.:XD.U.k.U.U.U.U.]._.V._._.S.~.S._._._._._._._.V._._._._.~.~._.~.~._.V.S.S.~.V.~.A.Y.A.A.S.C.C.Z.S.A.jXjXjXx jXVXSXVXSXAXSXSXZXAXHXFXFXFXFXFXZXB ZXZXi B D V D G G G G C C C C C B VXZXi i p {.SX`.GXGXxXxXcXSXcXSXcXkXkXCXkXcXkXkXcXcXcXcXcXCXxXxXSXCXSXVXAXSXSXZXZXZXZXD FXD D B FXB B D ZX{.'.{.{.{.{.ZX{.{.'.'.'.'.'.'.'.'.VX'.`.`.SXSX`.`.R.!.~.~.Y.Y.Y.Y.Q.E.E.~.Y.U.Y.Y.Y.c.H.D.M.c.c.M.b.M.b.b.M.Z.N.M.N.T.Y.Y.c.c.V.U.U.U.",
"7X7X}.7X}.}.}.}.}.7X7X7X7X}.|.7X|.|.|.|.|.|.XX.X|.|.8X8X8X}.8X8X|.8X8X|.8Xz.U.:X:Xz.|.|.:X:XU.E.U.:XU.U.U.U.U.U.~._._._._._.V._._._._._._._._._._._.S.]._._.U.].U.V.V.V.~.S.S.~.A.A.S.C.S.C.Z.xXA.Z.jX`.`.A.VXVXVXSXSXSXAXV FXF FXFXFXFXFXFXFXZXZXZXD D D D D G G G D D C C C B VXZXZX'.'.{.ZX`.SXGXxXxXxXcXSXcXCXkXkXkXkXgXcXcXCXCXCXcXcXcXxXxXSXcXkXCXCXAXSXZXFXZXFXFXD D D V D D FXFXZX{.ZX'.B B {.p {.'.'.'.'.VXVXVXVX`.'.SXVX'.xXxX`.A.A.[.!.[.R.Y.Y.W.E.E.E.E.Y.Y.Y.Y.c.H.c.c.H.c.c.M.M.Z.M.N.N.M.Z.M.M.T.Y.Y.V.c.c.U.D.U.",
"7X7X7X7X7X7X}.}.}.}.7X}.7X8X|.|.8X|.|.|.|.|..X|.|..X8X8X7X7X|.8X|.8X|.8X|.(.z.z.|.z.U.|.OX:XU.:XU.:X:XU.U.U.].U.V.V.V._.V.V.V._.V._._._._._._._.V._._._.].]._.].U.].V.S._.S.'.`.'.A.A.`.S.'.A.jXlXA.A.SXSX`.`.`.SXcXSXSXCXDXA FXFXFXFXFXFXFXFXFXFXFXD D D D D G D D D D D V M B M ZXZX{.ZXZXZXZXVXSXjXxXjXcXkXcXkXkXkXkXjXjXjXcXcXVXCXCXSXSXSXSXSXcXSXSXVXCXAXAXFXFXAXFXD D V D D FXFXFXFX{.{.{.B ZX{.{.{.'.i i i ZXVXVXZX'.`.'.xXVXSXSX`.`.~.[.[.!.Q.W.E.W.E.E.~.E.W.Y.Y.H.M.M.c.c.c.c.c.c.M.M.Z.T.Y.Z.S.S.Z.Z.Z.S.M.M.c.c.Y.Y.",
"7X7X}.7X7X}.}.}.}.}.}.9X}.|.|.|.|.}.|.|.|.|.|.7X7X9X|.8X8X7X8X7X8X|.|.:X8X].|.z.U.z.z.|.:X:X:XU.U.U.U.U.U.U.U.V._.V._._.V._._._._._._._._._._._._.V._.]._._.V.U.~._.S._._.'.`.~.`.S.'.A.S.A.A.lXA.xXxXA.VXSX'.VXVXSXAXCXSXSXA D FXZXD D D FXD D FXD D D D D D D D D G F D V V V B ZXZXZX'.'.'.ZX`.SXxXcXCXcXkXcXjXjXjXkXkXcXVXkXkXcXjXCXAXCXSXxXSXVXVXCXVXAXAXAXAXFXFXFXFXD D F D FXFXFXZXZX{.{.{.ZXZX{.B {.ZXB B VXZXM VXZX'.VXVXVXSXSXxXGXA.A.A.R.W.Y.W.Y.E.E.H.Y.Y.H.Y.H.c.M.c.Y.M.b.b.b.M.Z.N.M.N.Z.Z.Z.Y.N.Z.Y.S.c.c.b.c.Y.",
"7X7X7X7X}.}.}.}.}.}.}.}.}.|.|.|.}.|.}.}.}.|.8X9X}.}.7X8X8X8X8X7X8X|.8X|.:X:XU.U.z.z.z.z.:XU.U.U.U.U.U.U.U.U.V.V.V._._._._._._._._._._._._._._._._._._._._._._.V._._.'.'.'.'.'.`._.'.`.`.A.A.C.gXjXxXS.jXjX'.'.VXN ZXZXVXAXFXAXV D D FXD FXFXFXD FXD FXD D F D D D D F F A V V V AXAXZXZX{.ZX{.ZX{.SXSXCXcXcXkXcXzXcXjXjXz kXCXCXkXkXVXZXVXVXVXVXVXZXSXSXZXAXAXV AXAXAXFXFXFXF F D V B ZXZXFXFX{.ZX{.p ZXB p p B VXZXVXM VXZXZXVX'.'.VXSXcXxXA.A.T.R.T.Y.T.T.Y.E.E.E.H.D.H.H.Y.Y.c.Y.M.S.C.C.Z.Z.N.M.N.Z.C.sXZ.Z.Z.Z.M.M.c.Y.H.Z.",
"7X7X}.}.}.}.}.}.}.}.}..X|.}.}.|.|.|.}.}.|.|.}.8X8X7X8X8X8X7X(.|.|.z.|.|.z.|.U.U.z.U.z.z.z.z.:Xk.z.U.U.(.].U.].V.U.U.]._._._._.^._._._._._._._._._._._._._._._._.V._.'.'.'.'.`.`.'.`.A.`.A.S.A.gXxXjXjXjXVX'.'.VXB CXZXB FXZXV V AXB D FXD FXFXHXD AXFXF F HXF D D G G D F AXHXV AXAXZXVXSXZXVXZXSXSXAXSXxXkXxXcXxXxXxXhXhXjXM CXCXkXVXVXZXM B VXB AXVXZXB V FXAXV AXAXHXFXD V A D V ZXFXFXFXFXZXp p p p ZXB ZXM V B M VXZXZXSXVXVX'.VXSXSXA.A.xXR.A.Z.R.S.J.Y.E.H.H.Y.H.Y.Y.Y.c.H.Y.S.n.C.gXN.Z.Z.N.n.gXS.pXC.Z.A.Z.S.Y.M.Z.N.Z.",
"}.7X7X}.}.}.}.}.9X}.}.}.}.|.|.}.}.|.XX}.|.|.8X8X7X7X7X7X7X/.8X|.|.z.U.|.(.|.|.U.U.U.U.z.U.U.U.U.U.U.U.].U.].U.U.].].]._._.^.j._._._.^._._._._._._._._._._._._._._._._.'.'.`.`.`.A.`.A.A.S.A.SXVXSXjXx i VX'.ZXVXAXB ZXZXZXZXAXAXFXV D FXFXF HXF D D D F F HXF D D D A F V V V HXDXCXAXVXVXZXVXZXAXZXAXCXCXkXcXcXVXVXSXjXkXjXjXCXCXVXVXVXM B B V V M M ZXB V V V AXAXA V V V V V V AXB FX{.FXD D D p p B B B B B B M M AXAXZXZXVXVXSXSXSXGXxXxXxXxXA.T.A.Y.M.N.H.H.H.H.H.c.H.M.Y.Z.Z.N.Z.Z.N.lXC.C.n.pXgXC.C.C.Z.Z.A.Z.Z.lXZ.Z.Y.",
"}.}.}.}.}.}.}.}.}.}.}.}.}.}.}.|.}.|.|.}.|.|.}.}.}.8X7X(.(.}.7X|.|.|.z.(.U.8Xz.U.z.U.U.U.U.U.U.U.z.U.U.(.(.U.U.V.U.].^.^.j.j.j._.^.^._._._._._._._._._._._._._.V._.V._._._.'.S.'.'.`.A.`.S.A.`.`.VXjXA.VXM '.M ZXi M ZXB AXAXZXFXB FXD D FXD FXFXHXD A D D F F F F F A C A AXDXAXD AXZXVXZXB ZXCXV ZXCXCXkXN kXSXCXVXVXjXkXjXjXkXCXN VXVXM M M AXCXB VXVXZXB N V AXAXAXAXAXC AXAXV M V B FXD D D D D B B ZXB B V ZXN M AXAXCXZXVXVXVXSXcXcXcXSXGXxXxXA.A.Z.N.N.I.H.H.H.M.T.N.M.S.S.S.Z.C.C.Z.b.C.n.N.n.gXgXC.C.Z.Z.Z.A.Z.Z.Z.Y.M.",
"7X7X}.}.}.7X7X7X7X}.}.7X}.}.}.}.}.|.|.|.|.|.}.7X}.8X8X|.z.l.}.}.z.z.z.z.(.(.z.U.U.U.].U.U.U.U.U.U.z.U.U.U.^._.U.U.U.U.(.^.j.^.^.^._.^._._._._._._._.^._._._.V.V.V._._.'.'.S.S.S.S.'.'.`.`.A.`.SX`.A.jXVXVXi i B ZXVXB ZXZXZXAXFXFXFXFXFXFXFXFXHXAXD D D D F F F D F F F HXHXHXHXHXAXAXZXAXAXAXV CXZXSXVXN CXkXCXCXCXSXVXkXN c kXN M N VXx M N N M N AXVXVXZXN N V V DXAXA N N AXAXAXB D FXFXD D D D D FXZXFXAXV N VXAXVXCXVXVXZXSXVXkXSXSXcXSXSXxXjXlXC.lXlXsXbXN.T.T.M.Z.N.T.Y.M.C.C.C.C.C.C.C.r n.n.C.y C.C.Z.Z.Z.n.Z.M.S.J.T.",
"7X7X}.}.}.7X7X7X}.7X7X7X}.8X}.XX|.|.|.|.}.8X7X8X}.|.|.z.z.8X|.(.|.z.z.8X8Xz.z.z.(.(.z.z.U.U.U.U.U.z.U.U.j.^.^.].U.U.z.(.^.^.j.^.^.^._._._._._._.^._._.V.V.V.V.V.V.V.'.i S._.S.S.S.y '.'.S.S.VX'.VXM S.VXZXi i B ZXVXi VXB ZXFXFXFXFXFXFXFXFXFXAXFXD FXD F A G F S HXA A A HXHXHXHXV AXV B AXZXAXV ZXV VXCXCXcXcXCXCXVXN CXz kXz CXN M VXVXz CXM N M N CXAXAXB M N A AXAXAXAXV CXZXV CXV D FXD D D FXD D D D D D V N AXVXVXM B M CXVXSXcXSXVXcXCXjXjXC.S.lXsXaXJ.N.M.n.N.pXN.Z.A.S.gXC.C.C.C.C.y n.n.gXpXy C.lXC.n.S.Z.C.Z.b.N.J.",
"7X7X}.}.}.7X7X7X}.}.}.8X|.8X}.|.XX}.|.|.|.|.|.8X|.|.z.z.z.|.8X(.|.z.(.|.z.z.(.z.z.z.U.U.U.U.U.U.k.z.j.z.z.V.V._.^.(.j.j.^.^.^.^.^.^.^._._._.^._._.^.^._.V.V.V.V.V.V.V.'.'.S.S.S.S.y y S.S.S.A.xXjX'.'.'.'.i i B i '.VXVXZXZXZXFXFXFXFXFXFXFXFXAXAXFXHXD G G G S S A HXHXHXHXHXHXHXAXDXV DXAXAXV AXAXV CXCXCXCXDXcXCXCXN kXkXZ Z z z z N N N CXCXVXM M CXDXDXAXV N Z A AXAXAXZXZXCXAXA A D D B D D D D FXD D AXV V AXAXVXCXCXB M ZXV SXSXVXVXCXCXkXcXlXZ.Z.sXaXsXm.n.pXpXpXgXgXA.Z.lXgXjXjXC.S.b.n.C.g C.pXlXC.C.C.C.y C.S.S.Z.T.",
"8X8X}.7X}.}.}.7X}.7X7X7X}.8X|.XXXXXX|.z.z.|.|.|.|.|.z.|.z.z.z.|.z.|.(.8Xz.(.z.z.z.z.z.z.z.U.U.U.U.V.U.U.U.j._._._.^.j.j.(.(.^.^.^.^._.^.^._._.^._._._.V.V.V.V.V.V.V.t S.S.S.S.y y '.'.'.'.A.A.`.'.VX'.'.VX'.B B M '.'.{.'.ZXZX{.ZXFXFXAXFXFXAXFXF AXV D D V G S S A DXHXHXHXHXHXA D CXAXCXAXAXV ZXVXAXM kXCXcXcXkXkXN N kXkXDXkXZ M z N CXkXCXM VXVXSXSXAXCXAXB V CXV V AXCXCXVXM N A A AXA V D D A AXAXD D V AXB ZXB ZXZXN V V M N VXM CXVXN CXVXjXgXA.lXgXgXpXaXn.n.sXgXgXA.S.S.Z.A.C.C.y y b.r S.g y pXlXlXgXC.C.C.S.y Z.Z.Z.",
"7X8X7X}.}.}.}.}.}.}.7X8X}.7X}.|.|.XXz.z.|.|.|.|.z.z.z.|.z.z.|.z.|.8X(.8Xz.(.z.z.z.z.z.U.U.U.U.U.U.V.j.z.z.V.j._.V.^.j.^.V.^.^.^.j.^.^.^._._.^.^._._.V.V.V.V.V.V.V.S.S.V.V.S.S.S.S.S.'.'.'.'.`.`.`.'.`.'.ZXB ZXB p VX'.{.{.ZXFXZXFXFXAXZXAXFXV HXF A FXAXV V F G G A A HXD A HXA A A AXCXAXZXSXZXZXAXCXCXCXCXcXcXvXDXkXN N c c DXN z N N CXN M M jXkXVXSXVXCXN B D AXAXV ZXZXCXCXCXZ DXDXAXA D D D D D V AXHXAXAXV V B ZXB C N B B B i M x VXx VXz jXjXxXgXgXN.sXsXsXpXpXsXxXS.C.A.S.Z.A.y y C.y n.n.C.gXgXgXx C.Z.C.y y S.S.S.J.",
"7X8X7X}.}.7X7X}.7X7X7X7X8X8X|.}.|.|.z.k.|.|.|.|.|.k.z.z.|.U.|.z.z.z.z.(.z.z.z.z.z.z.(.z.z.z.U.z.j.V.j.z.j.j.j.^.^.j.^.^.^._.j.j.j.^.^._.^._.V.V._.V.V.V.V.t t V.V.t V.S.S.S.y y S.'.i A.S.'.`.`.A.`.`.'.'.{.'.i p i {.{.{.{.{.ZX{.FXZXFXFXFXHXHXA DXDXDXDXA A S A Z HXHXHXHXHXAXA HXCXCXAXVXVXZXSXCXCXCXCXcXkXkXvXkXvXkXkXc c kXkXkXkXkXkXCXx M jXkXVXSXVXZXB B V V ZXAXVXVXZXZXCXN CXDXDXV D F D D D V HXDXAXAXFXAXV D V V D C B B i M i C.M CXx kXgXlXgXg gXn.iXn.n.C.pXC.g A.jXS.C.x C.y y n.C.C.gXpXpXgXC.y y N.C.y C.S.n.Y.",
"7X7X7X7X7X7X7X7X/.7X|.|.|.|.|.|.|.|.|.|.|.|.|.|.z.|.|.|.:Xz.z.z.z.z.z.z.z.(.z.(.z.(.(.U.z.U.U.U.V.j.j.j.j.j.j.^.j.^.^.^._.j.^.^.j.j._._._.^.^.V.j.V.V.V._.V.V.V.V.V.t V.S.S.S.S.'.y S.`.`.`.`.`.`.`.`.'.'.i i i {.{.p {.'.{.{.{.ZXSXAXSXFXFXFXHXHXDXAXDXHXHXZ S C A A HXHXHXHXHXHXA AXAXM VXCXZXCXCXCXCXvXvXvXvXvXvXvXvXc kXvXz kXkXcXkXlXcXzXkXjXjXSXSX'.ZXZXAXZXAXZXCXVXVXCXZXVXCXCXDXV HXA F A A V HXAXDXAXHXFXHXD D FXD B B B C i C i x x N z x l hXh g g pXn.n.n.C.pXy jXjXx jXjXx x y y C.gXgXC.gXC.pXg pXgXC.C.C.b.n.C.Z.",
"7Xl.}.7X7X7X7X7X/.|.|.8X|.|.}.|.|.z.z.|.|.z.z.z.|.z.z.|.z.z.z.z.z.z.z.z.z.(.(.z.z.(.z.U.]._.V.V.j.j.j.j.j.j.^.j.^.^.^.^.j.^.j.^.j.^._.V.j.^.V.V.V.V.V.V.t t V.S.V.t t V.V.S.y y S.S.'.'.S.A.`.`.'.'.'.`.'.i i i i {.p {.B {.'.{.{.ZXSXSXZXAXHXHXHXAXHXHXA F A G C A A A HXA F HXF V V AXB N VXVXAXCXCXCXkXCXCXvXc vXvXhXhXkXz kXc z kXx kXcXkXkXkXcXjXjX'.ZXN ZXVXZXVXA N B V VXM V AXZ A A F F F A D AXHXHXHXHXHXAXFXD B B C V M M M C C N M z z z x l l r r iXn.gXn.Z.pXgXgXhXkXx x y x y y C.C.C.gXgXC.C.n.gXy y y C.n.C.C.Z.",
"/.}.l.}.}./.7X8X7X7X7X8X8X8X|.|.|.z.|.|.|.|.|.z.z.z.z.z.z.z.z.z.z.z.z.z.z.z.z.z.V.z.U.U.U.V.V.V.z.V.j.j.j.j.j.j.j.j.^.j.j.j.j.j.^.j.j.^.^.j.j.V.V.V.V.V.V.t V.t t t t V.V.V.y S.S.S.A.'.`.S.S.`.'.'.'.'.'.'.'.i p '.i p B B ZXZX{.ZX{.VXAXAXFXHXDXDXHXHXHXA S A A F A HXA HXHXHXDXD AXCXN M VXCXN DXCXCXkXZ z Z c c hXvXvXc c kXkXkXz jXVXCXCXkXjXjXxXjXVXVXjXSXVXVXCXCXN N N B V V V C A A G F F A V A A D A HXV FXV V C V N N M B M M M x M z kXz x x y r n.pXg pXC.C.gXgXhXkXl x g y x y y C.g g x gXg g r y r r n.C.gXgXC.Z.",
"8X(.l.}././.7X/.7X}.7X7X8X8X|.|.}.|.|.|.|.|.z.z.z.z.z.z.z.z.z.z.z.z.(.z.(.z.z.z.z.z.z.V.V.j.j.j.j.V.j.j.^.^.j.j.j.j.j.j.j.j.j.j.j.j.^.j.^.V.j.j.V.V.V.t t t t t t t V.V.V.V.t S.S.t i A.`.S.S.S.'.'.S.'.y S.i i i i i i i M i B ZXFXVXZXZXAXAXHXAXAXHXHXHXHXF F A A HXA F F F A V D A CXN CXCXCXCXCXCXkXkXz Z c kXDXDXkXz c c c kXl kXx kXcXkXkXkXlXjXjXM xXjXcXVXz CXCXM V V N C AXV C C S F F F A G A A A A A A HXD N M V N N N N N N M z z z z x x y y y g pXg r g n.C.gXhXcXjXx x C.x y gXy g C.gXjXy gXg g y gXC.C.C.g C.Z.",
"(.(.l.(.7X8X7X7X7X7X7X7X8X8X8X8X8X|.|.|.|.|.z.|.z.z.z.z.z.z.z.z.(.z.z.z.].z.(.(.^.z.j.V.^.j.^.j.j.j.j.j.j.j.j.j.j.j.j.V.z.j.V.j.j.^.^.^.^.j.j.V.V.V.S.V.t t t y t V.V._.V.t y y y y S.S.S.S.S.'.S.'.S.S.y i i i i i i i '.VXB B FXZXZXVXZXAXAXAXFXV HXHXHXF F F S A A A F F F HXHXV A V V N CXDXDXDXCXkXkXN Z Z Z DXvXvXkXc kXc kXkXjXkXjXkXcXkXcXxXxXjXjXjXCXVXCXCXCXZXZXAXB V V V C C A A F F F F A A D F A A A F A V A Z DXZ N CXZXM N z z z z x y y x x g g pXr pXgXpXgXhXhXgXgXx x g y gXgXA.C.C.gXC.x C.g y C.gXgXjXjXC.C.",
"}.l./.8X7X8X}.7X}.7X7X7X8X8X8X|.(.}.}.}.|.|.|.z.|.z.z.z.z.z.z.(.z.z.z.z.z.j.j.j.j.j.j.j.j.j.j.j.j.j.j.j.j.j.^.j.j.j.j.j.j.j.j.^.j.^.^.^.^.j.^.V.V.S.S.t y V.y t t t t t t t b.S.y S.S.`.S.'.`.`.S._.S.y y y i i i i y i i '.i B VXV B B AXAXV A HXFXHXA A F A A S F S F S F F HXDXDXA Z V V DXDXDXCXCXCXN CXc c c Z DXZ vXvXc c vXkXz CXkXcXkXvXcXSXjXxXVXCXCXVXN VXCXB AXHXA D D A D C A F F F F G G V A A A A A A A V A AXN Z Z N N M M x C v x x x x g y u g g g g x gXl gXkXkXx x x x hXh hXgXjXgXx x y y x gXgXgXpXC.gXC.y ",
"}.}.}.|.8X8X8X8X7X7X8X8X7X8X8X8Xz.|.z.}.|.|.|.|.|.|.z.z.z.z.(.z.z.z.z.z.z.j.j.j.j.j.j.j.V.j.j.j.j.j.j.j.j.j.j.^.j.j.j.j.j.j.j.^.j.j.j.^.^.^.V.V._.t t t t S.y t t t t y t t t S.b.S.S.A.`.A.'.'.A.S.y y y y y i y i i '.i '.i i M B C M AXAXV N AXA DXA F F F A A F S F F HXHXF HXA A HXV A DXDXDXDXDXCXCXCXc c c Z c c vXvXvXhXc kXkXkXkXkXkXkXCXkXVXVXZXSXCXCXVXV V B AXA A F F F F A F F F F F F G G D F F F S S Z AXA DXS S A Z N M N N C z x x x x y y r g g g g g pXl l hXjXz gXjXg l hXhXhXjXl l l x x gXgXgXgXgXgXC.n.C.",
"}.7X}.|.}.8X}.8X8X7X7X8X8X8X7X8X}.8X7X}.}.|.7X8X|.(.(.z.(.z.z.(.z.z.j.j.j.j.j.j.V.V.j.V.9 j.j.j.j.j.j.j.j.j.j.j.j.^.j.j.^.^.^.^.^.^.^.^.j.^._._._.V.t t t t t y t t t u y y V.S.S.S.S.~.S.S.S.`.C.y y y y S.S.'.'.i i '.'.ZX'.p i B M M N AXCXDXV A A S A A F F F F S H S DXHXF DXA F HXA D A HXDXDXDXDXCXCXZ c c vXv vXc vXc vXvXc c kXN CXkXSXkXkXkXSXVXCXVXAXCXM V B A F F F F F S F F F F F G F F F F G S A S S S Z DXA Z A Z N Z C N M z x x x y x x r g pXg g x g g x z hXhXgXx l l l hXhXhXx z x l l g gXhXhXg g gXg C.y ",
"|.|.}.}.8X|.|.8X8X7X7X8X8X8X8X8X8X7X7X}.}.}.}.|.l.z.(.(.z.(.z.(.z.z.j.j.j.V.V.V.j.V.9 j.j.j.j.j.j.j.j.j.j.j.j.j.j.j.j.^.^.^.^.^.^.^.^.^.j.j.j.V.t V.V.t i t y t t u u t t y y S.y S.S.S.S.S.S.A.S.C.y y C.S.'.'.'.'.'.i '.i i i i i VXM C V A DXA DXA A S S S S F HXF F F A F HXS S A A HXA HXHXDXDXCXDXZ Z Z kXkXc c c l kXvXvXc c kXCXDXN SXCXCXcXxXVXCXVXVXVXB N V V D F G F G F H F F F F F F F G F G G m S S S S Z Z Z S A N Z z C C C z x x x y x y g x x y C.gXx x x x l hXhXx hXz c l l l z z kXx l l l x g gXhXx g g C.",
"|.}.|.7X}.8X8X(.7X7X7X8X(.8X|.8X7X7X/.l./.7X|.}.8Xl./.z.(.(.(.(.(.z.z.j.j.j.j.j.j.j.j.j.j.j.j.j.j.j.j.z.z.j.j.j.j.9 j.^.^.^.^.j.^.j.j.^.^.^.^.9 t t V.t t t y y y t t y t t t t S.y S.S.S.S.S.A.Z.C.C.y y y i i '.i y i '.'.'.'.i i B N B M CXAXDXA A A A A A S F F F F DXDXS DXHXDXS F V F A S DXZ DXDXDXCXkXZ c vXv l v kXvXhXkXc kXCXN AXCXCXSXSXSXAXM N M VXAXV V V V F F D F F S S F F F F F F G F G G G S S S S S S c Z Z V N N M x z x l x x x x x x x x C.x x l x x kXl hXkXhXhXl hXhXhXl l z z l g l l l gXgXn.g g x C.",
"}.}.}.}.7X|.7X7X7X7X8X(.8X8X8X8X(.z.l.l.l./.}.8Xz.l.l.l./.z.z.(.(.(.^.z.j.j.j.j.j.j.j.g.g.j.j.j.g.j.j.j.j.j.j.j.j.j.j.j.j.j.j.j.9 j.^.^.^.^.V.t 9 t t t t t t t t t y u t t t t t V.S.S.C.C.jXgXS.y S.y y i i i S.S.i B i i i {.'.i B B V N CXCXDXA Z Z DXA F S S S F S DXDXHXHXHXDXDXA A F F S A V AXAXV CXN Z kXvXvXv c c c c c z kXZ CXAXDXN AXAXCXDXAXN V AXD ZXCXDXA F F F F G m F H H F F F F H F G G G G S S m S S Z N A N C N N N N x x x z l g l l l x x x x x x x x z jXgXgXhXgXhXhXvXk l x l g gXl l l kXgXgXpXgXy y ",
"}.}.}.}.}.}.8X7X7X7X8X/.(.(.z.(.(.z.l.}.l././.8Xl./.l.z.l.z.(.z.(.z.^.j.j.j.j.h.j.j.j.j.j.j.j.j.g.g.j.j.j.j.j.j.j.j.j.j.j.j.j.j.9 h.9 j.^.^.^.^.^.t t t t t t t t t t t t t t t t t t S.S.y jXjXS.x y y i S.'.'.'.i '.M '.i '.{.p i p D V V V CXCXA N A Z DXA S S Z HXZ A DXDXHXDXDXA A A A A F S Z CXAXN V Z c Z z v v c c v v z Z z Z N A N N AXA AXCXAXCXV AXV AXAXA A A F F F F S F F F F F F F F H F G F F S S m F S S Z S N N N N z N z b x x x z x f z x x x x x x x x x l gXhXgXhXhXl v l z x x l jXkXl z l hXsXpXg C.y ",
"}.}.}.}.7X7X7X7X7X7X(.(.(.(.(.(.(.(.l.}.}.7X}.(./.l.(.z.(.z.^.(.j.h.z.z.j.h.h.h.h.j.j.j.z.z.j.j.z.j.j.j.j.z.g.j.g.g.j.j.j.j.j.9 9 j.9 9 ^.^.j._.V.t t t u t e t t t t t t t t t V.t S.y y y C.gXjXC.y y i '.'.i i i i '.'.'.'.{.{.B B B V V DXCXZ CXCXZ Z DXZ A DXDXDXS S HXHXHXA HXA S S A A A A A A Z N Z Z c c Z c c v c c c c Z Z Z N A N V CXV Z AXAXAXV V Z AXA A A S S F F S S F F F F F F F G G m F F F H m m m F S A S C N Z N N N z v x z x x x x x x x x x x x x x l l l l l kXvXkXvXl l x x z kXhXkXz l hXhXpXpXr r ",
"}.}.|.8X7X7X7X7X7X7X(.(.(.z.(.l.l.z.z.}./.}./.(.(.l.(.(.(./.l.(.h.h.z.j.j.h.j.h.h.h.j.k.z.z.z.j.k.j.j.j.j.j.j.j.j.j.j.j.j.j.9 h.j.h.9 9 j.j.^.^.^.j.t t t u t u t t t t t t t V.t t y y y y jXgXy y y x '.y i i i i i i i '.'.{.FX{.B B N N N N N Z Z Z c vXZ DXA DXDXZ DXHXA AXDXF HXA S S S S C N Z Z N Z c Z z z Z S S c c c c Z Z C Z A CXAXAXAXA DXV AXN Z N A DXA S S A F F S F H F H H F F F G m F F F G H m m G m S Z S C C A S N C m C z M x x x b b x b x x x x l x hXl z z z kXvXhXl vXhXl l l l kXvXhXl x g g j g r ",
"l.}.|.8X7X7X7X7X7X7X(.(.(.(.l.l.z.z.l.l.l.l.(.(.(.(.(.(.z./.h.(.(.j.h.h.j.z.j.j.j.h.h.j.j.z.z.z.z.j.j.j.j.j.g.g.j.j.j.j.j.9 j.j.j.j.^.9 ^.^.^.^.9 9 t t t t t u t t t t t t t V.V.t y y C.y S.C.gXy y x x y i i i i i '.i i i '.B p i B B V M N N Z S Z c Z DXJXA Z DXDXA AXDXDXHXA A A A S S S S N S Z N z v c c Z N Z z C C N Z Z Z Z Z CXDXAXAXHXAXA AXV N Z V V V A A F S F HXF F F H H F F G F F F F F F F G m G G m m S S Z m S S C z C C N N C z v v v x b l x x x g l hXh v z z kXhXv vXc c v l l l l hXl x x l f x x y ",
"l.}.}.7X7X}.}.7X8X(./.(.(.z.(.z.z.l.z.l.z.z.(./.).(.).^.(.(.(.(.j.).z.l.z.j.j.j.h.j.h.z.z.j.h.z.j.j.j.j.j.j.V.g.j.g.j.j.g.9 j.9 j.j.j.h.j.9 9 ^.j.9 t t t t u u t t t t t t t t t t t y S.C.y C.x x M x y y y y i y i i i i p p B p B p B N B N N Z Z v v Z c n DXZ Z DXDXAXAXAXV V A V S S G S S C Z Z c c z v Z N Z Z C N N N Z Z Z Z N A DXHXDXV D V A V A A HXV A F A F F F HXF F F F F F F F F F S F F F F G G G G m A m m S G S S Z S N C C C C x c v v v b l f g l x h hXl v l x l v v c c v k c l c l hXvXl l h g g g y ",
"7X}.|.8X7X8X7X7X(.8X(.(.z.l.z.z.l.h.h.h.l.l.l./.).).(.(.(.(.(.(.(.z.j.z.z.z.h.h.z.z.h.h.x.z.h.z.z.z.j.j.V.j.V.j.g.g.j.j.j.j.j.j.j.j.9 9 0 9 9 9 9 9 9 t t t t t t t t t t t t t t t y y S.C.y x z M M x x x i i i i i i i i i p B B B B B C C V C A S Z Z S S S DXDXDXDXA A AXAXHXV C C C G C S Z Z N N C Z c c c c v Z Z N Z Z Z N A Z A DXA AXAXV V V D V A V V Z DXS F F F HXF HXF F H H H F F F F F F F G F F C C m G C S S S S m S S Z N N C C C N z c b b b v l h l l l l l l l v z v v c v v v v c c z l hXl g g f g x g ",
"l./.}.7X}.7X/.7X/./.(./.z.(.l.z.l.z.l.h.h.z.l.).).).(.(././.).).(.^.(.z.z.z.j.h.l.h.h.l.h.h.j.h.h.j.j.j.j.g.k.j.j.j.j.j.j.j.j.j.j.j.9 h.j.9 9 9 9 V.t t t V.t t t t t t t t t t t t t y y y x i x i x x x x x y i i i i i i i i i ZXp i C C C C C A A Z S Z S S Z DXDXZ CXHXDXCXN A V C C G G S Z z C x c v c z z c Z C Z Z z N N N C Z N DXZ Z A CXA HXV V A Z HXS F A S F F HXF F F H H H F H H F F F F G F G G C G m C S m m S m S m S S Z N C C N v x c v d k f x f x x l l l k l v c c c v v z l c l c l hXh h x g g g x y ",
"/.7X7X}.7X7X/././././.z.z.l.z.z.z.l.h.h.l.h.h.h.h.).(.(.(.(././.z.(./.(.z.j.z.h.j.h.h.l.l.h.).).h.j.j.j.j.j.j.h.j.j.j.j.9 9 j.9 9 9 9 9 j.j.9 9 9 t t t t t t t t t t t V.t t t t t y y y y y i i M i x i y x i i i M M i i i i '.B B B B B C C Z Z A S S S S S Z c c CXkXN DXDXZ Z N N Z A m S S C z z c c v c v c N Z Z N c Z N N Z Z N Z Z DXDXDXDXA A HXAXA A F F F F F F F H F F HXH H H H H H F F G G G G G G m m m m m m m m S m m S C C S Z x d v v v b d f f x b x v l v k l v c c v v c l l c l l l hXdXhXpXh j r y x ",
"/.7Xl.l.l././././././.l.l.l.l.z.l.z.l.h.h.h.h.l./.).(.(.(.).(.(././.z.l.h.h.h.h.h.h.h.h./.).h.h.).h.j.z.j.h.h.h.j.j.j.j.j.9 9 9 g.0 9 9 9 0 9 9 9 t t t t t t t t 9 t V.t t y S.y y y y y y y y i x y x i M i x y i i i M B i i B V ZXB V V V V N Z A S S S S S S c vXkXvXvXDXDXvXkXDXS Z S S Z Z z C z c z c Z c Z Z Z Z Z c z N DXZ Z Z A A Z DXDXDXDXDXHXDXHXHXF S S F S A S F F F F F F H F H H G F G G m m G m G m G m m m m m m m S m G S m S d d d v v b b l b b b f x v b v h c v v c c v v hXhXl l dXh pXh h h h g g y ",
"l.l./.l./././././.l.l.l.z.l.z.z.z.z.z.l.l.h.h./././.(.(./.(.(././.)././.l.).j.h.h.h.h./.l.h.).).).).(.z.h.h.h.h.j.j.9 j.j.9 g.j.j.h.9 9 9 j.9 9 t 9 V.t t t t t t t t V.t t y y y t t y y y y y M y x x C M C i i i M M i B p B B AXN AXN A Z V V Z Z S c Z Z Z c c c kXc vXDXZ DXkXZ Z c c Z Z c C z c z c c Z N z z N c Z c Z DXZ Z DXA A DXA A DXDXDXZ DXDXHXF S S S S F F F F F F F F F H H H G G G F G m m m m G m G m m m m m m m m m m m S S m d d d d d d v k b b b b b k b b v v v v c l l l l hXh h h l h l hXh h x g ",
"}.7Xl.l.l.l././././.l.l.l.l.z.z.z.z.h.x.z.h.l././.)./.(.(.(.)./.).(.l./.).).h.j.h.h.l.h./.h./.).).h.).z.(.).z.(.j.h.h.j.9 9 9 j.j.0 9 9 9 9 9 t 9 9 9 V.t t t t t e t V.V.V.S.y y t y y y i i i y y y y M i M i y x C VXC M C V B V A Z DXDXDXA Z Z Z S S Z S Z c c vXvXDXZ Z Z N CXZ DXZ Z S c Z z C c z c c Z Z c c z c Z N N N Z DXA Z A DXZ DXDXZ DXZ HXDXAXS A F F F F F F F F F F F F H H H H G G G m G G m m m m m m m m m m m m m H m S m m m d d d d d d d b v b b b b v v v v v b v c x l l c v h h h h f h fXh h j g ",
"}.7Xl.l.l.l./././././.l.l.l.h.h.z.h.h.l.l.h./.l.(.(.(.(.(.(.).(.h.h.l././.)./.).z.h.h.l././.h./.h.h.h.(.h.).(.z.h.h.9 j.9 j.j.j.9 9 9 j.j.9 9 t e 9 t t t 9 9 t e t t V.v.V.t V.y y t y y y x y x i i i i M M y x z z N M M C C V V V Z A Z DXS S Z S A Z S Z DXDXvXvXvXkXz c Z kXvXc Z v d d C v N N Z c Z S S S Z S v Z N Z Z N Z N A V Z Z Z DXDXZ DXA A S A A HXF F F F G F F F F F F F m H H m G F G G G G m m G G G m m m m H m m m H m S S d d d d d d d d d d d b b v v v c v v f x l x l l l c l l h h k fXh fXfXk j j ",
"7X/.l.}.l.l.l././.l.l.l.l.l.l.l.h.l.l.l.l.h.).h.h.(.(.(.(./.).).).h.)./.).h.h.h.).).h.h.h.l.).).).h.h.).).z.l.(.h.^.h.h.j.9 j.9 j.0 9 9 j.t 9 9 t t t t 9 9 t t t e t t t t t t t y y y y y y y y y y i x x M y N M z CXM z ZXV N Z N Z Z A Z S Z c A Z Z S A DXDXZ c vXvXc c c c l v c c d v v v S c S C N Z S S S c S N N Z Z Z c A C Z Z N Z Z A Z DXZ A A F HXF F F F S m m H G F S F H H H H G G G F G m m m m m m m G m H H H H H m m m m m m m m d n d d d d d d d b v v v l b f v b b l v l v k k h l f k fXk h iXj h g ",
"/.7X}.l.l.l.l././.l.l.l.l.l.l.l.x.l.h.l.l.h.z.h.).h././.l./././.l.h.h.).).).).).).).).h.).h.).).).).h.).z.z.).).).^.).h.j.9 9 9 9 9 9 j.9 9 t 9 t t t 9 9 9 9 t 9 t 9 t t t t S.y y y y y y y y y y y y y x x x x M CXkXkXCXM CXCXZ Z Z Z Z Z Z c c Z DXDXZ DXDXc Z kXvXvXc c c c v v v d d d v b v S S S C S S Z S S Z N Z N Z Z Z Z C S A A Z Z DXDXDXS A A F F F F F S S G m m G m S F H F H F F F G m G m m m m m m H H H H H H H H H H m m H m m m d d d d d d d d d d d v b l l l l f b x c l k k k h k k j k 3 k 3 h h h ",
"}.7Xl.}.}.l.l./.l.l.l.l.l.l.l.l.l.l.l.l.l.h.h.h.h.h./././.(././.).).l.).h.h.).j.h.).h.^.j.).).).).).).h.h.j.h.^.h.j.j.h.j.9 9 9 j.g.9 9 9 9 9 9 9 9 9 9 j.9 t t t e t t t t V.V.t y y y t y y y S.y y y x x x C x M z kXkXkXN AXCXN Z DXZ Z S c v S Z Z Z c DXDXZ vXc c c v v c c c c v v v d v v v N S N C Z Z Z S Z c Z C S Z c Z N N S A c Z Z Z DXDXS DXZ S A S A F F H S m m m m G S F H H H S F F F m m G m m m m m m m m m H m m m H m m m m m d m d d d d d d d d d b b b l h b x x b x f f h f f g f j k k k 3 j j j 3 ",
"/.}.l.l.l.}.l./.l.l.l.l.l.l.l.x.l.h.h.l.l.h.h.h.h.h.h.h.h.(.(.(.(.h.h.h.).h.h.j.h.h.^.h.j.^.^.).h.h.).).^.).h.h.h.h.h.h.h.h.j.0 9 g.9 9 9 9 9 9 9 9 t V.j.V.t t t t t t t V.t t S.S.S.y y S.y y y y x y i x x z z M x z x CXCXCXDXA CXDXZ Z Z v S S Z DXZ vXDXDXDXZ c c c c c c c c c v v v v v v c v N Z N N c S S z c Z S S Z v S Z N Z Z c vXvXc c DXJXDXA A S F F F F H H m G m m m G F F m m m S H G m m G m m m m m m m m m m H H m m m m m m d d d d d d d d d b b b f f v b f f b x x x f k k f j h j k j k j j j j j k ",
"}.}.}.}.}.}.l.7Xl.l.l.l.h./.l.x.h.l.h.l.h.h.h.h.h.h.h.h.l.(.(.(.z.h.h.h.h.j.j.h.h.h.h.h.).^.^.h.^.h.).^.9 h.h.h.j.h.j.j.h.h.9 j.j.g.9 9 9 9 9 t 9 t 9 t t t t t t t t V.V.t V.V.t S.S.S.y y S.y y i y y x y z x z C M M V B CXDXDXN DXZ DXS Z c S n S S S DXDXDXZ S Z S c v c n v vXc v v v v v b v Z Z Z S z z c d N c c Z z z z Z z S Z c Z v vXv c S v S Z A A A S F S S H F m G m F H m H m H m m S S S G F m m m m m m m m m m m m m m m m d d d d d d d d b b v b f b b k b f k b b b b x f f h h h j j k k k j s j j f h ",
"l.}.l.l.l.l.l.l.l.l.l.l.h.).h.h.h.l.h.h.l.h.h.h.h.z.l.h.h.l.l.(.h.h.h.h.h.j.h.j.j.h.h.j.j.^.^.).h.).j.9 9 9 j.j.9 j.h.j.j.j.j.9 j.j.9 9 9 9 9 9 9 t t V.V.t t t t t t V.V.t V.V.S.V.S.S.C.y y y y C.x M jXM x x x z z C V V M AXDXZ c Z DXDXZ S DXJXn S S H n DXc Z S Z DXvXvXc n n v v d v v v v v c Z Z z x z c v v c Z z l v z z c S Z c c c v c c S S S S Z A A A F S S S S G m m H m H H H m H H S m S S F S m G m m m m m m m m m m m d m m d d m v v v v l l k f f b f b b b s b b b x b b f f j j j j h f h j s j j j h ",
"l.l.}.}.l.l.l.l.l.l.l.l.h.l.h.h.h.h.h.h.h.h.x.l.h.h.h.j.h.h.z./.h.).j.j.j.j.j.j.j.j.h.j.j.j.^.h.h.).j.9 9 9 h.9 j.h.h.j.j.j.0 9 9 9 9 9 9 9 9 9 t V.t t t t t t t t t t V.V.V.t V.V.V.S.y C.C.y A.jXjXkXM jXz z x z N N N N AXDXDXc DXZ DXZ S H n JXH n JXn S DXS Z JXDXJXc JXBXn v c v v d v v v v c Z z x z l l v c N c v v c z z S C v c v v v c S S c S S Z A A A F S S S F F S H F m H H H H m S S S S S S S F m m m m m m m m m m m m d v S S Z v v b x v l v k f b b b b f b b b b k f f f f s f j j j f f j j j j j j g ",
"l.l.l.l.}.l.l.l.l.l.l.l.l.h.h.h.h.h.h.h.x.x.h.z.h.h.h.h.h.h.h.z.j.j.j.j.j.j.j.j.j.j.h.h.h.h.h.h.^.h.h.j.0 9 9 j.0 j.g.0 0 9 9 0 9 9 9 9 9 9 9 9 9 t t t t t t t t t t t t V.V.V.t V.y S.C.S.S.C.y VXjXjXVXVXz kXx z N N DXN CXDXDXDXDXZ S DXDXDXS S H S n vXvXZ n JXH JXS n n n JXc Z v c c v v l l z z z c c l z c N z c v c c Z z C N v v v v v c N S Z N A A A F A F F F F S F m F S H H H H m n S S S A S S S F m m m m m m C m Z m d m m d d c c v v z v z b v f f f b f f b b b b x f f l f f j j j j j j j j j 3 3 j j j ",
"l.l.l.l.l.}.l.l.l.l.l.h.h.h.h.h.h.h.h.x.x.x.l.h.h.j.h.j.h.h.h.j.j.h.j.j.g.j.g.j.j.9 j.j.j.9 h.h.^.9 h.j.9 9 9 0 j.9 j.9 j.9 9 0 8 9 8 8 9 8 9 9 t V.t t t t t t t t t t t S.t V.t y S.S.S.A.C.gXjXjXjXjXxXVXVXVXkXkXkXN CXDXA DXDXZ Z S DXZ S S S Z n Z S c c JXS JXn n n n JXn c c Z c c c c v l l v z v c c l l c z N z z z c c c v z v v v c c c Z Z A Z C V A S A S S DXF F F H S S S H H n n n S S c S Z S S S m d m m m m d m d d d m S v c v v c c z z x z v b b b b f f f f f b k h f f f f f j s j j s s 3 s 3 j j 3 j ",
"l.l.l.l.l.l.l.l.l.l.h.x.h.x.x.h.h.h.j.h.k.x.h.h.h.j.j.h.h.h.h.j.j.h.j.j.j.j.g.j.j.9 9 j.9 9 9 h.9 9 0 9 0 0 0 0 j.0 0 9 9 9 0 0 8 8 0 9 8 9 9 9 j.9 e t e t y t r e t t r y t t t y b.S.S.Z.A.xXjXcXxXxXxXVXVXCXCXCXCXCXDXDXkXDXvXDXDXDXDXA A S S S S S n n v n n n BXn JXJXJXJXZ DXZ DXDXvXvXc vXl l v c v c l l hXc c N N z kXc c v v v v v v v Z N V V A S A A A Z A HXDXF H S H H S S H H n v S S v v v v S S S S C m m d d d d d v N Z d c N c c c c c N z l v b f f f b f f f f f k f h f h j j j j s s j 4 s s 3 3 3 j j ",
"}.l.l.}.l.l.l.l.l.h.x.x.x.h.h.h.h.h.j.h.x.h.j.j.h.g.j.j.j.j.h.j.j.j.j.j.g.j.g.j.j.9 j.j.j.9 j.j.9 0 9 j.9 0 9 0 9 g.j.9 9 9 0 g.8 0 9 j.j.9 8 9 9 t t t e t r t e r e e b.b.r t b.b.S.C.S.Z.A.xXlXxXxXlXxXGXjXcXcXkXCXCXZ vXz kXZ Z S S S DXS Z DXDXS c n n n n c n JXn JXJXDXJXn S vXDXvXZ c c c vXv v l z z hXc hXz c c kXz vXc v c l v Z v c Z Z N N C A N C N Z Z Z S S S S S H H H H H H n n m d c d v S m S C Z m d m d d d d b v v v N v v z c z kXkXz z v l f f b f b b b s f f f f f f f f s j s s s j s 4 3 4 4 s s j ",
"}.}.l.l.l.l.l.l.l.l.x.x.x.x.x.j.j.j.j.h.h.h.h.j.h.j.j.j.j.j.j.j.j.j.j.j.j.j.g.g.j.j.j.j.j.9 0 9 j.0 0 9 g.9 9 8 8 0 9 9 9 0 0 8 8 0 9 j.j.j.9 9 j.9 v.v.e e t t y r r b.b.r r t y b.y C.S.jXZ.A.xXxXSXcXcXcXcXjXkXkXkXkXz c c c Z DXS S S vXBXS JXDXS DXDXn BXn n n n JXS vXZ n n n BXvXDXc vXc c l l v l l v hXhXl l z l z vXvXc v l x z c v c N N z z C N Z Z N Z C S Z S S S S H H n n n m n S m v c v S m S Z Z C b b b b b b v v d d b x x c z z l g gXx z x b f g f f f b s s f j j f f f l f j j 4 j s 4 4 4 4 3 s s s j ",
"l.l.}.l.l.l.l.l.l.l.h.x.x.h.j.j.j.j.j.j.j.x.g.z.j.k.j.j.j.g.j.h.j.g.j.j.j.V.g.g.g.g.g.j.9 9 j.0 9 9 0 9 9 8 8 8 8 g.9 g.8 0 0 0 0 8 9 8 g.g.g.j.j.g.v.e v.e b.e t r r b.r b.b.b.b.b.S.C.gXjXZ.A.xXGXxXcXcXcXkXCXCXxXSXkXz CXc vXDXvXDXv S Z n DXDXJXDXDXS n n n n c DXn Z Z Z DXvXn JXvXvXc v c l l l v v k hXk hXl v x x l l hXc c x x v z v z z N N x z C C C Z C Z A S S S S S H H n n H d n n v S Z v d v d d v d x b v b b v x x b v l x x z hXl x gXx x x x x x g l g f f s s f f f f f f f j s 4 s s s s 4 4 4 3 4 s s s ",
"}.}.l.l.l.l.l.l.l.l.l.h.x.j.g.j.g.j.g.j.j.g.j.z.j.j.j.g.k.g.j.j.j.g.j.j.j.j.v.V.t g.8 g.j.9 9 9 8 9 9 9 8 8 8 9 0 8 8 8 0 8 8 8 8 0 g.9 8 g.8 8 g.v.v.v.v.v.e v.V.b.b.S.b.r r b.b.r n.C.C.gXgXxXcXcXCXcXcXcXcXcXzXcXjXkXjXkXkXvXc vXc c n vXc vXDXJXJXJXBXBXn n n vXDXDXvXDXvXDXBXBXn vXvXvXc c c hXl l h v v v l l l z z x l l z z l z z z v v z z N N z C C C V V N A A A Z S S H n n d n d n n n n d d d v v v v f l x v v b b b z v v l x x l l g hXgXx hXx l l j x r g g s j f j s s f f f j j j s 3 w s 4 $ 4 j 4 4 4 4 s ",
"}.l.l.l.l.l.l.l.l.l.l.l.x.j.j.g.j.j.j.j.j.g.j.k.j.j.g.g.g.g.k.j.V.g.j.j.V.j.g.v.g.g.g.8 8 9 9 9 9 9 9 9 9 8 8 8 8 8 8 8 8 8 8 8 8 0 8 9 8 g.0 8 8 v.e v.v.v.v.b.e r b.b.b.r b.b.b.n.C.Z.n.lXlXlXcXcXcXcXcXcXcXzXvXcXhXhXkXl vXvXvXvXv vXDXDXDXDXvXBXDXJXJXJXBXn vXDXDXDXDXvXvXDXvXvXvXv c vXc c vXhXl hXl l l v l l v l l h x l x v f x l l v c c x x x z z C C N Z Z Z Z Z Z v Z n S n d S d d n m d d d v v d v b v f f l f b f b v x z l f l l l pXl pXx x g x g g j g r r u s f j 4 s s f f f j s s $ $ 4 s 4 4 4 4 s 4 s s ",
"l.l.l.l.l.l.z.l.z.x.h.l.j.j.j.j.j.g.g.g.g.g.j.k.V.V.V.v.V.g.j.j.V.j.j.j.j.g.g.g.g.g.g.9 9 9 t 9 9 t t t 8 8 e 8 8 8 9 9 8 8 8 8 7 8 8 8 g.8 8 8 8 e e v.v.v.B.v.B.b.b.b.b.b.v.c.v.b.M.N.pXlXlXcXlXcXzXMXcXcXzXcXNXcXvXhXfXvXvXc c c c vXvXDXvXDXDXBXDXJXJXJXJXJXDXDXDXDXDXvXcXvXkXvXvXc vXvXvXvXc vXhXhXh c l l c v v l h h f h l l x b k l v v l l z x v z x C M z v c vXvXc v S S n n n n d d d d m d d d d v v l b f f f f b v f v x f f g g l l x g x l g x r y r r s u u u u j s s s s s f s s s s w 4 4 4 s s $ $ 4 s s s ",
"l.l.l.l.l.l.h./.z.h.h.z.z.z.j.k.g.j.g.g.g.g.g.k.c.V.V.V.v.V.g.k.g.V.V.v.g.g.g.v.g.j.g.g.g.e 9 e v.V.t t 8 8 8 e e t 8 8 t 8 8 8 8 0 8 8 8 e 8 g.e e v.v.v.v.v.c.M.M.b.M.M.b.M.b.M.M.M.N.lXC.lXzXlXcXlXMXzXzXzXzXcXcXhXvXhXzXvXl vXvXc vXc vXDXDXJXBXBXDXDXBXDXJXJXvXvXDXDXcXvXDXvXvXvXvXvXvXvXvXvXvXhXhXhXl l v v v x l h f k f f l k f l f f k f x f x v v N N z N v c v c c v v v S c n n m m d d d d d d d v b b f f f h f k l k f l l f h g h g pXg l gXg g g u r r r w g u j j s s s s s s s s s s 4 $ 4 s s s $ $ s 4 4 s ",
"l.l./.l./.).l.l.j.j.h.z.j.z.j.j.j.g.g.g.v.g.g.v.V.g.c.V.V.c.g.V.v.V.V.V.g.g.g.g.v.g.V.e t e e V.v.e e e t 8 e e 8 8 e t e 9 8 9 8 8 8 8 8 e e e e v.v.v.v.v.c.v.M.M.M.M.M.M.M.M.M.M.M.T.sXlXzXMXMXxXlXlXlXMXMXcXNXzXzXzXzXzXhXvXvXvXvXvXvXvXvXDXBXBXJXvXvXvXJXJXJXDXJXDXNXvXDXvXvXvXvXvXvXvXcXvXzXvXvXvXvXhXv v c vXvXl h h f k f f b f f x b f b f f f x z v z z z l z vXvXvXv v v v S S n n n d v d d d d v d d k f f f f f f f k f l h j j pXg g g g gXgXgXg r r r r r u u u r j s s s s s s s 4 s 4 $ $ s s 4 4 $ 4 4 4 4 s ",
"l.l.l.l.(./.l.l.h.j.z.x.k.z.j.z.g.g.k.c.U.D.c.D.k.v.V.U.V.V.c.c.V.V.V.j.g.g.g.g.g.V.g.e g.e e e t t g.8 9 v.8 8 8 e e e 8 e e 8 8 8 8 8 e 8 e e e v.v.v.v.v.B.B.F.F.N.T.M.M.M.B.M.N.N.J.J.lXbXMXMXxXlXsXzXzXzXcXvXvXzXhXhXhXvXl l vXvXvXvXvXvXDXvXBXBXvXBXBXvXJXJXDXDXDXBXDXvXDXkXkXvXvXvXvXcXvXcXvXzXvXvXc hXk v hXl l l h h k k f k f f f f f x l x l f b b x z z z v c vXv d v v c c v n v n d v v d n d d d d b k k f f f f f k h h h h h h pXn.pXiXg n.n.r r r r r r u u u u j f s f s s s 4 s 4 $ s $ $ s $ $ 4 s 4 4 s s ",
"l.l.l.l.l.l.z.z.k.z.k.k.k.k.z.j.j.j.j.U.U.c.U.k.V.c.c.U.V.V.V.U.v.v.c.g.V.V.v.V.g.g.9 8 g.g.g.V.v.v.e e e 8 9 8 8 8 8 e 8 8 e e g.g.v.8 8 8 e e e v.v.v.v.B.M.F.N.M.N.J.b.B.M.M.M.M.Z.Z.lXlXlXMXbXMXzXdXzXzXhXzXvXvXvXvXvXvXvXkXhXvXvXvXc vXc DXBXvXBXBXBXBXJXJXJXDXBXBXBXDXvXCXCXcXvXvXvXvXvXkXkXvXvXvXvXvXhXh k k h h f f k k k k k f f f f g g x x l l l x l l v l l l c v b v v v v v v v S v v d d d d d d b k b k s f f f j h j h dXh hXiXpXpXpXdXpXn.g n.n.r r r r y y u u g f s s s s s s s 4 s $ 4 4 $ 4 $ w s s s s s ",
"l.x.l.z.z.x.k.z.z.h.k.k.k.z.h.z.j.j.j.z.U.j.k.g.j.V.V.U.V.V.V.U.V.c.j.g.g.V.V.g.g.g.g.g.8 j.g.g.t e e 8 e g.9 8 e 8 8 8 8 e 8 e e e 8 e 8 e e e e v.v.t v.B.B.m.M.M.J.N.N.N.M.B.M.N.N.sXlXzXMXzXMXMXsXbXzXsXzXhXvXvXfXzXl hXhXvXkXvXvXvXvXc kXDXDXBXBXJXBXvXBXJXJXvXBXNXvXvXDXcXcXkXhXvXvXkXvXcXvXvXvXvXfXk hXk h k h h f k k k h f k j j f s g f x l v l f f f l c z c c c v f b v v v v v c v v v d n d b d d k f k f k f f f j h g dXpXg j j g iXg pXpXpXn.n.y g r r y y y u u u s s s w r w 4 s w 4 s $ $ $ 4 $ s w w s s s ",
"x.l.l.x.k.k.k.k.j.j.z.z.z.j.j.h.j.j.V.U.U.U.V.V.j.V.k.V.V.c.c.U.V.V.V.g.g.j.V.j.g.j.j.g.j.g.g.g.g.e e e e e 8 8 8 e e 8 8 e e e e e e g.e e e e e e e e v.v.B.^ m.M.N.N.N.N.N.N.N.sXsXsXhXzXcXMXMXbXbXbXzXzXvXvXNXvXfXvXhXhXhXvXvXzXzXNXvXvXvXDXvXvXvXBXBXBXBXBXJXvXvXvXvXvXkXcXvXkXhXvXvXvXvXcXvXvXvXvXvXfXk k h k k j j k k k k j j j h j g f x l l l b f x f l z v v v v b b b b d v v c v c v d d d d d d d b k k f f k k j g g g pXpXpXr r B.j pXpXgXpXpXC.C.y y C.y y y y y r u j r r 3 w s 4 $ s s 4 4 w w 4 4 w w w s s ",
"l.z.k.h.k.k.k.k.k.z.z.k.z.z.j.h.j.z.z.z.z.U.z.k.U.U.U.z.V.c.U.c.U.V.g.g.j.g.j.j.g.j.g.g.g.g.g.v.V.v.e g.v.e 8 8 v.8 e e 8 e e v.e e g.g.e e e e e e v.v.v.B.B.m.m.B.m.n.m.n.B.n.N.n.sXsXsXzXsXMXbXbXbXNXzXzXcXvXcXfXvXh vXcXcXcXvXzXNXvXvXvXvXDXvXvXvXBXBXBXBXBXBXvXvXvXvXvXvXvXvXvXhXhXvXvXvXcXvXvXvXvXfXfXfXh k k j j j j f f k j iXj j j f j f f f l k k f l l x v d b k b f v b z v v c c c v v v v b d b b b k k j f f s h h pXh g pXr j r r iXg sXpXpXgXC.y y n.n.r y y r u u j r w w $ 4 $ 3 $ w $ 4 $ w w J w w w s s s ",
"x.k.h.x.k.k.g.g.j.z.k.z.z.z.h.j.j.z.z.z.z.z.k.k.V.c.c.V.V.V.U.c.V.V.g.g.j.j.j.j.j.v.g.g.g.g.g.g.g.v.v.v.v.e v.g.v.e e e e e e e e 8 e 8 e v.e e e e v.v.v.B./ / / m.iXm.m.n.N.sXsXN.m.N.N.lXsXbXbXbXbXzXlXzXkXvXhXhXhXl vXvXvXzXzXfXvXvXvXvXvXDXvXvXvXBXvXvXvXBXBXvXvXvXzXNXkXvXvXzXzXhXzXzXvXkXkXkXvXfXfXfXk k fXdXg h h j k k f h h h j h g j f f f f x v l l g l v b f f g f f l b v v c c v v v d d k b b f b b f f f h f f g g g g j iXj j pXn.n.n.Z.gXgXC.C.y r b.r r r r r r u u s s s 4 s s s w w 4 4 s J s s w w w w s ",
"k.k.k.k.g.g.k.g.z.k.k.z.z.z.z.z.z.(.z.z.z.z.U.z.V.c.c.U.c.V.V.V.V.v.j.V.g.j.j.V.j.v.g.g.v.v.v.v.v.v.v.g.e e v.8 e e e 8 e e e e e g.v.e e e v.e W W v.v.v.B.B.B.m.n.B.N.n.n.n.m.sXZ.J.lXJ.bXbXbXbXMXcXzXzXhXhXvXzXhXhXvXhXhXhXfXzXhXzXvXhXcXvXDXvXvXvXvXBXvXvXvXvXvXvXvXNXvXzXvXcXvXvXvXhXfXhXcXvXvXzXfXfXdXk fXdXdXh j j iXj h h h pXj g f f j j f j b f v f h g x l f b f b b b x v v v v v v k v k b k k b f k k f f f h j f h h j j j j g g g n.n.n.n.n.C.C.b.r b.b.y y u u u u j u w w w 4 4 $ w u w 4 w $ $ w 6 s 6 s J 4 ",
"k.k.k.k.k.k.k.k.k.z.z.z.z.z.z.z.z.(.z.z.z.z.z.z.c.U.V.U.V.V.V.V.c.v.V.V.g.V.j.V.V.g.g.v.k.c.v.v.g.V.v.g.v.g.v.v.e e e e e e e e e e e e e e v.v.v.W B.B.v.B.B.B.m.m.B.n.n.n.n.N.T.T.T.bXT.bXMXbXsXzXcXzXzXvXcXvXhXhXhXhXzXhXdXhXvXvXvXvXhXvXzXvXvXvXvXvXBXvXvXBXBXNXvXvXNXcXcXvXvXvXNXvXvXvXvXvXhXfXdXdXdXfXfXfXk h iXdXiXj j iXdXiXiXdXj h f j h h k f f l x f b x g f b b b b f x b x x v k v k k k k v k k k k k v f b k h k f h g j j j j j r n.pXn.gXn.C.C.n.r n.y y u u u u u u u w w s s w 4 $ w s w w w w 6 6 w s J s s ",
"k.k.k.k.k.k.k.k.g.j.z.z.z.k.z.z.(.z.(.z.z.z.z.k.V.c.V.U.U.V.c.Y.c.v.g.V.V.V.V.V.v.v.v.g.v.v.v.v.v.v.v.g.g.e v.e e e e v.e e W W v.e e e e e e v.v.W v.B.B.B.M.B.B.m.m.n.m.n.n.n.N.Z.T.J.lXsXJ.bXbXlXlXgXzXcXzXkXhXhXhXkXzXhXvXzXfXzXzXvXvXvXvXNXvXvXvXvXvXBXvXBXBXNXvXvXNXNXNXvXvXvXNXvXfXvXvXcXvXzXdXhXhXhXfXfXdXh iXdXj j j j j iXg j j f j j h j h j h f f f f x b b x f x f b f f x x b b k k h k k k k f f f f f f h h k k h f j j j j j j r b.n.n.C.n.C.C.C.C.y y y y y r u u g u u u s w s w w w w w s $ s 6 6 6 s J w s ",
"k.k.k.k.k.k.k.U.D.k.k.z.z.z.z.z.(.z.U.(.z.z.k.k.k.U.V.V.V.c.U.U.c.c.V.v.g.v.e V.g.v.v.V.v.v.v.c.c.v.g.g.V.e e e e e 8 v.e e v.W - v.e e e e e v.v.v.^ ^ m.m.B.M.M.N.B.B.n.m.B.n.iXN.Z.T.J.sXbXbXsXsXlXlXgXlXhXkXhXhXhXhXvXvXzXzXzXzXzXvXvXvXvXvXvXvXvXvXvXBXBXBXNXNXNXNXNXNXNXNXvXNXNXNXvXvXvXvXzXzXdXdXhXfXfXk j dXiXdXj 3 3 j j 3 j j j j f j h j j j j f f f f f b b b s s s s f f x f f k k k h k k k k f f f f f h h h f f f f f j g g j j g n.n.n.n.C.C.S.S.C.r r y y u g y r j f s w w s w s w w w s s w w w J w 6 w J s ",
"k.k.D.D.D.D.D.k.D.k.k.z.z.z.z.z.|.U.z.(.z.k.k.k.k.c.V.V.V.c.V.U.V.V.k.c.v.v.v.v.V.v.V.c.c.c.v.c.v.v.V.V.V.e e e e e v.v.W v.v.v.e W e e e v.v.v.v.v.B.v.B.M.B.J.N.m.B.B.n.pXaXn.N.m.sXsXm.aXbXsXlXlXlXlXsXlXhXkXpXlXgXcXzXzXzXvXvXvXcXNXcXvXvXNXvXNXvXvXBXvXBXvXBXNXNXNXNXNXNXNXNXNXvXNXNXvXfXNXhXdXdXdXdXhXk fX3 dXiXh iXj j h j 3 3 j j j 3 j j j j j j j f l l f f b s s f g s f f f k f h k j k j 3 k dXf f f g j j j j f f f g j h j j g g gXC.C.N.M.b.C.S.S.y y r u y u r u u j u u w w w w w w w w J w 6 w w s 6 6 6 w w ",
"D.D.D.k.D.D.k.k.D.D.k.z.|.z.|.|.z.z.z.U.z.k.k.k.k.U.U.c.c.c.c.V.V.V.V.V.V.v.v.v.V.V.V.c.V.c.c.c.v.v.e V.e e v.e e e v.v.v.v.W W W W W v.W v.v.v.v.B.v.B.m.J.G.H.m.m.B.N.sXpXN.sXsXsXdXsXN.aXaXbXbXlXlXxXlXzXzXgXgXlXzXzXzXzXzXzXNXvXvXNXcXNXcXvXvXvXNXNXNXNXNXNXNXNXNXNXNXNXNXNXNXNXNXNXNXNXzXzXfXdXdXdXh dXk fXfXfXdXdXfXh h h j 3 j 3 3 3 3 j j r j j g j f h f g b f f s s f g j f h k k j j j 3 3 j j k f h f g h h j j f f j j h h pXg g g g gXZ.C.C.b.C.S.b.y y y y u u u u s j j r w w w w w w w 6 w s 6 6 w w w w w 6 w ",
"D.c.k.k.k.k.k.D.k.D.z.k.z.z.U.|.U.z.U.z.z.g.g.V.c.V.c.c.c.V.V.c.v.c.c.U.V.v.c.V.v.V.c.V.V.M.c.c.c.v.v.v.t v.e v.e v.v.e v.v.v.v.= = B.W v.v.^ F.v.B.^ v.F.F.G.H.m.N.M.N.n.N.lXN.sXaXaXsXsXsXnXnXbXbXlXlXgXgXgXhXpXpXlXzXhXzXNXvXvXvXNXzXNXNXNXNXNXvXNXNXNXNXNXNXNXNXNXNXNXNXNXNXNXNXNXNXvXzXzXzXfXhXdXdXdXfXk fXfXdXiXj j j h h j j 3 j 3 3 j 3 r r r j j s j j j j j f s f f w s k k k j 3 3 j 3 j j 3 3 3 j f j f g h j j h h f j h h h h g h g C.C.b.M.n.n.S.y y y y y u u j r j u r r r w w w w w w w w w 6 6 6 w w w 6 6 w ",
"z.k.k.z.k.k.k.k.D.k.k.z.z.z.z.U.U.U.z.z.k.k.k.V.V.V.V.V.V.V.c.V.V.V.V.V.V.V.v.c.c.c.V.c.c.c.c.c.M.c.c.v.v.t v.v.v.v.v.v.v.v.v.v.B.B.v.^ W c.B.^ ' F.F.v.B.F.F.F.J.N.n.C.N.N.B.lXsXsXsXsXbXsXbXnXnXbXZ.Z.Z.lXlXhXhXgXlXzXfXvXzXNXzXvXvXvXvXNXNXNXvXvXvXNXNXNXNXNXNXNXNXNXNXNXNXNXNXNXNXmXNXzXfXNXNXzXfXfXk fXfXfXfXh j j j k j j j j j 3 3 j 3 j 4 r r j j j r j g j j j j s f s j j k k k 3 3 j j f j 3 j 3 3 j j h j j g f f f h h j h h h hXl g r b.C.y C.n.S.b.r y y y y u r u u r r u w w w w w w w w w w w w w w w w w 6 w ",
"k.k.z.k.k.k.k.k.k.k.k.U.z.U.z.U.U.z.U.z.U.g.g.V.U.V.c.V.V.V.c.V.U.c.c.U.c.c.c.c.c.v.c.c.v.v.M.V.M.c.v.c.v.v.e b.v.v.v.v.v.v.b.b.b.B.^ ^ F.] F.^ ^ ^ B.c.B.H.G.G.J.M.C.Z.Z.n.M.N.sXsXN.Z.sXlXbXbXbXT.bXT.S.lXxXxXgXlXhXhXvXfXzXfXzXvXvXvXvXNXvXNXvXvXNXNXNXNXNXNXNXNXNXNXNXNXNXNXNXNXfXmXfXzXfXzXzXvXfXfXfXfXfXfXfXh j j j k j j h h j j s r s 4 s - s r w 4 j g j j s r j j j j j 3 4 k 3 3 4 3 3 3 3 3 3 3 3 3 j h j j j f f h j h iXg pXl l hXg g g r C.C.n.y y r r r r y r r u u u r r w w w w w w 6 6 w 6 w w 6 w $ w w w q ",
"k.k.k.z.k.k.k.k.k.k.U.z.z.U.U.U.z.z.z.z.U.V.V.U.V.V.V.V.V.c.c.c.D.D.c.c.D.D.D.D.B.M.c.c.c.v.v.c.c.b.c.M.c.c.v.b.t t v.v.c.v.v.B.B.B.m.B.] ] F.F.m.m.H.M.F.H.J.J.J.N.n.N.M.N.M.N.N.N.J.Z.N.lXbXbXbXbXMXT.A.A.Z.xXxXlXhXhXzXNXzXNXcXzXvXvXNXcXzXNXvXvXvXNXNXNXNXNXNXNXNXNXNXNXNXNXNXNXfXfXfXvXvXNXfXNXfXfXzXfXvXfXfXk k j j j g j j h j j r s j - r r r r s w s j j 3 r j j j s s j 3 3 3 3 3 3 3 5.3 3 j 3 3 j j j j j j j j j h j h h dXhXpXpXgXgXpXg n.C.n.C.b.b.y r r r r r r u u u u u w w w w w w w w w w w 6 6 6 w w w w w ",
"z.k.z.k.k.k.k.k.k.k.k.k.U.U.U.U.U.z.z.k.z.g.c.U.U.V.U.V.V.V.c.c.c.c.c.U.c.D.c.c.c.M.c.c.c.v.c.b.b.b.M.v.v.V.v.b.v.v.b.M.v.c.B.B.Q / m./ ] F.F.m.m.m.m.M.F.J.J.L.M.H.N.M.m.n.N.B.N.H.N.N.N.J.bXnXbXbXbXMXsXZ.gXlXgXzXzXhXzXNXvXzXzXNXfXfXfXcXvXNXNXvXvXNXNXNXNXmXNXNXNXNXNXNXNXNXNXNXNXNXvXfXNXmXzXzXfXfXfXzXzXdXfXdXh j j iXiXj j j g r j 3 - - r - - 3 r 3 w r s - j j j j j j 4 3 4 j 3 j 5.5.3 j 3 3 j j j j j iX5.j j j j dXj j dXiXh pXpXdXpXn.pXn.r r S.b.b.r r r r y r r u u r r w w u u u w w w w w w w . . $ w $ w w 6 ",
"z.z.k.k.k.z.D.D.k.k.k.z.k.k.z.U.U.z.D.k.D.c.V.U.U.U.U.U.U.c.Y.c.c.c.c.U.c.c.c.v.c.c.c.c.v.c.c.c.M.b.b.c.M.b.b.b.M.b.M.M.b.M.B.B.Q Q Q B.n.N.H.J.m.m.m.M.N.J.I.G.J.M.J.M.B.N.B.F.m.m.N.Z.N.L.nXnXbXbXbXMXMXlXlXhXlXsXzXzXzXzXhXzXzXfXvXvXfXNXvXNXNXNXNXNXNXNXNXNXNXNXNXNXNXNXNXNXfXNXNXzXzXNXmXmXzXdXfXfXdXzXdXdXh j j j j iXj iX3 j r B.j 3 3 - - - - 3 - r - - - - 3 4 j j 4 3 3 3 3 j j k iX5.j 3 3 j 3 j j j 3 5.iXiXj dXiXj 3 j iXpXiXiXdXdXpXn.n.n.r r b.r e b.r r r r r r r r r r w w r r q w w w w w w w 6 $ . 6 6 $ $ w ",
"k.k.k.k.z.D.U.D.k.U.z.z.k.k.D.U.k.D.c.k.D.k.D.D.V.U.V.c.c.V.c.c.c.D.U.c.c.c.M.v.v.c.c.c.v.v.c.c.b.c.v.M.M.b.b.c.M.B.n.b.B.B.m./ m.m.m.B.m.m.N.J.N.m.G.G.H.L.L.J.J.F.J.m.F.m.M.m.m.G.J.T.J.G.L.nXnXbXbXbXlXzXdXzXhXlXsXzXzXzXNXmXdXfXfXfXNXmXNXNXNXNXNXmXmXmXmXNXNXNXmXNXmXmXNXNXmXmXfXzXfXmXfXdXdXdXfXdXdXdXdXdXiXiXiX3 j j j iX3 3 3 Q Q - 3 - - 3 3 - 3 r - 3 - 3 3 3 3 - 3 4 3 3 3 3 j j 3 3 3 3 3 j iXj iXj j 3 3 5.h dXj h dXj dXiXdXpXiXdXsXsXn.r r n.b.b.B.- r r r r u r r r q u u u r r u w w w w $ q $ w . $ 6 6 $ q q ",
"k.k.k.z.z.D.k.k.D.U.U.U.|.k.U.D.D.k.k.c.k.k.k.D.c.c.c.c.V.V.V.c.c.c.c.c.c.c.c.b.b.b.v.c.v.c.v.c.M.c.c.c.c.M.b.b.n.n.n.n.m.m.Q / B.B.n.n.sXN.N.J.bXbXnXG.G.F.G.G.F.F.M.m.F.m./ m.F.G.L.I.G.L.L.nXnXG.sXbXzXzXzXzXzXzXlXzXlXbXsXbXdXnXnXmXmXmXNXNXNXNXNXmXmXmXmXNXmXNXNXNXmXmXNXNXzXzXNXNXNXfXdXdXaXaXaXsXaXiXdXpXiXiX3 5.j j 5.g - Q - Q Q Q Q Q - - - Q Q - - - 3 3 3 3 3 4 4 3 3 j j 3 3 3 3 3 j 5.3 j j iXiX5.j 3 5.iX3 3 k dXiXdXiXiXiXiXiXaXaXiXg n.r r r B.( - r r r r r r r r r r e r r r w q q q $ $ $ $ 6 6 6 6 6 6 # q ",
"k.k.k.z.k.U.U.D.:XU.U.U.k.k.k.D.D.D.D.V.D.c.c.D.D.c.c.c.c.V.V.c.M.M.M.c.v.M.b.b.v.b.c.c.c.c.c.v.c.c.v.v.c.b.M.n.n.B.B.B.Q m./ / m.m.B.sXn.m.m.sXsXJ.G.G.G.G.m.G.G.N.G.F./ m.m.G.m.G.aXnXG.J.I.L.I.aXnXbXnXmXzXzXzXlXzXnXsXbXbXfXnXmXmXmXmXNXNXNXfXfXmXmXmXmXmXmXmXmXmXmXmXmXmXNXfXfXzXNXfXmXnXdXaXaXm.sXaXaXiXiXiXaXiXiXr j B.- 5.Q Q ( ( ( Q 3.- - - ( - - - 3 - 4 3 3 3 3 3 2 3 3 3 3 3 3 3 3 5.j j h j j iXj 5.3 3 3 j 5.3 dXiX5.iXiXiXiX5.5.5.B.n.r n.B.- b.- r r r r r r r r r r r e r - - q $ $ q # $ w w . # 6 6 6 . w w ",
"z.D.U.U.U.U.U.U.U.U.D.U.U.D.D.D.D.D.D.D.D.D.c.H.c.c.Y.Y.U.c.c.M.b.b.c.M.c.b.M.c.M.b.v.v.v.c.v.c.v.v.v.c.b.M.M.n.n.B.^ B.Q m.Q 4.m.m.N.n.n.N.pXsXpXN.m.G.G.G.G./ F.m.m.B.F.m.F./ / G.G.J.bXG.I.L.nXbXbXnXnXnXdXbXbXbXbXnXbXbXdXzXmXmXmXmXmXmXmXmXmXfXfXmXmXmXmXmXmXmXmXmXmXmXmXfXfXfXfXmXmXmXaXnXaXnXG.aXiXiXaXiXN.n.iXiXiXQ Q B.B.Q ^ ( Q Q 5.5.- ( ( - - - - 3 - 3 3 3 3 3 5.5.3 3 3 3 3 3 5.5.3 5.5.h j 3 3 j iX5.3 3 iX5.5.5.aX4.aXm.B.iXaX5.5.Q Q B.^ ( - B.- r Q r B.r r r r r q r r e e e = r $ $ $ w w q # . . . . q q w ",
"D.U.U.U.U.U.U.U.D.U.U.D.U.D.D.D.D.U.D.D.c.c.c.U.M.c.D.H.Y.c.c.c.M.B.b.M.M.b.b.b.r b.b.v.v.v.v.c.c.c.v.c.c.M.B.n.B.F.m.^ / / Q aX4.m.aXn.b.N.N.sXm.m.B.] G./ / m.G.G.F.F./ J.] G.] G.L.G.G.G.L.L.G.G.bXnXbXnXnXdXdXnXnXmXnXnXmXnXmXnXmXmXmXmXmXmXmXfXfXmXmXmXmXt.mXmXmXfXmXmXmXfXdXfXfXmXmXaXaXaXN.G.] aXm.4.4.4.4.m.Q iXQ Q / Q m.^ Q / Q Q Q ~ 5.( Q ( - ( - - - 3 5.5.5.3 3 3.5.3 3 5.3 5.5.5.5.5.5.iXj 3 j j 3 3 5.3 j 3 5.4.5.5.4.4.4.4.5.4.Q ( Q ( - W = = ( = e v.r r r r r r r r r r r r q r r $ $ w $ q q . $ . q 6 6 6 ",
"U.U.U.U.U.U.U.U.U.U.U.U.D.U.D.D.D.D.D.D.c.v.v.M.c.c.H.H.H.c.c.c.M.M.M.M.B.B.M.b.b.e b.v.v.v.v.c.v.c.v.c.c.M.B.b.M.M.B.m./ / ~ / 4.5.r n.n.N.n.sXm.m.m.m./ / aXm.G.G.^ ] ] { ] ] G.G.G.L.K.{ L.L.L.] G.nXnXnXnXnXmXnXmXnXw.aXdXmX6.mXmXmXmXmXmXmXmXfXmXfXmXmXmXmXmXmXmXmXmXnXmXmXmXfXnXmX4.dX4.nXaXaXaX] aX/ / 4.~ / / / B./ Q m./ / Q m.m./ ~ ~ Q 3.( ( - - 2 - Q 5.5.5.5.5.5.5.5.5.3 5.3 5.5.4.Q iX5.5.j j 3 3 j j g iX3 5.5.5.5.4./ 4.5.5.5.4.( ( ( ( & - - - e e e v.r r r r r r r r r r r r - r r $ $ w # $ $ # q 6 6 6 6 6 ",
"U.U.U.U.U.U.U.U.U.U.U.Q.E.E.H.U.D.D.D.c.B.M.c.M.H.c.c.F.D.c.c.V.M.N.M.M.M.M.M.b.b.r e b.v.v.b.b.c.c.v.b.c.M.n.m.m.m./ ^ / Q / Q Q 4.4.B.m.n.n.aXN.m.m.G.m.m.Q aXG.G.m.nX] ] ] G.G.G.G.] } } } w.w.G.nXnXnXnXnXnXmXmXnXnXnXmXmXmXmXaXdXfXmXmXmXmXmX6.mXmXfXmXt.mXmXt.mXmXfXnXmXnXmXfXdXmX4.dX4.nXaXaX/ aXG./ / 3./ 3.Q iX/ iX4.m.m.B.] / / 5.4.3.~ 3.~ ( ( Q ~ Q - 5.1.1.3.3.3.5.5.3.~ 3.1.Q 3.4.5.4.Q iXiX3 iX5.5.j 3 j Q Q Q ~ 5.Q m.m./ iX~ ^ Q ~ ( ( - W - W W - e r r r r r r r r - r r $ r = - q - r $ $ $ $ 6 q . 6 6 6 . ",
"H.U.V.V.U.U.U.~.U.Y.~.Q.E.Y.D.Y.D.D.M.M.H.H.M.c.M.c.c.M.c.c.M.S.S.b.M.M.c.M.b.b.b.b.v.B.v.v.v.b.c.M.c.v.b.M.m.B.m./ / ^ ~ ^ ^ / / 4.m.Q m.iXsXaXaXaXB.m.m.m.m.m.] ] / aXG.G.] G.G.G.G.G.] } { { ] { w.nXw.nXnXmXmXnXmXmXnXr.mXmXmXnXnXmXfXmXmXmX6.fXfXfXfXmXmXmXt.t.mXmXmXmXmXmXdXdXfXt.w.w.4.4.w.w.G.m./ 4.3.] ~ 4.4./ Q 4.m.m.m.B./ ^ ~ 4.Q ~ 3.~ ~ E ~ ~ 3.Q ( & 3.1.1.~ 3.5.3.3.E E 1.5.5.Q Q / B.iX4.5.5.4.5.Q - 3 Q Q Q ( ( Q Q B.4.4./ ~ / ~ ! ( ( ( W ^ B.B.B.B.- - r r r r - - - # w r r $ r - r q $ $ # # $ q w q 6 6 ",
"Y.U.U.V.~.U.E.E.E.E.~.~.Y.Y.H.U.V.Y.c.c.M.M.M.b.c.M.c.c.c.v.M.c.b.b.M.M.c.b.M.b.v.B.b.B.B.B.c.M.M.M.M.M.b.H.m.F.^ Q / ~ ~ ( ^ ~ / Q 4.5.5.5.4.4.m.4.m.m.B./ / m.aXaXaXm.aXw.G.nXG.K.F.G.} } { ] ] } L.nXr.w.nXnXaXnXt.LXr.r.nXmXmXmXmXfXmXmXfXmXmXfXfXdX6.t.mXmXmXmXt.mXnXdXmXmXdXdXt.6.r.w.w.w.w.nXw./ ] / ] / ] ~ 4./ / / G.] m.G.^ ! ^ 3.~ ( ( ( ( E ( E ~ ( ( ( 5.1.3.1.3.3.3.1.3.3.3.1.( Q 4.Q Q 5.5.Q Q Q - - Q - - Q Q Q Q ~ / Q / w.^ ! ! ! ( ! ! ! ^ ^ ^ B.^ B.B.B.- - - r r - = = q = $ # - - - e # q $ $ # q q . . . ",
"Z.Y.~.Y.Z.Y.Y.W.W.R.E.Y.~.Y.Y.c.Y.S.M.S.S.S.M.c.c.c.c.c.c.c.c.c.M.b.M.b.b.M.b.M.B.v.b.B.B.B.B.c.M.N.M.M.M.F.F.^ ^ ^ ! ( ( ~ ^ / ~ ~ ~ ~ / 4./ 4./ / Q B.m.^ ^ / / m.aXaXaXw.aXnX] ] ^ } } { } } ] ] } L.#XnXr.nXnXnXr.nXnXmXmXnXmXmXmXmXfXmXmXmXdXdXfXmX6.t.nXmXmXmXt.mXmXmX6.mXdXfXfXfXw.w.w.w.w.w.w.w.] ] ] ] w.4./ 4./ m./ G./ G./ / ~ / ~ / ~ ~ E 1.~ ~ ~ ~ ( 3.1.1.1.1.1.3.9.9.1.1.3.1.~ ( Q ~ Q 4.( Q / Q ( Q - ( - Q Q / ~ / / / / / / ~ ( ! R W ( ( ^ ^ B.^ ^ ^ ( ( ( Q r r e - = = q # = = # - - - # # $ $ $ # # . . . ",
"S.~.Z.Z.S.Y.Y.R.Y.R.Y.~.Y.Y.Y.H.H.~.c.H.M.M.M.b.b.b.v.v.v.b.b.c.b.b.b.b.M.b.b.v.M.v.B.B.B.B.F.F.M.m.m./ m.B.^ ^ ^ ^ ^ / ~ 4.~ } ^ } ~ ~ / 3.3./ / Q / / Q m.Q / / m.aXaX4.4.w.nX] ] } ] } { ! } } { ] #.L.nXbXnXw.nXnXw.w.nXmXnXnXmXnXmXnXdXfXmX6.fXt.6.t.t.mXmXmXmXt.mXt.t.dX5.nXmXt.dXaXnXaXnXw.r.w.] ] ~ aXG.m.4.Q 5.4.] aXG./ ^ ] ] ~ ^ / ] ~ ~ ~ 1.~ ~ ~ E 3.~ 1.1.1.1.1.8.9.9.1.3.3.3.~ ~ Q 4.^ 5./ / Q Q ( ~ ( ( - / ( ( / / ^ Q ^ / Q ( ! ! ^ ^ ^ ^ W ^ ^ ^ ^ ^ ^ ^ ( - Q r - - - - - e = - - $ $ = $ = $ $ # # $ # . . ",
"Y.R.MXZ.Z.Y.Y.R.T.~.~.~.~.R.H.J.T.~.Y.M.Y.M.M.b.b.b.b.v.b.M.c.b.v.b.r b.b.v.v.v.B.B.B.B.n.N.B.F.F.F./ / ^ ^ ^ ^ ^ ^ ^ ^ ] ] ~ } ] ] } ~ ~ 3.] 3.3.4.4./ 4.4.aXm.4.4.aXiXm.aXaXw.w.aXG.~ } ] ] ] G.L.L.r.r.nXw.nXnXnXnXw.w.nXnXnXnXnXr.r.mXdXmXmXmXmXmXmXmXmXmXmXt.t.mXmXmXfXmXaX6.t.6.4.w.w.w.G.w.w.w.w.] ] ] nXw.w.3.5./ w.w.] ~ ^ } ~ ~ ^ ^ / ~ _ _ _ ~ _ ! E ~ ~ E 1.3.1.9.9.9.~ 1.~ 1.3.~ ~ / ~ ( ( ! / ! Q ! ! ( ( Q Q Q ^ / ^ ^ Q Q ^ ( ^ Q ^ ^ ^ ! ^ ^ ^ ! W ( ^ ( ( Q Q ^ ( - - - - - = = - - = $ $ $ $ # # # # # $ # . ",
"A.R.Z.lXT.T.R.Z.~.~.~.~.Y.Z.T.T.Y.T.Y.Y.M.Y.S.M.M.v.c.v.v.M.b.b.b.b.b.B.b.v.b.^ ^ m.^ / B.m.m.F.F.] / w.^ / ~ ^ ^ ^ ^ ^ ! / } } ~ } } w.~ 3.~ 3.4.5.5.aX5.4.iXm.aXiXm.aXsXaXG.G.aXaX] ] F.G.] } ] L.} { ] w.r.L.nXe.s.w.nXw.nXnXnXt.nXr.w.w.nXnXt.t.t.t.mXt.mXmXt.t.mXmXt.6.6.dX6.t.r.4.w.4.] ] 3.] ] } ] w.] ] w.4./ / 3./ ] ] } ^ } ~ ^ / } ] ~ r._ _ ~ _ _ _ _ ~ E 9.9.E 1.9.9.E _ ~ ~ ~ 3.( / / ( ( ( ( ~ / ~ ! ( ( ! ( ^ ^ ^ ^ F.^ ^ ^ W ^ ^ ^ ^ ^ ^ ^ ^ ^ ! ( ! ^ W ( Q ( - ( - - - - - = = - - = - - - $ # # $ $ # $ . . ",
"lXlXlXlXZ.MXMXR.Z.Z.A.R.Y.Y.Y.T.J.J.J.T.Z.S.M.M.M.M.M.c.v.v.e b.b.b.b.b.B.B.v.B.^ ^ ^ ^ ^ B./ G.} } ] ] ] / / ^ ~ ! } ^ ^ ^ ^ / ] ] } r.w.4.4.3.5.5.3.5.5.4.4.4.5.4.iXaXaXaXaXaXbXG.F.G.G.G.} ] } } } } ] w.w.nXr.s.nXnXnXnXnXnXmXnXmXw.w.w.w.r.t.t.t.t.t.t.t.t.t.mXmXmX6.6.6.t.4.4.w.w.4.4.w.] / ] } } } ] ] w.3.4./ / / / ] / / ^ ! } } } ] ] } } } } _ _ _ _ E _ _ 9.9._ _ 9._ _ ~ _ 3.~ 3.5.3.3.( ( ( E E ~ ~ ! ^ ! ! ^ ^ ^ F.^ F.^ ^ ^ ^ ^ ^ W ^ ^ ^ ^ ! ! ! ! ~ ( ( ( ( ( - - & - - - - - = q r r - - = = $ $ $ $ $ $ . . ",
"lXZ.lXlXZ.MXxXR.T.T.T.T.R.T.Z.Z.N.J.J.J.N.M.b.b.b.M.M.M.B.t b.r r B.B.b.b.b.M.^ ^ F.B.B.B.B./ F.G.} ] G.^ ( ^ } ! } ! ^ ^ ^ ! / / 3.~ w.3./ / ] 3.3.Q 5.5.Q 5.4.m.5.iX4.sXm.aX/ G.G./ m.G.^ ] ] } } ] { nXw.w.nXnXnXnXw.w.t.nXnXmXt.nXw.nXmXr.t.t.e.t.t.t.t.t.mXt.mXmXr.t.6.t.fXt.4.4.4.4.4.~ / } ^ ^ ] ] } r.3.~ ~ ~ ~ / / ! ~ } ^ ] } } } } } } } [ [ _ _ _ _ _ _ E E _ _ _ _ _ E E E E ~ ~ Q ~ / ! E ! ! ! ~ ~ ( ! ! ( ! ^ ^ ! ! ^ W ! ' ^ ! ! W ! ^ ^ ! W W ( W W ( - ( ( ( & - - - - - - - = w - - = # = = $ $ $ $ . $ . . ",
"Z.Z.n.lXgXlXA.A.lXT.MXR.T.Y.Y.Z.Y.Z.N.N.M.M.b.b.n.b.M.M.b.b.r b.n.n.b.B.b.v.b.B.B.B.b.b.n.m.G.] ^ ^ ^ ] ! ^ ! } ! ! ! ! ^ ^ ] / 3.~ ~ 3./ / / 4./ 4.Q 5.- 5.5.iXr B.iXiXm.m./ G.] G.G.F.^ ] G.} } ] L.{ nXnXr.nXnXnXs.r.e.w.nXnXw.mXmXnXt.r.e.t.r.t.t.t.e.t.nXt.t.mXt.t.mX6.dXr.r.r.w.w.~ 3.] } ~ ~ ~ ] ~ } ] 3.~ ~ ~ / } ~ / } } } ^ [ } [ } } _ ! ) ` ` [ [ _ _ _ E _ _ _ _ _ _ ~ 3.E E ( ! ~ ( ! E E ~ E ! ~ ~ ~ ~ ! ( ! W ! W W W W ! ! ! } ^ ! ! ^ ! W ! ! W W W W W ( - W ( - - - ( & - - # = = # # # # # # @ $ $ . $ . . ",
"n.lXZ.lXsXlXA.A.T.MXMX!.R.T.T.Z.N.Z.pXn.N.Z.M.C.S.b.b.M.b.b.b.b.B.b.n.m.v.b.b.r v.b.b.B.B.m.m.^ ^ ! } } ] } ! ! ~ ! ! ~ ! } / ] ! ~ ~ 4.3.m.m.4.Q 4.Q Q Q B.B.r Q 4.B.Q Q ^ ] G.] ] ] F.m./ ] { ] ] } G.G.w.w.nXnXw.r.r.r.r.r.nXmXnXr.nXt.t.t.e.r.e.e.e.t.r.mXnXt.mXt.t.t.t.w.w.w.w.r.3.] w.} ! ~ ] w.3.] ] ~ } ] ~ ] w.! ~ } _ } _ _ _ _ ` ! ! ! ` ) _ _ [ _ ) ) ) ) E _ _ _ _ ~ E ~ E E E ( ~ ( ! ! E R _ ~ _ ~ R ! ! R ! R ! W ' ! W W } ! ^ ! ! ^ ^ ! ( ( ! ( ! W W - - ( W - & - ( - & = - = * - @ # $ # # # @ $ + $ $ . $ ",
"Z.lXlXlXlXzXMXzXlXbXW.T.MXZ.Z.T.sXsXsXsXlXZ.C.C.C.b.b.b.r b.r r b.r r B.b.b.b.b.v.b.B.B.B.m.m.^ W ! ' } ~ ] / ] ! ! ~ ~ ( / ~ ! ! ! ( / / 4./ 4.5.5.5.B.B.B.r r iXQ m.m.B.B.B.] / ^ ] ] F.] ] ] ] } ] G.] G.L.nXr.w.w.r.w.w.nXw.r.nXnXmXnXt.t.t.e.e.e.r.r.t.t.t.mXnXnXt.r.t.r.r.r.w.r.r.] ] } } } ] w.w.w.] } } } } } } } [ [ [ _ _ [ [ ! } ! ! ) ` ' ` ` _ ) ) ! ) _ ) _ _ ! } _ _ E E E E ( ( ( E E ! _ ! E E E R ! ! ! W ) ' ` ) ' W ! ! W ! ! ! ! ! ! ! R ! ! ( W ( ( - = = - % % % - & & = = = = @ @ + $ + + # + $ . $ # $ ",
"Z.Z.Z.MXxXxXzXbXMXMXT.T.T.J.N.T.Z.C.sXsXgXN.C.A.C.b.r b.r B.r r n.r b.b.r n.r b.r B.r n.B./ F.B.^ ^ ^ ^ ^ / ] ^ ] ! ^ ( / ~ ! ~ ! ! ! 4./ / Q Q Q ( iXg Q B.r Q - B.Q Q Q B.( ] } ] ^ ^ ^ } ] ] } } ] G.G.aXw.aXnXr.w.r.r.t.r.t.r.r.r.nXt.t.e.t.r.r.e.r.e.e.t.t.t.t.e.r.r.r.r.r.r.r.r.r.} } } } } } } } } } } } } } } [ } } [ [ _ _ _ [ _ [ _ ) ! [ ` ) ) ) ) _ ) ) ) R ) ) _ _ R ! E E E ( ( E ! E ! ! R ! _ _ R ) R R ! ) ! ^ ` R W W ) ! W ) ! ! ! ! ! ( ( ( ! ! ! ( ! ( - = - % & & - & = % - % * = + + + # + # + $ @ $ $ $ ",
"bXZ.lXxXMXMXlXbXbXMXT.J.Z.N.J.T.lXlXgXlXn.gXlXlXC.C.n.n.n.B.b.r b.n.b.r r r b.b.b.r b.B.b.^ B.m.M.B.B.B.^ ^ } } ] / / / ^ ^ / / ^ ^ ~ / ~ ! ^ Q - Q Q B.B.B.r 3 - - Q Q Q m./ ] ^ ^ / / ^ } } ] ] w.w.nXw.] nXaXt.r.3.r.e.t.e.e.e.r.t.t.t.t.t.mXt.t.r.e.e.s.e.e.s.t.t.r.r.w.r.w.r.r.} w.} [ } } } } } _ _ [ [ } } } } } } } [ [ _ _ _ _ ) ` ) ) ) _ ) ) ) ) ` ) ) ) ) R R ) _ ) ) R E E E ( E E ( R E ! _ } _ _ _ ! ) R W ) W ^ ! ` W ' ' W ) R R ! W ! W ( W ( ! ! R ! W ( - - & & - - - - % = % - = = # + + + + @ @ @ @ $ $ $ ",
"lXlXMXMXMXMXMXMXMXI.T.N.J.J.N.J.Z.C.lXgXgXgXhXgXgXn.n.n.B.B.n.B.r r b.b.r r b.b.b.r r r B.^ B.B.^ B.B.^ ^ / / } ] ~ / ] ^ ^ ^ / ^ / ^ ~ Q ^ Q Q B.- r Q B.Q Q r Q - / Q ^ ^ / / } ^ ^ ^ ] ~ } 3.~ r.w.aX4.w.4.aXw.r.w.e.r.e.t.e.t.r.e.s.s.t.nXLXmXmXt.e.s.e.s.s.s.t.r.r.w.nXw.r.w.w.w.] w.{ [ [ _ } [ #.+._ } } } [ [ } } [ [ _ _ _ _ _ _ ) ) ) ) ) ) P ) ) ) _ ) ) ) R ) R ) ` W W R R ! ! R W W W R R W ! ) ) ) R ) ) ) ) ! ^ W R ) W W R R W R R ! ! W ( ( ( ( ! ! W - & & % % % % % % = - = @ $ # # $ $ $ + . $ @ $ $ $ $ $ ",
"xXMXMXMXMXMXMXMXMXbXJ.J.J.J.J.Z.Z.n.gXgXhXhXz hXhXpXn.n.B.m.B.B.B.n.n.r n.r r b.r b.B.b.B.B.m.B.B.B.B.m.4./ / / / / / ^ ! ^ ^ ^ ~ / ^ ~ ( Q Q Q Q Q - Q Q Q Q B.Q / / Q ^ ^ ^ } F.{ } ^ ^ } ~ ~ ] w.w.w.4.4.aX4.4.r.t.e.e.e.8.t.e.e.e.t.s.s.t.r.mXmXe.t.e.e.e.s.e.s.r.e.r.w.w.w.nXnXw.w.L.{ [ [ [ [ [ %._ [ } } { [ [ } [ [ _ [ [ _ ) _ _ ) P ) R K P ) ) ) ) ) R R ) ) ) R ) ) ) R R R R W W ! R ! ! R R ) ) ) ) ) ) ) ) ` ' ` ` R ! ! ' ! ! W R R R W ! ! ( ( ! W % W & & & & % % % - = = = - $ $ $ # # # # $ $ $ $ $ $ $ @ $ ",
"zXzXzXlXMXMXMXbXMXMXMXbXbXT.Z.Z.gXhXlXgXhXl hXgXhXpXpXn.n.iXiXB.r r r g r j n.b.b.B.r r b.B.b.B.B.m.B.b.m.B.^ / Q Q Q Q ^ ^ ^ ] ^ ~ Q ! / Q Q B.( ( Q ( ( Q - / Q B.Q Q ^ ^ ^ ^ ^ ! ^ ^ ^ ^ } ] } ] ] 4.4.4.w.w.r.5.r.e.r.e.t.s.e.t.e.t.t.e.s.e.s.e.e.t.e.s.e.e.s.e.r.e.w.r.] w.w.L.G.{ { K.#.+.+.[ [ [ [ } [ +.} [ [ [ [ [ _ _ ` ) _ ` ) _ ) ) ) ) ) P ) ) R R ) ) ) ) ) R ) ) ) R R R ! W ! R R R R R ) R ) R ) ) ) ) ) ) ) ) ) ) ` ) ! W W W W R W R R ! R ( ( W R W & & % % & & % ( % % & - - @ # = $ $ $ . . . + $ $ $ $ $ ",
"gXzXxXxXMXMXlXMXMXMXbXbXbXJ.Z.Z.pXhXxXxXgXgXhXhXsXpXn.g B.pXn.n.r r g g r r r r g r r r r b.n.B.B.B.B.b.B.B./ / ^ / ~ / ^ / / ^ / / / / / / / B.Q ~ ( ( - Q Q B.- B.^ ( ~ } ^ ^ ! ^ ! ! } } ~ ~ ] ] / 4.aX4.4.w.r.r.t.r.r.e.r.e.e.t.e.t.e.t.e.e.r.e.e.r.e.s.e.e.e.s.s.e.r.r.w.] } { ] { @.{ #.+.@.#.{ { [ [ [ @.[ [ +.` X.[ +.+.` ) _ ` ` ) ) P ) P K P P _ _ ) ) ) ) ) ) ) ) ) ) R R R R R R W W R R R R R P ) ) ) ) ) ) ) ) ) ) ` ) ) R ) R W W R R ) R R W ( & R E R R % % % % & E & & & & - - # @ $ $ + + $ + + . $ $ $ $ $ ",
"lXzXbXlXMXbXzXNXNXzXbXnXbXbXZ.Z.lXkXhXzXgXhXlXcXzXdXpXn.n.iXn.pXr r g r j r r r u g r r r r n.r B.B.B.B.B.( ^ ^ m.m.Q ( ~ ( / / / Q ^ ~ / B.^ B.^ ^ ~ ( ( / ( B.B.Q Q / ^ ^ ^ ^ } } } ! ~ ] 4.3.] / ] 3.w.4.w.r.r.r.6.e.t.6.e.e.a.e.t.t.t.t.e.e.r.t.e.w.nXs.s.s.s.w.s.s.s.s.w.} r.#.#.K.{ { #.+.#.@.#.o.#.+.+.#.+.[ [ ) X.X.X.) X.X.` +.) ) ) P P P K K ) _ ) ) ) ) ) ) ) ) ) ) ) R R R R ) R R R R R R ) ) ) ) P ) ) ) T ) ) ) &.) ) ) ) W W W ) R ) ) R R R ( & & R R % % % % & & & & & @ % & & - @ $ @ + $ # . + + @ $ $ $ $ ",
"lXzXMXMXMXMXnXNXbXmXbXnXnXbXbXlXlXzXzXzXgXlXhXhXdXdXpXpXgXpXpXn.iXr iXj j j g r r r r r r r b.n.r r r r - Q Q Q ( / ( / / / Q / ~ / Q / ^ B.( Q ^ ^ ! ~ ~ / / Q Q ^ ^ B.^ ^ ^ } } ] } } ] 3.w.3.] ~ ~ ] r.r.r.r.w.r.r.t.r.r.e.e.8.e.e.t.t.e.e.t.t.t.r.r.LXLXs.s.s.s.s.s.s.s.s.s.r.#.{ @.{ +.@.#.#.O.+.#.O.@.#.+.+.+.X.) ) X.X.X.X.X.X.X._ ) ) P P ) P ) ) ) ) ) ) P P ) K P ) ) ) R R R T T R R R R R R P P ) ) P P X.) ) &.) ) ) ) ) ) ) ) W W W R ) R R R R R R R R % ; & & % % & & & & & & & & @ @ @ @ @ $ + . + + $ . $ $ . ",
"zXxXMXMXzXNXMXNXNXbXbXnXnXbXdXlXbXMXbXMXzXdXzXhXhXfXpXj pXr pXiXg r g j j f j r r r r r r n.r g j r r r Q B.- 5./ / Q Q 3.] / } / ~ w.~ ^ ^ B.^ ^ ^ ! ! ( / ! ( / m.B.^ ^ ^ ^ ! } } ] ~ ~ w.~ 3.3.3.3.w.w.w.w.r.r.r.t.r.e.r.8.8.e.e.8.8.t.e.e.r.t.t.r.s.r.nXr.s.s.w.s.#.s.r.e.r.s.#.{ @.+.{ %.%.+.%.#.O.O.O.O.+.X.X.X.X.X.X.X.X.X.X.X.X.X.) P P P ) ) ) ) R ) ) ) P ) ) P &.P ) R ) K R K &.T R R R K ) &.P P P ) P ) ) ) &.) ) ) ) T ) R ) ) R W R R R R R R R R % % & % & & % & & & & & & @ @ @ @ @ & @ @ @ + $ $ @ $ $ $ . . ",
"zXzXdXzXzXzXNXNXNXzXnXnXbXbXbXdXbXnXmXzXzXzXzXvXzXdXhXdXpXiXpXr gXl h g g f j r g g g r r r g j r n.B.g B.Q Q iX4.m.aXQ / / ] ~ / / / ] ] ^ ^ ( ! ! ! ! ! ^ ( ( Q Q ^ ( ( / / ^ ] } ~ ~ ~ 3.3.3.3.~ w.w.w.r.r.r.r.e.r.r.e.8.8.e.t.t.8.8.t.e.e.e.t.t.r.s.s.LXs.s.r.e.s.#.s.r.#.s.[ #.+.[ [ +.+.+.%.+.#.#.O.O.O.O.O.X.X.X.X.X.X.X.X.X.X.| | P P P P ) ) ) P ) ) P P ) ) ) R &.P P K K K K K K R R ) ) &.&.P P P P ) ) ) ) &.&.) ) T ) R T T ) T W W W R ) ) R R R R R R % & ; % @ & & & & & & @ @ @ & @ @ @ @ @ @ @ $ $ $ @ $ $ . ",
"zXzXzXfXzXfXNXNXzXnXbXnXdXaXbXzXfXbXMXzXbXzXvXzXhXdXfXh iXiXg j g h l h g g h j g h g r r r r g n.pXr r r B.B.n.m.n.m.Q / ^ ~ ^ ^ aXm./ ] ^ ^ ^ ! ^ ^ ! / / ! ( ( / ( ( ~ 4.! ] / / ~ ~ ~ ~ ~ ~ 3.} r.r.3.w.r.r.r.8.r.w.r.8.8.e.t.t.e.e.d.s.s.s.s.r.s.s.s.s.s.s.s.r.s.s.#.e.e.s.s.#.@.+.%.+.+.+.O.+.O.O.O.$.O.O.O.X.X.X.X.X.X.X.X.X.X.| | | | P P P P P ) P ) P ) ) ) ) &.) P P K K K K K K ) R &.P &.&.&.P P P P ) P ) ) ) ) T ) ) T T R ) R R R R ! R R E R R R % % % & E ; % ; % & & & & @ @ & @ @ & @ @ @ @ + $ $ $ $ $ . . ",
"zXzXNXfXfXfXfXmXfXmXzXzXzXfXzXmXbXmXNXNXzXNXMXzXzXzXdXdXdXiXh pXdXhXh h l h h h g h g g h g r r r g g j iXn.n.n.- iXQ m.B./ / / ^ / / m.^ ^ ! ^ } ! ! } ^ ^ ! ^ ( ^ / Q ~ / ~ / / / 4.Q ( Q 3.3.~ ] w.w.r.w.r.r.r.8.r.r.r.r.e.e.t.t.t.e.e.e.r.e.s.s.s.s.s.s.s.s.s.s.e.s.s.e.s.s.s.#.%.#.+.+.+.#.O.O.O.O.$.X.O.O.X.X.X.X.X.X.X.X.| | | | | | P | P P P P &.&.P P P P &.P P P P K P P K P R ) ) ) ) &.P P P P P P P P ) ) ) ) ) T ) T T T R R R R R R R R R R R R % % & R % & % ; % & ; & % % % @ & @ & & & @ @ @ @ $ $ $ . . . $ ",
"zXfXfXfXmXmXmXmXmXmXmXfXfXfXbXbXnXNXNXnXbXbXzXNXdXdXdXdXdXiXhXg pXdXj dXpXdXg f g h h g g g g r r r j iX4.iXQ Q 4./ B.Q Q m.^ ^ m.] ^ Q ^ ^ } ! ! ! ! ! } ~ ~ ( ( ~ / ! } w.4.w.~ / / ( 3.~ 3.1.~ 3.~ } } w.] e.r.e.e.e.r.r.8.8.e.8.t.t.t.e.r.r.r.r.e.s.s.s.s.s.s.w.s.s.s.s.s.#.%.%.#.#.#.%.+.O.O.+.O.O.O.O.X.O.X.X.X.X.X.X.X.X.| X.| | | P | | | P P P &.) P P ) P &.P P ) P K K K K K ) &.T P &.&.P &.P P ) P ) P ) K T T T T T T R T R R R R R R R R R R R K R R ; L & % ; ; % & @ % % @ @ @ % @ @ @ @ @ & @ + @ $ $ @ . . . ",
"dXfXfXfXmXmXmXmXmXmXmXzXfXfXdXdXzXNXnXbXbXbXzXzXzXdXdXdXdXdXpXiXg iXpXiXiXiXiXh g g g g g g r j r r B.m.B.Q / / 4.4.^ B.^ / ^ / ^ F.^ ~ ! ! ^ } } ! ! ! ! ~ ] ( ~ ~ ~ ! ~ ~ } w.~ ~ ~ 3.3.~ E 1.~ ~ 3.3.3.w.r.r.r.r.} r.r.e.s.a.a.8.e.t.e.r.r.r.} r.s.s.s.s.s.LXs.r.#.#.#.s.s.%.%.s.+.%.+.%.o.o.O.#.+.O.X.X.X.O.O.X.X.X.X.X.X.| | | X.X.| P | | | | P P P P ) P ) P &.P P ) ) K K K K K &.&.Y T &.&.&.&.P R ) ) ) ) ) &.T T T T T ) Y R R R R R R R R R R R K K K E & K % % ; ; ; @ & % % & % * % % @ @ & & & @ @ + @ $ $ . . . ",
"mXt.mXmXmXmXmXmXmXmXfXdXdXfXfXzXfXzXbXbXsXzXzXzXdXmXfXfXaXdXpXn.iXiXiXj iXpXiXdXh pXpXg pXn.g r r r B.n.B.B.m./ 4./ / ^ ^ ! ^ } ^ ^ ] ~ ! ! ! ^ ! ! } ! _ 3.~ 3.~ ~ ~ ~ ~ } ~ 3.3.3.3.3.3.~ 3.1.1.3.~ r.3.3.3.r.] r.} r.r.e.e.8.a.8.8.e.8.9.r.w.r.9.r.s.s.s.s.r.] r.e.e.#.s.a.%.s.s.%.%.%.+.+.+.+.+.+.X.X.O.O.O.O.X.X.X.X.X.| | | | | X.P | P P &.&.&.) P P P P P K P K ) P K K K K K K K K R &.T K &.&.R R R R R T &.T T T T T ) R T R R R R R R Y R K R R R K K K K E % ; @ @ & @ + % % & & + + @ & @ @ @ @ @ @ + + + $ . . . ",
"t.t.mXmXt.mXmXmXmXmXmXmXfXfXdXdXdXdXsXzXlXzXsXsXdXfXaXdXdXaXm.pXiXj g dXiXdXaXdXdXdXdXdXg g r r n.B.4.aXQ m.m./ / ~ ! } ! ! ! ^ ^ ^ ^ } ^ ! ^ ^ ^ ! ~ ~ ~ ~ 1.3.3.~ ~ ~ ~ 3.3.3.3.3.3.~ 3.3.1.3.1.3.3.3._ 9.9.r.9.w.w.r.#.s.a.a.9.e.e.r.9.9.9.r.r.r.s.s.s.s.s.w.] w.{ s.%.a.%.a.a.s.s.%.%.+.+.+.+.O.O.%.X.O.O.` O.X.X.X.X.X.X.| | | | | | P | P &.&.) ) ) P P P R R K ) ) P K K K K K K K K R T R ) ) ) R R R R ) T T T T T T T T T Y Y Y Y Y R Y R R R K R K K K K K E & % % % @ @ @ @ % & + % + @ @ @ @ @ + @ + + + + @ . . . ",
"mX6.t.mXmXmXt.mXmXt.mXfXfXdXdXdXdXdXaXdXdXzXdXdXdXdXdXdXdXaXpXB.j iXiXaX5.iXaXdXdXdXdXiXn.j r r iXj B.4.4./ iX/ 5.Q ! } ! / ~ / ! ^ } } ~ ! ! ! ! ! ! E _ 1.1.3.3.~ ~ ~ 3.3.3.4.3.3.Q 4.~ 3.1.~ 3.3.4.3.3.9.3.r.r.3.r.r.e.r.a.d.s.r.e.r.r.r.r.} r.8.e.w.r.w.r.w.r.r.#.#.s.a.%.%.%.%.s.%.#.+.#.#.+.X.X.+.O.O.O.` X.X.X.X.X.X.X.| | | | P P P P &.&.&.) ) K ) P ) P K ) K P P K P K K K K K K ) ) T T R R R R R R R R Y T Y T Y T T Y Y Y Y Y R R R R R K R K R & E R K R R % % % @ @ + @ % @ * * + @ + @ + + + + + + + + + . . . ",
"mXmXmXmXt.mXmXt.t.t.fXfXiXdXfXfXdXdXdXdXdXzXdXdXdXdXdXdXdXiXj j pXiXiX5.5.5.5.dXaXaXiXiXB.r iXj iX5.iXaX5.4./ 4.4.~ ~ ~ ~ ~ ( / ^ ^ } ~ / ! ! ^ ! ~ _ ~ 3.1.1.3.1.3.3.~ 3.3.3.3.3.3.4.3.3.3.1.1.3.3.3.r.3.3.r.r.3.r.w.r.r.r.8.e.8.r.r.r.r.w.w.r.r.e.r.w.r.r.r.r.e.r.s.s.s.s.a.a.a.%.#.#.#.@.#.#.O.O.+.+.O.O.X.` ` +.[ X.X.X.| | | | | P P P P P P ) ) ) K ) R ) ) ) K R P K U U K K P K P K R ) R R R R R Y R R Y R T T T Y T Y T T Y Y Y Y Y R Y R R R K K R & ; E K E & % % % % % % = * # + + + @ + @ + + + @ + + @ + . . . . ",
"mXmXmXmXmXmXmXt.mXmXmXfXfXdXfXdXdXdXdXdXfXzXnXfXpXdXpXdXsXaXiXQ B.iXaX4.iX5.dXaXaXiXiXiXpXj g iXiX5.5.4.5.4.3.5.~ 3.~ ~ 3.~ ( ! ! ! ~ ~ } ! / ~ ~ E E 1._ 1.3.1.1.1.3.3.3.3.3.5.3.5.3.3.3.3.1.3.~ 3.3.4.w.w.r.r.r.r.r.r.r.e.r.8.e.e.r.r.w.w.] r.w.r.r.} w.r.r.e.s.r.e.#.a.s.a.a.s.s.%.#.#.@.@.#.+.O.+.{ O.O.` ` [ ` X.X.X.X.| | | I P ) ) ) P P &.) P &.P R R K K R K K K P P U K K K K K K ) R R R Y R R R Y R W Y T T Y Y T Y T T Y Y Y Y R R % Y R R K K % R K % % & & % % % % % % = = # % + + @ @ @ @ + + + @ . . + + . + . ",
"mXmXmXmXmXmXmXt.6.6.6.fXfX6.fXfXmXmXdXfXfXfXzXdXpXsXpXpXpXaXm.iX4.4.3.4.dXaXdXaXaXaXaXiXiXj iXiXiX5.aX5.5.4.3.r.3.3.3.3.3.~ ~ ! ! ~ ! ~ ] } ~ } ~ _ _ 9.9.1.1.1.9.7.9.3.3.5.6.6.5.3.1.3.3.3.3.3.3.3.r.r.4.w.w.w.] w.r.r.r.e.r.e.r.r.r.r.] w.r.r.e.r.r.w.r.r.r.r.r.e.s.s.a.s.s.a.%.s.s.#.#.#.#.#.#.O.+.+.[ O.` ` ` _ X.X.X.X.X.| | P P ) P P P ) ) ) R P K ) K ) K R ) R K K K K K K K K K K R R R R R R R R Y T Y T Y T Y Y Y Y Y T Y Y Y Y O O % R K R R R R R % % & & & % % % % = = = = % + + + + @ @ @ @ @ @ @ @ . @ + # . . ",
"mXmXmXmXmXmXmXmXmXt.t.fXfX6.6.mXmXnXfXfXfXfXdXgXsXpXdXpXpXaX4.aXaX4.4.w.4.iXaXdXdXaXiXaX5.iXiXiXaXiX5.4.3.4.4.3.3.3.3.3.5.~ ! ] ^ ! ~ E } } ~ _ 9.9.9.9.9.1.9.7.1.9.1.r.3.1.2.3.6.5.3.5.3.3.3.r.3.3.3.3.r.r.r.r.r.r.r.r.e.r.e.t.e.e.r.r.r.r.r.r.w.r.r.r.r.e.r.8.s.r.s.s.s.s.s.a.%.%.s.s.#.@.#.#.+.+.%.[ +._ ) ` ) ) X.X.X.X.| | | | P P P ) P P P K K K P E ) R ) K R ) R K K K K K K K R R R R Y R R W R R R Y Y Y R Y T T Y Y Y Y Y Y Y O O O Y O % R R R R R R % % % % % % * * * = = * * % + + * + + @ @ + + + @ + @ + + # . ",
"mXmXmXmXt.mXt.t.t.mXmXmX6.t.mXmXdXmXdXfXhXdXdXsXdXgXdXpXaXaXaXaXiXaX4.4.4.4.w.nXnXnXaX4.4.4.4.aXaX5.iXw.4.3.3.3.~ ~ ~ 3.Q Q ~ ] ] } ~ ~ E ~ _ _ _ 9.9.9.9.7.1.1.1.7.7.7.7.2.7.6.6.6.6.5.3.3.5.r.3.3.3.3.8.8.r.r.t.r.r.r.8.8.e.t.e.e.r.r.r.e.r.r.r.r.{ r.e.e.e.e.r.r.s.a.a.s.s.s.a.%.%.%.s.#.#.#.#.+.#.[ [ %.X.) ) X.X.X.X.| | | ) P I P ) P P P P P K K P ) ) R R K ) ) ) K K K K K K K R R R R R R W R R Y Y Y R R Y Y Y T Y o Y Y Y W Y % % O O Y R R R R R R % R R % % % * * * * * = * % % % % % % + + + + + + + + $ + + # . ",
"t.t.mXmXt.t.t.t.t.t.t.t.t.r.t.mXt.t.fXfXzXzXsXlXsXdXsXdXaXaXiXaXiXiXaXaXaX4.aXw.nX4.4.5.5.6.4.4.aX4.5.4.4.3.3.~ ~ ~ 3.~ ~ ! / ~ ~ ~ _ E _ _ _ _ 9.9.9.9.7.1.7.1.7.2.q.2.q.7.8.2.q.2.1.3.1.3.3.r.r.3.r.r.e.t.r.r.6.r.t.t.8.8.e.e.e.8.r.r.r.e.r.r.r.r.r.e.e.s.e.e.e.e.s.a.s.e.s.e.#.s.%.s.%.} s.#.#.+._ _ _ +.` ) ) ) ) X.X.P X.P _ P I P I P P P K P P K ) K R ) K R ) ) K ) K K K L K R R R R R R R R T Y Y R Y Y R Y Y Y Y O O o Y W W W % % % O O R R % R % % % R % % % % * * * * # * * % % % % % * * + + + @ + + + + + + . . ",
"mXmXmXt.t.t.t.t.r.t.t.t.t.t.t.t.t.mXmXfXfXmXzXzXsXdXbXnXw.5.iX5.6.dXdXaXG.aXaXnXw.r.r.t.6.4.4.4.4.4.4.4.3.3.~ 3.3.3.3.~ ~ ~ } } ~ ~ _ E 9.9.9._ E 9.9.7.8.7.7.1.2.1.7.q.2.q.2.6.1.1.1.3.3.3.3.3.r.r.3.r.t.r.r.r.t.6.q.t.q.8.e.e.s.e.a.e.s.e.e.e.s.s.e.r.r.s.e.e.d.s.s.s.s.s.s.s.s.s.%.%.%.%.#.s.} _ 9.%._ _ _ ) ) ) ) X.X.) X.P P P I P P P P I P P P ) P P ) ) K K ) R K K K K K L L L K R R R R R R R R Y Y R R Y Y W O O O O o W W W W % % % % % % Y % W R R R % % % % % % * * # # * * * % % % % * % + + + + + + + + $ . . . ",
"t.t.t.i.t.t.t.t.t.e.r.t.t.e.t.t.t.mXfXfXmXnXdXgXdXnXdXnXaXaX5.fX5.aX5.nXaXaXnXaX4.w.3.r.5.5.4.3.5.3.w.5.r.3.3.3.3.3.3.3.~ ~ ! ! ~ ~ E E E 3._ 3.1.7.9.9.9.1.7.1.1.1.2.2.6.q.q.q.q.9.1.1.1.1.1.3.3.r.r.r.r.6.t.6.2.6.t.6.8.8.t.e.e.s.e.8.r.e.e.r.e.e.r.r.r.e.d.s.s.e.s.d.s.s.e.d.s.%.e.[ a.#.r.s.8.8.a.9._ _ ) ) ) P P X.) I P P P I U P P P P I P P I I P P ) ) ) K ) E K L K R L L K K R R R R R R ) R R R Y R % Y % % Y % O Y % W W Y W R % % % % Y O R % % % % R % * * % * O X # # % * % % % % % % * + + + @ @ + + + + . . . ",
"t.t.i.i.t.t.t.e.t.t.t.t.t.t.6.6.6.mXdXdXbXmXsXsXzXnXnXnXbXaXdX6.6.4.6.nXdXdXdXw.w.w.4.5.6.r.3.3.3.6.6.5.5.r.3.3.3.3.3.~ 3.~ ~ ~ ~ ~ _ E 1.9.1.1.1.7.7.7.1.9.7.7.7.7.7.q.8.q.q.q.7.7.9.1.1.1.7.6.6.1.r.r.1.3.6.6.8.e.t.1.q.8.t.e.d.s.r.r.r.e.e.t.e.e.r.r.r.t.t.s.e.e.e.8.e.a.a.a.8.a.%.9.%.} s.s.s.a.%.%._ _ _ ) _ _ P P P ) ) P P P P P P P P I K I L I K K ) R L E R K E L ; K E E E E E R R R R R R R R R R R R % R R R R O O O W Y Y Y W % % % % O O R R % % % = % * * o O o * * * * * % % % % % * * % + + + @ + + + + . . . ",
"t.t.t.t.t.t.e.t.t.r.r.r.e.t.6.t.mXmXfXdXmXmXbXsXdXnXnXbXdXnXaX6.aXdX6.t.dXmXaXw.w.w.3.5.3.r.r.1.q.r.3.6.1.1.1.3.1.~ ~ _ ~ 3.~ ~ 3.} 1.1.1.9.1.9.1.9.7.9.7.7.9.7.2.q.q.q.q.q.0.0.0.7.q.1.1.5.6.6.6.6.6.6.8.3.q.6.6.6.q.t.e.t.e.8.s.e.e.8.e.e.r.t.t.t.e.t.e.e.t.s.e.d.e.d.d.d.s.s.a.8.s.a.a.s.%.s.a.a.%._ _ _ _ ) ) P P P P I P P P I I P P P U I P K I I U K I E K L L K E L E E R L K R R R R R R R R R E R R W R % R R R Y % O O Y Y R O W R % % O O Y Y R * * * = = * o * * * * = = * * * * & % % % % + + + + + + + # + + # . ",
"t.i.q.t.t.t.t.t.t.t.r.t.t.t.6.t.mXmXmXmXmXnXnXnXmXmXmXmXnXnXnXnXnXnXnXt.6.nXnXw.w.w.r.3.8.7.6.q.r.6.6.6.2.q.1.1.3.3.3.3.~ 3.~ ~ ~ 3.1.1.1.1.1.1.9._ 7.9.9.7.q.q.0.q.q.0.0.q.q.0.q.q.q.7.7.6.6.6.6.6.6.6.r.e.t.t.t.6.6.t.e.e.e.e.s.e.s.e.e.s.e.t.t.t.t.t.t.e.s.e.e.d.d.d.q.s.s.d.e.s.8.8.e.e.a.a.a.a.a.9.I I I I ) P I I I I P P P I U P I P I I I I I L U K K E K K L K E E L E K K K E E R R R R R R R R R R R & % % R R R Y O Y O O Y Y R W W O % O Y O O O * o o * o o = * * = = * * * = & & % % % % + + + + + + + $ @ + . . ",
"t.t.t.t.6.6.t.t.t.t.t.t.t.t.6.t.t.mXnXr.mXt.nXmXmXmXmXmXmXbXnXmXmXaXnXr.aXnX4.aXw.r.e.t.8.q.2.q.6.6.2.6.6.6.1.1.3.1.3.E 3.3.~ 3.3.1.1.1.1.1.1.E 9.9.9.9.9.q.0.0.0.q.0.8.0.7.7.7.q.7.q.2.q.6.2.2.2.t.6.6.t.6.q.q.6.6.q.e.e.e.e.e.s.s.s.8.d.d.t.t.t.e.t.t.e.s.8.s.t.a.d.d.d.s.s.s.s.8.8.8.8.8.a.8.a.a.a.9._ I I _ I I I I I I I P I I P I I P I I I I L I L E L L L L L E L K K L L E L E K R R R R R R E ( E R & % % % R % * O * * Y O % Y O * Y O * Y O W = * o * = * = o * * O = % = % % % % % % % % % + + + + + + + # # . # . ",
"6.t.t.6.6.6.6.6.6.6.6.t.6.t.6.6.6.t.t.r.t.t.mXmXdXmXt.t.nXnXnXmXfXnXaX4.t.w.w.t.r.r.8.8.t.q.q.6.6.2.2.6.6.1.1.1.7.1.3.3.3.3.1.3.~ E 1.1.7.1.9.1.9.9.9.9.7.7.7.0.0.0.0.q.q.q.-.7.*.7.2.q.2.2.2.2.q.t.6.6.6.r.1.8.6.6.t.8.r.e.8.8.e.e.d.d.d.d.t.t.d.e.s.s.e.d.d.t.t.e.d.d.d.a.d.s.s.8.9.9.9.8.r.8.9.9.a.%.%._ I I I I I I I I I I P I I P P I I L L L L L E E L E L L L E L R K L L L E E E R R R R R R E R R R & % % R W % % % R O O % * % O % * % O O O = = * * * * = o o * = * O * * * % % % % % * * % + + @ + + + + + + . . . ",
"6.6.6.6.6.6.6.6.t.6.6.t.6.q.t.t.6.t.t.t.r.6.dXmXfXmXt.r.mXnXmXfXmXnXdX4.4.mXt.r.r.8.t.8.q.t.t.6.6.2.q.6.2.2.6.7.1.1.1.1.3.1.~ 3.3.1.9.1.1.7.1.9.1.1.9.9.7.7.7.8.0.0.0.8.q.7.0.7.7.q.7.q.2.2.2.q.q.7.2.q.6.t.e.r.8.t.q.q.r.e.e.8.q.s.8.d.d.e.d.e.e.e.e.s.d.s.e.t.e.s.d.d.d.d.e.e.e.8.8.9.8.8.9.8.9.8.9.I I _ I I I I I I U P U I I I I I I I L L L K E L E E E E E E L R E E E L E I E E E R R E E E E E ( R R R R % % % = % * O % O Y * o * O % = = O * o * * # * e * o * % * O % O % * % % % % = * % % % + + # + . . . . # . . ",
"6.6.6.6.6.6.6.6.t.6.2.6.2.q.q.t.6.6.6.6.6.6.6.fX6.mXr.t.t.dXfXmXmXdXdXfXmXt.r.t.t.t.q.q.t.6.t.6.q.2.2.2.2.2.1.1.1.1.3.1.9.1.~ 3.3.3.9.1.7.7.1.7.1.7.9.8.8.8.q.q.q.0.8.0.0.0.2.7.7.7.2.2.q.2.2.q.q.8.0.q.8.t.6.r.r.e.t.t.r.e.e.e.e.e.8.d.d.8.e.e.8.e.e.e.8.8.e.t.t.d.8.d.d.s.e.e.e.e.a.8.8.9.8.9.9.9.a._ I I I I I I I I I I I U U U U U U U I L L E E E E E E L E E K E E E E E _ E E E E E R E R E E R R R R R R R % = O * % % % % O % % o * o = = O * * = = = # = = o o = % % % % % % % % % % % % * * * + * + # + + # $ . . . ",
"6.i.6.6.6.6.6.6.6.6.6.6.2.6.q.t.q.6.6.5.6.t.mXfX6.mX6.t.mX6.mXmXfXt.mX6.6.t.6.t.q.q.t.q.q.t.2.q.2.6.2.2.2.2.6.q.1.1.1.7.1.1.3.3.1.1.1.7.1.7.7.7.7.9.0.7.q.7.7.q.7.0.0.7.7.-.7.2.7.;.2.q.2.q.6.2.q.q.q.q.t.t.6.r.9.7.6.2.8.8.8.7.8.e.d.0.8.a.8.e.e.e.r.e.e.a.d.t.e.e.d.d.d.8.e.8.e.8.8.8.0.8.7.9.8.9._ _ -.I I I I I U I I I U U U U U U U U U L L E E E L E E L E E E E E E E _ E E E E E R E E E E R E R R R R % R O % = O % % % O * O O * o * * * = * o o # # # # = O o * O = % % % * % % % % % O O + + + * # + + + # + # . . ",
"6.i.6.6.6.2.2.6.6.6.6.2.6.6.2.q.6.6.t.6.6.t.t.6.6.6.6.t.6.6.6.mXt.mX6.6.6.t.6.t.q.q.q.q.q.q.q.2.2.6.6.6.6.6.2.q.1.1.1.6.3.1.1.1.1.7.7.1.7.7.7.7.7.0.7.7.q.q.q.0.0.q.8.8.q.7.7.=.=.2.2.2.2.q.2.q.2.2.q.q.q.q.2.7.q.q.8.8.8.7.7.7.9.8.8.8.d.a.8.8.8.e.e.e.e.e.t.t.t.e.t.d.d.8.q.t.8.8.8.d.a.8.0.7.-.-.I _ 9.I I I -.I I I I I I U I I U U U L L L E E E E L E E L E E E E E E L E E _ ~ E E E E E E R R R R R R R R W % % W W W = % Y O O O % = = * o o o o o # # # * * o o * = * * % O * + % % % % % O * + + # + + + # # # + + + ",
"2.2.2.2.2.2.i.6.6.6.6.6.6.2.6.q.2.6.6.6.t.6.6.6.6.6.6.6.6.6.fXfXmX6.6.6.6.6.t.6.t.6.t.2.q.q.q.6.q.2.2.2.2.2.6.6.7.2.1.1.2.1.1.1.1.7.1.1.7.7.7.7.q.0.7.0.0.0.0.0.q.0.0.9.7.;.7.2.2.2.2.2.2.q.q.2.q.2.6.8.2.q.q.9.7.7.9.7.0.q.q.q.q.0.0.d.8.a.8.8.8.8.d.e.e.e.e.d.t.d.0.d.0.8.8.e.8.8.8.a.0.0.0.7.9.-.-.-.-.I I I I I I I I I U I U I U L L L L L L E L E & E E L _ E R E _ E L E E E E E E E E E E E R R R R W W W W * % W % % W O O Y O O O * * o o o o * o = = * * * o * O % * % O % * O % % % O O % + % * + % # + # + + + # # ",
"2.y.y.y.2.i.2.6.6.6.6.6.6.6.6.6.2.2.6.t.6.6.1.6.6.6.6.6.5.5.6.fXfX6.6.6.6.6.t.t.6.6.6.6.2.q.u.q.q.q.2.2.2.6.2.2.q.2.2.2.7.1.6.1.7.7.1.7.1.7.7.q.0.0.0.0.0.;.0.0.q.0.0.0.0.7.2.2.2.2.2.2.q.q.q.q.2.6.2.q.7.q.8.q.0.7.8.8.q.q.q.q.0.0.0.0.d.d.a.8.8.d.t.e.e.d.d.d.d.d.0.0.8.t.e.e.8.8.8.0.0.0.7.9.7.-.-.-.I I I I I I I I I I I I U U L L L L L L E & E E L E E E _ E E E _ _ _ _ E E E E E E E E E E E E W W W W W = % % % % R = o O O O o O O o o o o o o = = = = * * * * % * % O O * * * % O % % % % % % % % * + * # # * # + # ",
"2.2.2.2.2.i.6.i.6.2.2.6.6.6.2.2.2.q.2.6.6.6.6.6.6.6.6.5.5.6.6.6.6.6.6.6.6.6.6.i.t.t.2.i.6.q.q.q.q.u.2.6.6.2.2.2.2.2.2.2.1.1.1.2.1.7.7.7.7.-.7.7.0.q.q.0.;.0.0.0.q.0.0.0.q.7.7.7.7.7.2.2.q.q.q.q.7.q.2.q.q.q.q.8.8.8.8.q.0.8.q.7.0.8.0.0.0.8.9.8.a.a.8.e.e.e.e.d.d.d.d.0.8.8.e.8.8.8.8.8.8.0.8.9.7.9.-.-.-.I I I I I I I I I I -.I L L L L L L L L E & 2 L L L E L E E _ E E E E E _ _ _ E E R R & R E R R R W W W W = % % % = % * O O o O o o X X o * o o = # = # * * * * * * % * % * * % % O * O + % % % + % * * # + * * * # # ",
"2.2.2.2.5 i.6.6.6.2.2.6.6.6.1.2.2.q.q.6.6.6.1.6.6.6.2.6.6.6.fX6.t.6.6.i.t.t.6.i.i.q.q.6.q.q.q.q.q.q.q.u.q.y.2.2.q.q.q.2.2.2.2.2.1.7.0.7.7.7.7.7.0.0.0.0.0.0.;.;.q.q.q.q.8.0.7.7.2.q.7.7.0.q.q.0.7.q.q.q.7.q.q.q.q.e.q.q.q.q.0.0.0.0.q.q.8.8.9.9.9.9.8.a.a.d.e.q.q.q.d.d.d.d.8.8.8.8.8.8.8.8.9.9.1.9.-.-.L -.I I I I I I I L U -.L L L L L L L L L E ; 2 *.L E E E E E E E L E E E E E _ ) E R & E E R R ! R ( W R W % = = * % * o = o O o = # o * * = * # = = # = # # # * * % = + * % * % % O O O O + + + + % * * # # # o * # # ",
"2.2.2.y.5 2.i.2.2.2.2.2.1.1.2.2.2.7.2.6.q.q.q.6.6.6.6.6.6.6.fX6.mXt.t.t.t.q.q.u.u.t.u.2.q.u.q.t.q.q.2.u.y.2.2.u.u.2.2.2.2.2.2.2.7.7.0.0.0.0.-.0.0.p.0.p.p.0.-.;.0.7.;.0.-.0.0.7.7.7.7.7.0.q.0.q.0.q.q.q.q.q.q.d.8.8.q.q.q.q.0.0.0.0.0.q.q.9.a.8.9.9.8.a.8.e.d.8.q.q.0.0.a.8.8.a.8.8.9.7.0.7.9.9.9.9.*.9.-.9.I I I I L I I L I *.I L L L L L L L L L ; 1.L ; L *.E E E E _ E E _ E R E ) R E E E E ( ! ! ( E W W R = W = = = = * = = o o = = X 7 X * # * = # # # q # # = * * = = * * * % % * * * % O % + + # * o * = # * * * # # ",
"2.2.2.2.2.2.5 2.2.2.2.2.1.1.2.2.1.1.7.2.2.7.7.2.6.6.6.6.6.6.6.6.mXt.t.t.i.u.u.u.u.u.u.u.6.u.q.q.q.u.u.u.q.u.u.q.u.u.2.2.q.2.2.q.q.q.q.0.0.0.0.0.;.0.0.0.0.;.;.;.;.;.0.0.-.0.-.-.-.-.0.0.0.0.0.0.0.0.0.q.0.q.d.d.d.d.0.0.0.q.0.0.q.0.0.8.q.a.a.a.9.9.9.8.8.8.0.0.q.0.q.d.8.8.8.8.9.9.9.9.9.9.7.9.9.1.1.1.1.9.I I L L L I L L *.*.L L L L L I L L L L L E 2 ; L L L E E E R E ) _ E K E R E E E E E ! ( ( W W W W W W W = = = = = = = = = * * # # # # # = q q # q q # = * # # # = = = * % % * % * O % O * * * o * = = # # * * # # ",
"2.2.2.2.2.2.2.5 2 5 2.2.2.2.1.1.2.2.2.2.2.2.2.2.6.6.6.2.6.6.6.6.6.t.t.t.t.2.u.u.u.u.u.q.u.u.u.u.q.q.u.q.q.q.q.u.2.q.2.2.2.q.2.q.q.q.q.;.0.q.p.0.;.q.;.f.;.;.;.;.-.;.-.0.0.0.-.7.-.7.0.0.0.q.0.q.0.0.0.q.q.q.q.d.8.8.q.q.q.0.0.0.0.0.d.a.d.8.a.a.8.9.a.d.a.d.a.0.0.0.8.a.a.8.a.9.9.9.7.7.1.-.7.1.7.1.E E *.L L E I L L L L L *.I *.L L L L L U L L L E L 1.& ; L E E E E I K E _ I I L ) K E R E E ! ! ( ( R R R W = W = = = = = = = = * * = = # o o # = # q q q # # # # * # # % # # * % * * * O % % O o = # o = = o # X * X # # ",
"2.2.2.6.2.2.2.5 2.2 2 2.=.=.2.=.2.2.2.2.2.2.2.2.2.6.6.6.6.6.6.6.t.t.t.q.u.u.u.u.i.u.u.q.u.u.q.q.u.u.q.q.q.u.q.u.q.q.2.u.2.q.=.2.q.q.q.q.0.0.p.p.;.;.p.f.f.;.u.;.0.-.-.0.p.-.0.0.0.-.0.0.0.q.;.0.0.0.q.q.q.q.q.q.8.0.q.q.q.q.0.;.;.0.0.d.8.8.8.a.8.8.8.d.a.a.0.d.0.0.a.a.8.8.8.9.0.9.9.9.-.9.9.9.7.*.L E L L L L L L E L L L L *.L I L L L L *.*.L *.L *.1.*.2 L E E L E L E L I P K ) E R K R E R E - - ( ! W W = W W = = = = = = = o = = # q q # q q # # q 7 # * # # # * * * # # * * = % O O % O % * * # * = = * * # o o * o * ",
"2.2.2.2.2.2.2 2.2 2.2.5 2.2.2.2.2.2.2.2.2.2.2.2.2.6.6.6.2.6.6.t.t.6.t.t.6.q.u.u.u.u.q.q.q.u.u.u.q.u.q.q.q.q.q.u.q.2.u.u.u.q.q.2.;.;.;.;.q.0.;.;.f.;.p.f.;.f.;.0.;.p.p.;.0.;.7.;.;.0.0.0.q.q.q.0.q.q.0.q.q.0.q.8.q.q.q.q.q.q.8.0.0.0.0.a.0.0.a.a.0.8.a.d.8.8.a.0.9.a.a.8.8.a.9.-.-.9.-.*.9.*.1.1.E L L L L L L E E E L E E L E L L I L I I I L *.L L L 1.2 *.1.L L E E E E E E I L K E _ E E E ~ E ( ( = W ( % W = = = = W = = W = = = * = * = e # e q q q q q # # # = = # # + + * * = = * * O O O = = = = = * = o # o # # o # o ",
"2.2.2.2.2 2 2 2.: 5 5 2.5 =.2.2.2.2.2.2.2.2.2.2.y.2.6.6.2.2.6.t.6.6.6.q.q.q.u.u.u.u.u.u.u.u.u.u.u.q.u.q.q.q.u.u.q.q.q.u.q.q.q.q.;.;.0.;.;.u.q.;.u.;.p.f.;.f.p.;.p.p.-.p.;.;.;.;.0.0.0.0.0.0.;.0.0.0.q.q.q.0.d.d.q.q.q.q.q.0.q.0.8.0.p.a.0.d.0.8.0.8.8.a.8.8.8.a.0.a.9.9.9.9.9.9.9.7.-.9.1.7.1.1.9.*.*.L L L E E E E E E L L 1.L L L L I L *.L L L L L *.2 2 L *.; E E E E E E L L L L I E E E E R W - - ( W W W = = = = e - W W e e = = e = q q q q q q q q q q q # $ = # # + * * * * = % * * * o * = = = = = = = = = = = X * # ",
"2.2.2.2 : 2.2.2 2.5 : y.2.2.2.2.=.2.2.,.y.2.2.y.y.y.2.6.6.2.q.q.q.q.q.6.u.q.u.u.u.u.u.u.u.u.u.q.q.u.q.q.u.u.2.q.2.q.y.q.q.q.;.=.0.q.;.p.u.q.q.;.;.;.;.;.;.;.;.;.;.;.p.0.;.q.;.-.;.0.0.0.q.0.q.q.0.q.;.q.0.0.0.d.0.q.0.q.q.0.0.0.0.0.p.p.a.a.a.0.d.d.a.a.0.0.a.p.a.a.a.9.a.9.9.a.-.9.-.-.*.E 1.E L I 1.E L L L E E 1.*.E L I L L L L L L L 1.*.L *.E E & ; ; E L E E 1.1.E E K E L K E L L E E E R E R - - W W W = = W W = W W W = = e # = = e q q q q q q q # 7 X # = # # = = * * o * * * # X * * * * o = * o = o o = = o * = = ",
"=.2.1.2.2.: =.2.2.2.: 5 2.=.2.2.2.2.,.,.=.2.,.2.2.y.2.6.2.2.2.2.2.q.q.u.q.q.u.u.u.u.u.u.u.u.u.u.u.u.u.u.u.q.u.u.u.u.q.q.;.q.=.;.2.q.q.0.0.q.q.p.;.;.;.;.;.;.;.;.;.;.;.0.;.0.;.-.;.0.;.0.;.0.;.q.0.0.0.;.p.0.0.p.0.q.0.q.q.q.q.0.0.0.0.p.0.a.8.d.8.8.8.8.a.a.d.a.9.9.9.8.0.a.p.9.-.9.*.-.1.1.1.1.1.L L E E *.L E E L L L L L L L L L L L L L L *.L L L L 2 *.L E 2 E & E E L R E R K L L E E E E R R E ( - W W W W = = - W = = = = = e # # = # q q q q q q q q 7 X o X o * = * = = * = * * * o X * * o o = o o = = = o o o * = = ",
"2.=.2.1.1.*.=.=.=.=.5 5 =.=.=.=.=.2.=.=.2.=.y.y.,.=.2.2.2.2.2.q.u.q.2.q.u.q.y.u.u.u.u.u.y.y.u.u.i.t.u.u.u.i.u.u.u.u.u.q.2.q.;.=.2.q.;.q.;.;.;.;.;.;.;.;.;.;.;.f.f.;.;.;.0.;.0.;.-.;.;.0.0.0.7.7.-.-.0.p.0.0.0.0.p.q.0.q.q.q.0.q.0.p.0.0.a.d.0.0.0.8.8.0.0.p.0.0.8.9.9.9.a.9.9.-.9.1.7.1.1.1.1.1.1.E E E E E E E L E E E L L L L L L *.L L L L L L L L L ; E E E E E E E L K E K E K E L E E E R R W ! ( ( W W W W W = W W = = W = = = # e q q q q q q q q q X 7 # o o o o o = = * = * + # * # # # * = o o # 8 o o o o = o o o = ",
"2.2.2.2.2.2.=.=.2.: =.2.2.=.=.=.=.2.=.2.2.2.y.y., ,.=.2.2.2.2.q.2.u.y.u.u.;.2.y.y.u.u.u.u.u.y.u.i.i.u.u.y.y.i.u.u.u.q.q.2.q.u.q.2.2.=.q.;.;.;.;.;.;.=.;.;.;.;.f.;.;.0.;.;.;.;.;.-.-.;.0.0.7.;.;.7.;.;.-.0.0.0.0.0.0.0.0.0.0.0.q.;.0.d.a.a.d.d.a.8.0.8.7.a.9.a.0.9.9.9.9.9.9.a.9.9.-.1.7.*.1.E 1.1.E E E E E & E E E E L L L L L L L *.*.*.*.L E L L L L L L 1.E E & & E E E R L R E R E E E R ! R W ! W ( W W W W W = = = = = = = = * = # $ q q q q # q q q q 7 # o o o o o = o * = # + + # X # + * O * o o * 8 o o 8 o o o o o ",
"=.=.2.2.2.2.2.=.2.: =.=.2.: =.=.=.=.=.=.,.,.=.=.=.,.=.2.2.y.y.2.2.y.y.y.u.u.y.y.y.=.y.y.y.y.u.u.2.i.2.y.u.y.u.y.y.u.q.2.;.2.;.=.2.q.2.;.;.=.;.;.;.;.;.;.;.;.;.;.,.;.;.;.;.-.-.-.;.-.;.;.;.;.7.7.7.7.-.-.;.0.0.0.0.0.0.q.q.0.;.0.0.p.p.0.p.a.a.a.0.a.8.a.0.a.a.7.9.9.9.9.9.a.9.-.9.7.9.7.1.1.E 1.1.7.E _ 1.E E E L E L E L L L L L *.2 *.L L L E L L E L E E E E E E & L E E E K L E R R E E W W R W W W W W W W W W = = = * = W = o = = e q q q q q q q q q q # X # o o o o o = * * * + # # # * * * * o o o = o o o o 8 = o o o ",
"y.2.2.2.2.2.2.=.*.2.=.=.=.=.*.=.=.=.=.;.2.2.2.=.2.2.2.2.u.2.2.2.q.2.u.y.u.u.u.y.2.y.2.y.u.u.u.i.i.y.y.2.2.2.u.u.u.q.2.=.2.2.q.2.q.2.;.;.=.=.;.;.;.;.;.u.;.;.,.,.,.=.;.;.-.-.;.-.-.-.;.;.-.-.-.7.-.-.-.p.7.-.7.8.q.0.q.q.q.;.;.;.p.-.;.a.a.a.a.a.a.a.a.9.9.a.-.9.9.9.-.a.9.8.0.0.9.9.9.7.7.1.E 9.1.1.9._ 9.E E E & 1.E L *.L L *.*.*.L L 2 E E E E L L E E E E E E E E ; E E E R K E R R E R W W R W W W W W W W W = = * * * % = = = = # $ = w q q q q q q q # # # o o 8 o o o o * * * * # * + * * = * * = = = o o o o o * o X X ",
"=.2.2.2.2.2.=.=.=.=.2.=.2.2.=.=.=.=.=.=.2.2.2.=.,.2.2.2.q.q.y.q.,.u.y.y.y.y.u.y.u.u.y.u.u.y.i.y.y.y.2.q.2.2.y.;.q.2.2.=.;.u.2.u.2.q.=.;.;.;.;.=.;.=.;.;.;.,.,.=.,.=.;.;.=.-.-.;.-.-.-.-.-.-.7.-.-.-.7.0.7.7.9.0.0.;.;.q.0.;.;.;.;.;.0.0.p.9.a.a.9.a.a.a.9.9.a.-.9.9.9.9.9.8.9.9.8.9.9.1.1.1.9.1.7.7.9._ 1.E E E 1.& L *.L ; L *.; *.2 L ; L & E ; ; L E E E E E E E E L E R R R R E E R ( R R W W W W W W W W W ( W = = % = % = * # # # # # q q q q q 7 q q X 7 o o X 7 o 7 o o = * o o * # * # # # # o # 7 X o 7 7 o o o = # # ",
";.2.q.2.2.=.=.=.=.q.=.=.=.2.=.=.=.2.2.2.q.2.2.=.=.,.q.2.;.;.;.u.2.y.u.y.y.y.y.y.y.y.i.u.6.q.u.u.u.y.y.y.2.2.y.2.2.=.=.,.,.,.=.=.;.q.2.;.q.;.=.=.;.;.;.;.,.,.,.,.,.,.=.=.-.*.-.;.-.-.-.-.*.-.-.-.-.-.-.-.-.9.9.0.q.;.;.;.;.;.;.;.;.;.;.;.0.p.a.a.a.a.a.a.9.9.9.9.9.9._ 9.9.9.8.8.9.3.9.9.1.9.7.9.7.9.9.7.9.E E E E 1.*.*.2 ; *.*.L ; & L E E 1.E & & E E & & E E E E L L E R R R R R R R ( ( W W W W W W W W W W W W % = = % * * = # # $ # $ q q q q # X X X o 7 X X X 7 = 8 o o X 7 * * # # # * * # * = # X X o 7 X o o X o * # ",
"2.=.=.q.=.2.2.2.=.;.=.=.=.2.2.=.2.=.=.;.=.2.=.=.2.=.y.=.=.;.=.2.y.y.y.y.y.y.y.y.y.y.y.y.y.y.i.y.y.2.y.y.y.y.2.2.q.;.;.2.,.y.,.;.,.2.q.u.;.2.=.=.=.;.;.=.;.,.=.,.=.;.=.-.*.*.-.-.-.-.*.*.*.-.-.-.-.-.-.-.-.-.-.0.q.;.;.;.;.;.;.;.;.;.;.;.0.0.a.p.a.a.9.8.8.a._ I _ 9._ 9.9.9.9.0.9.9.1.9.1.3.9.1.9.9.1.1.E L 1.L 1.1.1.1.*.2 *.*.L L L L L E L 1.1.; L E & E & E E E E L E R R E E R ( R W W W W R W W W ! ^ W W W W % = = * * * = = # q q q q q q e e q 7 o X X 7 o X 7 7 8 7 o o o o # # # + * # o # X o 7 X 8 o o X X * o # X ",
"=.=.2.=.=.=.=.2.y.,.=.=.=.2.=.=.2.2.2.q.2.=.2.2.2.2.=.2.=.=.=.=.,.y.y.y.y.y.y.y.y.y.y.y.y.y.y.y.2.y.,.y.y.y.2.2.=.;.2.2.,.,.=.,.=.,.,.u.q.=.=.=.=.=.,.=.,.=.=.,.=.:.=.=.:.;.:.-.:.:.*.*.*.-.-.-.-.-.:.-.-.-.-.-.-.;.;.;.q.0.;.;.;.;.0.0.-.a.a.0.-.9.9.a.-.9.9.9._ _ 9.9._ 9.7.9.7.7.7.9.9.9.1.1.1.1.E E 1.1.1.*.1.1.1.1.2 2 2 2 *.L L L *.*.*.1.E E L *.*.*.E E E E E E E E E E E E E R R ! R W W W = W W ( ^ ( ( W = = O * % * # = # # q q q q q e q e 8 o X X X 7 7 7 7 o o X o o * * X # # * # o # # * o o o 8 o X X * o X X ",
"=.=.=.=.=.=.2.2.y.,.2.=.=.y.,.=.2.=.2.2.2.=.=.2.2.2.=.,.=.=.,.=.,.,.y.y.y.y.5 5 y.y.y.y.y.y.y.2.y.y.,.y.y.,.=.=.;.,.;.q.=.=.=.,.,.,.,.,.,.=.=.=.=.=.=.=.,.,.,.=.=.=.:.:.:.:.:.-.-.:.*.*.-.-.-.-.-.*.;.-.-.-.-.-.-.;.;.-.;.;.;.p.;.;.0.;.0.-.0.7.9.9.-.-.-.-.-.9._ 9.9.9.9.9.7.7.7.7.1.1.3.9.1.1.1.E 9._ 1.1.1.1.1.1.1.1.1.2 2 2 2 1.L L *.*.L *.L *.*.*.*.*.E E E E E E E E E E E E E R R R W W W = ( W W ( = ( - = = W * = * * * # # # 7 7 q q e e e 8 7 X 7 7 7 X X X X o X o o 8 o o o * * o * O * # X X o 8 o # X # o o X # ",
"=.=.=.=.=.=.=.,.=.,.5 2.2.y.=.,.=.=.=.2.2.=.=.2.=.=.=.,.,.=.=.5 =.,.,.y.y.y.5 5 y.y.y.y.y.y.y.u.u.y.y.y.y.,.=.=.=.=.2.2.=.=.=.:.=.,.,.,.=.=.=.=.=.,.,.,.,.,.>.=.=.=.:.:.:.-.-.-.-.-.*.*.*.:.:.-.*.*.-.;.;.;.-.-.;.;.;.-.;.;.;.p.p.;.7.7.-.0.0.7.-.7.-.9.-.-.I -.*.9.9.9.7.9.7.7.9.1.r.8.1.7.1.1.1.9.9._ E 1.1.1.1.1.1.1.1.2 2 2 2 2 E L *.L *.*.*.*.*.*.1.1.E E E E E E E E E E E E E R R R ! W W ( W W W W = - - W = = = = = # # * * # q # q q e e e 8 8 7 7 7 7 7 X X o X o o 8 o o o o o X X + * * o o X X 8 o # # # * X # # ",
"=.:.=.=.=.=.,.,.: ,.=.2.=.5 2.2.y.=.2.=.2.2.2.y.=.=.,.,.,.,.5 =., , =.2.5 y.5 5 5 y.,.2.y.y.2.y.y.,.,.y.y.=.,.,.,.=.=.=.=.=.,.:.;.:.=.,.=.=.=.=.=.=.:.=.,.:.:.=.=.=.=.:.:.-.-.-.-.:.-.-.-.-.-.-.-.-.-.;.-.-.-.-.-.-.-.;.;.;.;.p.;.;.;.-.;.0.7.;.-.9.-.9.-.-.-.-.-.9.9.E 9.7.9.q.7.9.1.e.7.7.1.1.1.9.7._ 1.1.1.1.1.1.1.1.1.2 2 2 : 2 L L L *.L *.*.*.*.*.L 1.E E E E E E E E E E E E E E R ( W - W W W W W W = = = = = = = = # # # * # o o q q e q e 8 8 8 8 7 7 7 X X X o o o o o o o O o o * X X X X # o X X 8 X o o X # X # # ",
":.=.=.=.=.=.,.,.=.: 2.5 , =.=.2.,.2.2.2.2.2.2.y.y., , , ,., , , , , , 5 5 5 , , , 5 5 y.y.y.y.y.y.,.,.y.y.=.,.,.,.=.=.=.,.=.;.;.:.:.,.,.=.=.:.=.=.=.,.:.:.=.:.=.:.=.=.:.:.*.-.*.*.:.*.-.*.*.*.-.-.-.-.-.-.;.-.-.p.p.p.p.;.p.0.0.;.;.;.;.0.7.-.-.0.9.0.9.9.-.*.L -.-.9.1.7.1.9.7.7.7.9.8.2.7.7.7.1.1.1.9.1.1.1.1.1.1.1.*.2 2 2 2 2 2 E E *.*.L 1.1.*.*.L *.1.E E E E L E 1.E E E & E E R R E ( W W W W W v.W = = = = = = * = # q # # # # # q e e e e e 7 8 8 7 7 7 7 o o o o o 8 = o O * o o * * X X X o # o o o o * X q X # # # ",
"=.:.=.=.,.=.,.,.2.5 ,., , =.=.2.=.=.=.2.2.y.y.y.,.,., , , , , , , , , , , 5 , , 5 , 5 y.5 5 , ,.,.,.y., ,.,.,.,.,.,.,.:.=.:.:.;.:.:.:.:.=.:.:.=.:.>.:.:.=.=.=.=.=.=.=.*.*.:.-.*.-.-.-.;.-.*.-.-.-.-.-.-.;.;.;.-.;.-.p.p.p.p.;.;.;.;.-.-.;.7.-.-.-.7.9.7.9._ 9.1.I -.7.9.7.1.1.7.7.1.1.2.7.1.7.1.1.9.1.1.1.1.1.1.1.1.1.2 2 2 2 : 2 2 *.1.*.*.*.1.*.1.L E E E E E E E E E 1.1.E E & E E E E R R W W W W W W = = = = e o = = * = # = = 7 # 7 q q e e e 8 q 8 8 7 7 7 7 8 o o o o 8 o o * * * o * * o X o o X o X # X # X q # q # # ",
":.=.=.,.,.,.,.=.y.,.,., 5 , ,.2.=.2.2.2.2.y.5 5 5 5 , , , , , , , , , , , , , , 5 5 5 5 5 , =.,.,.y.,.,.,.,.,.,.,.,.,.>.:.:.:.:.:.:.:.:.:.:.:.:.=.:.:.:.=.=.=.=.=.=.=.:.*.*.:.:.:.-.-.-.-.-.-.-.-.-.-.-.p.p.p.p.-.-.p.p.p.p.p.p.;.;.0.0.0.-.-.;.;.0.0.7.9.9.9.9.-.-.-.7.1.1.1.1.1.1.1.1.1.1.9.1.1.1.1.1.7.1.2.1.1.1.1.1.2 2 *.: 2 : 2 2 1.*.1.*.L *.E 1.1.E E 1.1.1.1.1.1.1.E E E E E E E R R W W W W W W = = = = = = = * = = = e e q q q e e e t t 9 a 0 8 a 7 8 8 8 o 8 8 o o o o O * * o o o X X X X # q # # 7 7 q q q q q # ",
",.,.=.=.=.=.,., ,.,.,.,.=.5 , 2.2.2.2.y., 5 ,., , ,., , < , , , , , , 1 , , 5 5 5 , , 5 , , , y.5 y.y.,.,.,.,.,.,.,.=.>.:.:.,.:.:.:.:.=.=.:.:.=.:.:.:.,.>.,.=.=.=.=.:.=.:.:.:.*.-.*.*.-.-.-.-.*.-.-.-.-.-.;.-.-.p.;.p.;.p.;.-.p.p.;.;.-.;.-.-.-.7.9.7.-.7.9.7.7.1.7.-.9.7.*.1.1.1.1.1.1.7.7.1.1.1.1.1.1.1.2.1.6.1.1.2 2 2 2 2 2 2 2 1.: *.*.*.2 ; *.1.1.E E E E 1.E 1.1.E 1.E E E & E & & R W W W W W = W = = = = o = = * * = = = * e = o q e e 8 8 8 e 8 8 8 7 7 8 8 8 o 7 o 8 o o o * o o o o X X X o X # X q 7 X X 7 # q # # ",
"=.=.: =.=., 5 =.=.=.,.=.2.,.=.=.2.2.=.=.y.y.y., , , , , , , , , , , , 1 , , , , , , 5 , , , , , ,.,.,.,.y.,.,.,.,.=.=.=.:.:.:.:.:.:.=.=.:.:.:.=.=.=.:.=.:.>.>.=.:.:.=.:.=.:.:.:.:.:.=.*.*.-.-.-.*.-.;.;.p.;.-.-.-.;.;.;.;.;.;.p.;.;.-.-.;.-.-.-.7.7.-.-.7.9.9.9.9.9.-.9.7.7.1.7.1.1.3.1.9.7.1.1.1.1.1.1.1.1.2.5.2 1.2 1.*.: 2 2 2 2 2 1.*.*.*.2 2 2 1.1.*.E E ~ ~ ~ 1.1.E E E E & & & ( & & = W ^ W W = = = = = = = = * * = = * = = = = = = 8 o o 7 7 8 8 8 7 7 0 7 8 8 o o o o o 8 X X o o o X X X X X X # # 7 X X     # # # # ",
"=.,.=.: =., =.: =.: : =.=.,.=.=.,.=.=.=.,., ,.,., >.1 1 1 , , , , 1 , , , , , 5 ,., , , , , , , , , ,.,.,.,.,.,.,.,.=.,.;.,.>.:.:.>.=.:.=.:.=.=.=.:.:.=.=.:.:.=.=.:.:.:.:.:.:.:.:.:.-.;.-.=.-.*.-.-.-.p.-.-.-.-.-.-.p.;.;.-.-.-.;.-.-.-.;.-.-.-.0.0.-.-.-.7.9.-.9.9.9.7.7.q.1.7.1.1.3.3.1.7.1.7.7.1.1.1.1.1.2.5.1.2 2 : 2 2 2 : 2 2 2 *.2 2 *.2 2 2 *.1.1.1.E ( E E E E E E & & E & ! ( ( W W W W W = = = = = % = * * * O * * o = o = = = q o o X X 7 7 7 7 7 7 7 7 7 8 7 X o o 8 o X # X X o X X X X X X X X X 7       7 # # # ",
",.,., : =.: =., =.: =.=.=.=.,.,.,.,., , ,.,.,., , , ,., , 1 , , , 1 1 1 , , , , ,., , < <.,.,., , , , ,.,.,.,.,.,.,.,.=.,.,.,.>.,.>.,.=.=.:.:.=.:.:.=.=.,.=.>.=.:.:.=.:.:.:.=.:.:.:.:.;.;.;.*.*.-.-.-.;.;.-.-.-.-.p.p.f.;.;.-.-.-.-.-.-.-.-.;.-.;.;.7.0.9.-.-.-.9.7.9.7.7.7.7.7.9.7.7.1.1.1.1.2.1.1.1.1.6.6.6.1.1.1.2 2 2 2 *.1.2 2 2 2 1.2 2 2 2 1.2 1.E 1.~ ~ E E 1.E & & & & ( ( ~ ! ! W ^ W = = = = = - = % = * = = * * = * = o o o e o o o X X X 7 7 7 X 7 7 7 7 8 7 7 8 8 o 8 o q X X X X X X X X   X X 7         7 q # # ",
":.:., : : : : : , , , , ,.,.,.,.=.=., , , 1 , , , , , , 1 1 , , , < , < 1 , < < , < , <.<., , , , ,.,., <.,.,.<.,.,.,.,.,.,.,.>.:.>.>.,.:.,.=.=.=.;.=.:.:.:.=.=.=.=.:.=.:.=.:.:.=.:.=.;.*.*.*.*.-.*.-.;.-.;.-.;.;.p.;.;.;.;.-.7.-.-.-.-.-.7.-.0.0.-.0.0.-.7.9.-.7.-.9.7.7.7.7.9.9.9.9.1.1.1.1.1.*.*.1.1.1.1.1.6.2.2.1.2 *.2 2 : 1.2 2 2 2 1.: 2 2 1.1.1.E E ~ ( ( E E E & 5.& ( ( ( E ( ( W ( W W W W W = % = % * % * * = * * * o o * * o o X o X o 7 o 7 7 X 7 7 X X 7 7 8 o 8 7 X 7 X X X X + # X X 7 X X X 7 7         # # # ",
"=.=.=.=.:.: : =.: , , , ,.,.,.<.=.,., , , , , , , , , < , , , , , , , < < , < < < < , < ,.,.,., , , < < <.<.,.,.,.<.<.<.>.,.<.>.:.,.:.,.,.,.=.;.,.;.=.,.=.=.=.=.=.,.=.=.;.:.=.:.=.=.=.=.7.*.*.*.*.;.-.-.-.;.;.:.:.;.;.;.;.;.;.7.7.7.9.-.7.-.7.9.0.p.0.-.7.-.-.-.-.7.7.9.7.7.1.7.8.9.9.1.1.7.1.7.*.=.1.1.1.1.1.2.1.1.*.*.: 2 : 2 2 2 2 2 2 2 *.2 1.1.1.1.1.1.~ ! E ( E & 2 2 ~ 1.- - ( E E ( = W W W W = % = = = = * = * * * * * o o o o o o o o o o o 7 o 7 7 7 X X X 7 0 8 8 8 7 X X X X X * # # # # X X X 7 7 X   X         # ",
":.>.=.:.=.: : , , ,.,.,., >.<.<.,.>.,., ,.1 , , , 1 1 < , , , 1 , , < < < < < < < < < ,., >.< , ,.,., <.<.<.<.,.<.<.>.>.,.<.>.>.<.>.<.,.,.,.=.;.,.u.,.,.;.;.=.=.,.,.=.;.;.;.=.=.=.=.;.*.*.*.*.*.;.=.-.;.;.p.-.:.:.;.p.;.;.;.;.7.7.0.-.;.-.7.-.0.-.-.-.;.-.-.-.-.-.7.7.7.7.8.1.1.7.9.7.7.1.q.7.-.2.1.*.1.1.2 1.1.1.1.1.*.1.1.1.1.2 1.2 1.2 2 2 2 1.1.1.3.1.( ( ! ~ ( E & E ( & ~ & & - % W W W W W W W = = = - = % % * % * * O * O o o O O o X o o o o o 8 X X 7 X 7 7 7 7 7 8 8 7 X 7 7 X X X * # X 7 X X   X 7     X       X # ",
":.>.,.=., >.=., , , ,.,.<.>.<.<.,.<.>.>.>.1 1 , 1 1 1 , 1 , , 1 , , < < < < < < <.<.< <., 1 1 < , ,.<.<.<.<.<.,.<.,.<.<.>.>.,.>.,.<.<.,.,.=.,.,.=.,.,.u.;.;.,.,.:.=.;.;.,.,.,.;.=.=.=.*.*.*.*.*.=.=.=.;.;.;.;.f.:.;.;.-.;.;.;.;.0.;.q.7.0.7.0.0.9.9.-.-.-.-.-.-.-.9.7.7.1.9.9.7.1.7.7.7.7.7.-.7.2.1.*.*.1.1.1.2.1.*.1.1.1.1.2 1.2 1.1.1.2 2 1.2 1.1.1.1.E E ~ ( ( - ( ( ( ( E E - & % R W W W W W W W = = % % & % % % % % * o * * * + o o o o o o o o o o 7 7 7 8 7 7 7 7 8 8 8 8 8 7 X 7 7 X X # # X X X X 7 7 7 7   X   X     ",
">.:.>.:.>.:.>.1 : ,.>.,.>.1 <.<.<.>.>.>.>.>.1 1 1 1 1 < 1 1 , 1 1 1 , < > < < < < <.< <.<.< < < , , <.< <.< <.,.,.<.<.<.<.<.<.>.<.,.,.<.,.;.=.,.,.=.,.,.,.f.,.,.,.,.=.;.,.,.=.=.=.=.;.7.*.;.*.*.*.*.:.:.:.:.;.;.;.-.-.-.;.-.-.=.=.;.;.;.;.7.7.-.-.-.-.7.-.-.-.-.-.-.7.-.7.9.9.1.9.1.1.7.1.7.7.-.*.*.*.: *.: : 2 1.2 1.2 1.1.1.2 2 1.1.& 1.2 2 2 1.E ~ ~ 1.~ ( ( ( ( ( - ( E E & & % R % % W W W % % % = % % % & * % % * * * o o * O * o o o o X X O X X X o 7 X 7 7 7 8 8 7 7 8 8 7 7 7 X X 7 # X X 7 7 X 7 7   X     X X   X # ",
">.>.>.>.>.>., : =.>.>.>.>.>.<.<.>.>.<.>.>.1 > > 1 1 1 > > > > < < < 1 > < > > < < < < < < < < < <., <.<., 1 > <.,.,.>.<.>.<.>.>.>.,.,.,.,.,.=.=.:.:.;.u.=.;.;.,.:.=.:.=.,.=.;.=.=.;.2.-.;.=.-.*.*.=.:.:.:.:.:.;.:.:.;.;.=.-.=.=.=.=.;.-.-.7.7.-.-.-.-.7.-.-.-.-.-.*.-.-.9.7.7.9.7.1.7.1.1.7.-.-.*.1.*.: : : *.1.1.1.1.1.1.1.1.1.1.1.1.2 1.2 2 2 ( ~ ~ 3.~ 3.~ ( ( ( ( & ( ( & & R & % % R W R W % = = % % % & & @ + # * * * O o * * * o O X o X X X X X X X X 7 7 7 7 7 7 7 7 7 7 7 7 7 7 X # # X X X 7 7 7 7 7         X     # ",
">.>.>.>.:.>.>.:.>.>.>.>.>.>.<.<.<.1 >.> >.>.> > 1 1 > > 1 > > , < > , < > > < < > < < <.< < < <.< < <.< < <.<.>.<.<.>.1 >.>.>.>.<.<.,.,.,.,.=.=.:.=.;.u.;.<.,.,.f.,.,.,.,.,.=.u.;.=.=.-.=.;.-.*.*.*.*.:.*.:.:.-.;.:.:.:.*.=.*.=.:.=.=.;.-.;.-.-.-.2.7.7.-.-.-.-.*.*.-.-.-.-.7.1.1.1.1.1.1.7.9.*.*.1.1.*.*.2 1.2 2 1.1.1.1.1.1.1.1.1.1.1.E 2 2 2 & 3.3.~ Q 3.5.Q ( - - & & & & & & & & & R % % W = = % % & % & @ % + + + O + * O X O X # X X X # X X X X X X X 7 8 7 8 8 7 7 7 7 7 7 7 7 7 q X X X X 7 X X 7 a 7 7 7 X       X X ",
">.>.>.>.>.>.>.>.>.>.>.>.>.>.>.<.<.>.>.1 > > > > > > 1 > > > > 1 < < < < > > > > > < < < <.< <.<.<.> < < <.<.<.<.<.<.<.>.>.<.>.<.<.<.<.<.,.,.,.=.,.,.,.,.;.<.<.<.<.<.<.<.<.<.,.=.=.=.;.;.=.;.-.-.;.;.:.:.:.-.-.-.;.-.:.:.:.=.*.=.=.;.;.;.;.;.-.-.1.1.*.7.7.7.;.;.-.-.-.-.-.-.1.1.*.1.1.1.1.1.1.*.1.1.1.*.: 1.1.2 2.1.1.1.2 1.1.1.5.5.5.2 1.1.1.5.2 5.3.3.3.5.5.Q - - - & & & E & & & & % % % = - = % % % & & & @ + + * # o O O O O X O X X X X # X X X X X X X 7 7 7 7 7 7 7 7 7 7 7 7 7 7 7 X X X X 7 7 7 7           X X X   X ",
">.>.>.>.>.>.>.>.>.>.>.>.>.>.>.<.<.> >.>.> > > > > > 1 > > > > , > < < > > > < < > < < <.< < <.> > < <.<.< <.<.> < <.>.1 1 >.>.<.<.<.<.>.,.,.,.=.:.,.:.=.,.,.;.<.,.,.,.,.;.,.;.;.;.;.=.=.=.=.*.;.;.*.*.:.=.:.-.;.;.;.-.:.=.*.=.:.=.-.*.;.=.;.-.-.7.7.7.-.7.7.-.-.;.-.-.-.-.-.*.9.*.7.1.*.*.*.*.*.*.*.*.*.2 1.2 2 2 2 2 1.2 2 1.1.1.1.1.5.2 1.2 2 5.Q 5.5.5.5.- 5.5.~ - & & & & & & & & % & = % - - = % % % & @ @ + + + * # # + o O O + O X X X         X X X X 7 7 8 7 7 7 7 7 8 7 7 7 7 7 X 7 7   X 7 7 X     a     X   X X X # ",
">.>.>.>.>.>.>.>.>.>.>.>.>.>.>.>.>.> > >.> > > > > > > > > > < 1 > > > > > > > < < < > <.> > > > < <.< <.<.<.<.> > <.<.>.>.1 1 >.<.<.>.>.1 <.,.=.>.>.>.,.<.,.,.,.;.,.,.,.,.;.;.;.=.=.=.=.:.=.*.*.*.-.:.:.:.;.-.-.;.:.=.=.:.:.=.=.=.:.:.-.-.;.-.-.7.9.9.-.-.-.-.-.0.-.-.-.-.-.-.*.*.-.*.*.*.*.*.*.*.1.2 : 1.2 2 2 1.2 2 1.1.1.1.2.5.3 - 3 2 2 - 3 - ~ ~ 5.Q 3.3 - - Q E & & E & & & & & & & % - = * + % % + + + + + @ + + # # + * X X X O X X   #       X X 7 7 7 7 7 7 7 7 7 7 X 7 7 7 7 7 7     7 X X 7 X               X X X X ",
">.>.>.>.>.>.>.>.>.>.>.>.<.>.<.>.>.<.<.<.>.<.> > > > > > > > > 1 > > > > > > < < < <.< > > > > > <.< > > <.<.> <.> <.<.< 1 < >.<.<.<.1 <.>.>.>.>.:.>.>.>.>.<.,.,.,.=.,.=.;.u.;.;.;.;.:.=.=.=.:.;.=.-.=.:.=.*.*.-.:.;.;.=.:.:.:.:.:.*.*.-.*.*.;.;.*.7.-.-.-.-.-.;.-.;.-.-.-.-.*.-.*.*.*.*.*.*.*.*.*.*.2 : 2 2 2 1.2 2 2 2 2 2 1.6.1.2 1.& 5.3 3 3 5.- Q 3 5.5.5.3 ( - 2 & & - & & & & % & & % & % + @ % @ @ + + + + + + + + # + O # X X X X # # #   X   X 7 X 7 7 7 7 7 7 7 X X o X 7 7 7 7 a 7     7 7 7 X             X   X X X ",
">.>.>.>.>.>.>.>.>.>.>.>.>.<.>.<.<.<.<.<.<.<.<.<.> >.>.> > > > > > > > > > > > > > <.<.<.> > > < > > > > > <.<.> > < > > < < <.<.<.<.<.<.>.>.1 >.>.>.<.>.>.>.<.,.,.u.,.=.=.;.;.;.:.:.;.:.=.=.=.=.;.*.:.:.-.:.:.;.*.;.;.=.=.:.:.:.;.*.*.*.*.*.;.;.;.-.7.-.-.-.-.-.-.;.;.-.*.*.*.*.-.*.*.*.*.*.*.*.*.*.: : 2 2 2 2 2 2 2 2 1.2 1.1.1.1.1.1.5.3 3 3 - - ( Q 4.4.5.Q 3.& 2 & & & & & & & - & & % & - + @ @ + @ @ @ + + + + # # * + # + X X X X X   # X 7 7 7 q 7 7 7 7 7 a 7 7 7 7 7 7 7 7 7 7 7 7 7 a 7 a a               X   X X X "
};
