/* XPM */
static char *dummy[]={
"88 31 117 2",
".o c #000000",
".J c #010202",
".D c #020304",
".T c #070a0c",
"Qt c #449abb",
"#i c #48454c",
".# c #489aba",
".c c #4c98b8",
".f c #4f98b7",
".i c #5297b5",
".p c #5796b3",
".t c #5b95b2",
".A c #5e94b0",
".F c #6194af",
".L c #6592ad",
".e c #66cbf5",
".h c #69cbf4",
".Q c #6a91ac",
".W c #6d91a9",
".m c #6dc7f0",
".k c #6ec9f2",
".a c #6fd3f9",
".1 c #7190a8",
".4 c #748fa7",
".r c #74c8ef",
".d c #74d1f7",
".y c #77c4e9",
".8 c #788ea5",
".z c #78c5eb",
".g c #78d1f5",
".x c #79c6ec",
".v c #79c7ed",
"#a c #7c8da3",
".j c #7cd0f3",
".E c #7ec4ea",
".C c #7ec5eb",
"#d c #808ca2",
".K c #81c4e8",
".H c #82c5e9",
".q c #82cff1",
"#g c #848ba0",
".P c #84bee2",
".O c #85c1e4",
".N c #87c3e7",
".u c #87cdf0",
"#m c #888a9e",
".V c #89bddf",
"#q c #8b899d",
".U c #8bbfe1",
".B c #8bcced",
".S c #8dc2e5",
"#u c #8e889c",
".G c #8fccec",
".0 c #91c0e1",
"#y c #92889a",
".Y c #92c1e2",
".M c #94caea",
".Z c #977957",
"#B c #978798",
".3 c #97c0e0",
"#E c #9a8597",
".7 c #9abede",
".R c #9ac9e9",
".6 c #9bbfdf",
"#H c #9d8595",
"## c #9db9d8",
".X c #9dc9e5",
"#. c #a0bddc",
"#K c #a18494",
".2 c #a2c7e4",
"#N c #a58392",
"#c c #a5bcda",
".5 c #a6c6e3",
"#Q c #a98290",
"#k c #aa1e1d",
"#f c #abbbd8",
".9 c #abc5e0",
"#T c #ad818e",
"#W c #af818e",
"#b c #afc4de",
"#l c #b0bad6",
"#Y c #b47f8b",
"#e c #b4c3dd",
"#p c #b5b8d3",
"#s c #b9b7d2",
"#h c #b9c2db",
"#x c #bbb3cd",
"#w c #beb6d0",
"#n c #bec0d8",
"#r c #c1bfd7",
"#A c #c3b5cd",
"#v c #c5bed6",
"#D c #c9b4cb",
"#z c #cabed3",
"#G c #ceb2c9",
"#C c #d0bdd1",
"#J c #d2b2c7",
"#F c #d3bad0",
".l c #d4c79f",
".w c #d69e98",
"#M c #d7b0c5",
"#I c #d7bacd",
"#P c #dcafc3",
"#L c #dcb9cc",
"#O c #e0b8ca",
"#S c #e2aec0",
"#R c #e5b7c7",
"#V c #e7acbe",
"#U c #eab5c5",
"#X c #ecb5c5",
"#t c #ee6365",
"#j c #f30102",
".I c #f9f3d7",
".n c #ff910c",
"#o c #ffa39d",
".s c #fffcee",
".b c #ffffff",
"QtQtQtQtQtQtQtQtQtQtQtQtQtQtQtQtQtQtQtQtQtQtQtQtQtQtQtQtQtQtQtQtQtQtQtQtQtQtQtQtQtQtQtQtQtQtQtQtQtQtQtQtQtQtQtQtQtQtQtQtQtQtQtQtQtQtQtQtQtQtQtQtQtQtQtQtQtQtQtQtQtQtQtQtQtQtQtQt",
".#.a.a.a.a.a.a.b.a.a.a.a.a.a.a.a.a.a.a.a.a.a.a.a.a.a.a.a.a.a.a.a.a.a.a.a.a.a.a.a.a.a.a.a.a.a.a.a.a.a.a.a.a.a.a.a.a.a.a.a.a.a.a.a.a.a.a.a.a.a.b.a.a.a.a.a.a.a.a.a.a.a.a.a.a.a.a.#",
".c.d.e.e.e.e.e.e.e.e.e.e.e.e.e.e.e.e.e.e.e.e.e.e.e.e.e.e.e.e.e.e.e.e.e.e.e.e.e.e.e.b.e.e.e.e.e.e.e.e.e.e.e.e.e.e.e.e.e.e.e.e.e.e.e.e.e.e.e.e.e.e.e.e.e.e.e.e.e.e.e.e.e.b.e.e.d.c",
".f.g.h.h.h.h.h.h.h.h.h.h.h.h.h.h.h.h.h.h.h.h.h.h.h.h.h.h.h.h.h.h.h.h.h.h.h.h.h.h.h.h.h.h.h.h.h.h.h.h.b.h.h.h.h.h.h.b.h.h.h.h.h.h.h.h.h.h.h.h.h.h.h.h.h.h.h.h.h.h.h.h.h.h.h.h.g.f",
".i.j.k.k.k.k.l.k.k.k.k.k.k.k.b.k.k.k.k.m.l.k.k.k.k.k.b.k.k.k.k.k.k.k.k.k.b.k.k.k.k.k.n.n.k.k.k.k.k.k.k.k.k.k.k.k.k.k.k.k.k.k.k.k.k.b.k.o.k.o.k.k.k.k.b.k.k.o.k.o.o.o.o.o.o.k.j.i",
".p.q.r.r.r.l.s.l.r.r.r.r.r.l.r.r.r.r.r.l.o.o.o.o.o.o.r.r.r.r.r.r.r.r.r.r.r.r.r.r.r.r.n.n.r.r.r.r.r.r.r.r.r.r.r.r.r.r.r.o.o.r.r.r.r.r.r.o.r.o.r.r.r.r.r.r.r.o.r.o.r.r.r.r.r.r.q.p",
".t.u.v.v.l.w.s.s.l.v.v.v.l.s.l.v.v.v.l.o.o.o.o.o.o.o.v.x.v.v.v.v.v.v.y.v.v.v.v.v.v.v.v.v.v.v.v.v.v.x.v.v.v.z.v.v.v.v.v.o.o.v.v.v.v.v.v.o.v.o.o.v.v.v.v.v.o.o.v.o.v.v.v.v.v.v.u.t",
".A.B.C.C.l.w.s.s.l.l.C.l.s.s.l.l.C.l.l.o.o.o.l.C.C.C.C.C.o.o.o.D.o.C.C.o.o.C.C.o.o.C.o.o.E.C.o.o.C.C.o.o.C.o.o.o.o.C.C.o.o.C.C.C.C.C.C.o.C.o.o.C.C.C.C.C.o.o.C.o.C.C.C.C.C.C.B.A",
".F.G.H.H.l.w.w.s.l.l.l.I.s.s.s.l.l.l.s.o.o.o.o.o.o.H.H.o.o.o.o.o.o.o.H.o.o.H.H.o.o.H.o.o.H.o.J.o.H.o.o.o.H.o.o.o.o.o.H.o.o.H.H.H.H.H.H.o.H.o.H.o.H.H.H.o.K.o.H.o.o.o.o.o.o.H.G.F",
".L.M.N.N.l.w.w.l.l.s.l.I.s.s.s.s.l.l.l.l.o.o.o.o.D.o.N.o.o.N.N.N.o.o.N.o.o.N.N.o.o.N.o.o.N.o.o.N.N.o.o.N.o.o.N.N.o.o.N.o.o.N.N.N.N.N.N.o.N.o.O.o.N.N.P.o.N.o.N.o.N.N.N.N.N.N.M.L",
".Q.R.b.S.l.w.l.l.s.s.l.I.s.s.s.s.l.s.s.l.l.w.l.S.o.o.S.o.o.S.S.S.T.o.S.o.o.S.S.o.o.S.o.o.S.o.o.S.S.o.o.S.o.o.o.o.o.S.U.o.o.S.S.S.S.S.S.o.S.o.S.S.o.S.o.V.S.o.S.o.S.S.S.S.S.S.R.Q",
".W.X.Y.Y.l.l.l.s.s.s.Z.I.s.s.l.I.l.s.s.s.l.l.l.Y.o.o.Y.o.o.Y.Y.Y.o.o.Y.o.o.Y.Y.o.o.Y.o.o.Y.o.o.Y.Y.o.o.Y.o.o.Y.Y.Y.Y.Y.o.o.Y.o.Y.Y.Y.0.o.Y.o.Y.Y.o.0.o.Y.Y.o.Y.o.Y.Y.Y.Y.Y.Y.X.W",
".1.2.3.3.l.l.s.I.s.s.Z.I.s.l.I.s.l.s.s.o.o.o.o.o.o.o.3.o.o.3.3.3.o.o.3.o.o.o.o.o.o.3.o.o.3.o.o.3.3.o.o.3.o.o.o.o.o.o.3.o.o.3.o.3.3.3.3.o.3.o.3.3.3.o.3.3.3.o.3.o.3.3.3.3.3.3.2.1",
".4.5.6.l.l.s.I.l.s.s.Z.I.s.l.I.s.l.s.s.o.o.o.o.o.o.7.6.6.o.o.6.o.o.6.6.6.o.o.o.o.6.6.o.o.6.o.o.6.6.o.o.6.6.o.o.o.o.o.6.o.o.6.6.o.6.6.o.7.6.o.6.6.6.o.6.6.6.o.6.o.o.o.o.o.o.6.5.4",
".8.9.l.s.s.I.l.s.s.Z.Z.I.s.l.I.s.l.s.s.I.l.I.s.l#.#.#.#.#.#..o.o#.#.#.#.#.#.#.#.#.#.#.#.#.#.#.#.#.#.#.#.#.#.#.#.#.#.#.#.#.#.#.##.o.o#.#.#.#.#.#.#.#.#.#.#.#.#.#.#.#.#.#.#.#..9.8",
"#a#b.l.s.I.l.s.s.Z.Z.Z.I.s.l.I.s.l.Z.Z.s.I.l.I.l#c#c#c#c#c#c.o.o#c#c#c#c#c#c#c#c#c#c#c#c#c#c#c#c#c#c#c#c#c#c#c#c#c#c#c#c#c#c#c#c#c#c#c#c#c#c#c#c.b#c#c#c#c#c#c#c#c#c#c#c#c#c#b#a",
"#d#e.l.I.l.s.Z.Z.l.l.Z.Z.s.l.I.l.l.l.Z.Z.s.l.I.l#f#f#f#f#f#f.o.o.o#f.o#f#f#f#f#f#f#f#f#f#f#f#f#f#f#f#f.b#f#f#f#f#f#f#f#f#f#f#f#f#f#f#f#f#f#f#f#f#f#f#f#f#f#f#f#f#f#f#f#f#f#f#e#d",
"#g#h.l.l.s.Z.Z.l#i#j.b.Z.s.l.I.l#k#j.b.Z.Z.s.l.Z#l.b#l#l#l#l.o.o.o.o.o.o#l#l#l#l#l#l#l#l#l#l#l#l#l#l#l#l#l#l#l#l#l#l.b#l#l#l#l#l#l#l#l#l#l#l#l#l#l#l#l#l#l#l#l#l#l#l#l#l#l#l#h#g",
"#m#n.l.l.Z.Z.l#i#k.b#o.l.Z.l.I.l#k.b#o#i.Z.s.Z.l#p#p#p#p#p#p#p.o.o.o.o#p#p#p#p#p#p#p#p#p#p#p#p#p#p#p#p#p#p#p#p#p#p#p#p#p#p#p#p#p#p#p#p#p#p#p#p#p#p#p#p#p#p#p#p#p#p#p#p#p#p#p#n#m",
"#q#r#s.Z.l.l.s.s#k#t#o.l.Z.l.l.l#k#t#o.s.Z.Z.Z.l#s#s#s#s#s#s#s#s.o.o#s#s#s#s#s#s#s#s.b#s#s#s#s#s#s#s#s#s#s#s#s#s#s#s#s#s#s#s#s#s#s#s#s#s#s#s#s#s#s#s#s#s#s#s#s#s#s#s#s.b#s#s#r#q",
"#u#v#w.Z.l.l.s.s.s.s.s.s.l.Z.Z.s.s.s.s.s.s.I.l.l#w#w#w#w#w#w#w#w#x#w#w#w#w#w#w#w#w#w#w#w#w#w#w#w#w#w#w#w#w#w#w#w#w#w#w#w#w#w#w#w#w#w#w#w.b#w#w#w#w#w#w#w#w#w#w#w#w#w#w#w#w#w#v#u",
"#y#z#A#A#A.l.s.s.s.I.s.s.s.s.s.s.s.I.s.s.s.l.l#A#A#A#A#A#A#A#A#A.b#A#A#A#A#A#A#A#A#A#A#A#A#A#A#A#A#A#A#A#A#A#A#A#A#A#A#A#A#A#A#A#A#A#A#A#A#A#A#A#A#A#A#A#A#A#A#A#A#A#A#A#A#A#z#y",
"#B#C#D#D#D.l.l.I.Z.Z.s.s.Z.Z.Z.s.s.Z.Z.I.l#D#D#D#D#D#D#D#D#D#D#D#D#D#D#D#D#D#D#D#D#D#D#D#D#D#D#D#D#D#D#D#D#D#D#D#D#D#D#D#D#D#D#D#D#D#D#D#D#D#D#D#D#D#D#D.b#D#D#D#D#D#D#D#D#D#C#B",
"#E#F#G#G#G#G#G.l.I.Z.I.I.I.Z.I.I.I.Z.I.l#G#G#G#G#G#G#G#G#G#G#G#G#G#G#G#G#G#G#G#G#G#G#G#G#G#G#G#G#G#G#G#G#G#G#G#G#G#G#G#G#G#G#G#G#G#G#G#G#G#G#G#G#G#G#G#G#G#G#G#G#G#G#G#G#G#G#F#E",
"#H#I#J#J#J#J#J.l.l.I.Z.Z.Z.b.Z.Z.Z.l.l#J#J#J#J#J#J#J#J#J#J#J#J#J#J#J#J#J#J#J#J#J#J#J#J#J#J#J#J#J#J#J#J#J#J#J#J#J#J#J#J#J#J#J#J#J#J#J#J#J#J#J#J#J#J#J#J#J#J#J#J#J#J#J#J#J#J#J#I#H",
"#K#L#M#M#M#M.I.l.Z.l.l.l.b.b.b.l.l.l.Z.I#M#M#M#M#M#M#M#M#M.b#M#M#M#M#M#M#M#M#M#M#M#M#M#M#M#M#M#M#M#M#M#M#M#M#M#M.b#M#M#M#M#M#M#M#M#M#M#M#M#M#M#M#M#M#M#M#M#M#M#M#M#M#M#M#M#M#L#K",
"#N#O#P#P#P.I.I.l.Z.Z.Z.l.l.b.l.l.Z.Z.Z.I.I#P#P#P#P#P#P#P#P#P#P#P#P#P#P#P#P#P#P#P#P#P#P#P#P#P#P#P#P#P#P#P#P#P#P#P#P#P#P#P#P#P#P#P#P#P#P#P#P#P#P#P#P#P#P#P#P#P#P#P#P#P#P.b#P#P#O#N",
"#Q#R#S#S#S#S#S#S#S#S#S#S#S#S#S#S#S#S#S#S#S#S#S#S#S#S#S#S#S#S#S#S#S#S#S#S#S#S#S#S#S#S#S#S.b#S#S#S#S#S#S#S#S#S#S#S#S#S#S#S.b#S#S#S#S#S#S#S#S#S#S#S#S#S#S#S#S#S#S#S#S#S#S#S#S#S#R#Q",
"#T#U#V#V#V.b#V#V#V#V#V#V#V#V#V#V#V#V#V#V#V#V.b#V#V#V#V#V#V#V#V#V#V#V#V#V#V#V#V#V#V#V#V#V#V#V#V#V#V#V#V#V#V#V#V#V#V#V#V#V#V#V#V#V#V#V#V#V#V#V#V#V#V#V#V#V#V#V#V#V#V#V#V#V#V#V#U#T",
"#W#X#X#X#X#X#X#X#X#X#X#X#X#X#X#X#X#X#X#X#X#X#X#X#X#X#X#X#X#X#X#X#X#X#X#X#X#X#X#X#X#X#X#X#X#X#X#X#X#X#X#X#X#X#X#X#X#X#X#X#X#X#X#X#X#X#X.b#X#X#X#X#X#X#X#X#X#X#X#X#X#X#X#X#X#X#X#W",
"#Y#Y#Y#Y#Y#Y#Y#Y#Y#Y#Y#Y#Y#Y#Y#Y#Y#Y#Y#Y#Y#Y#Y#Y#Y#Y#Y#Y#Y#Y#Y#Y#Y#Y#Y#Y#Y#Y#Y#Y#Y#Y#Y#Y#Y#Y#Y#Y#Y#Y#Y#Y#Y#Y#Y#Y#Y#Y#Y#Y#Y#Y#Y#Y#Y#Y#Y#Y#Y#Y#Y#Y#Y#Y#Y#Y#Y#Y#Y#Y#Y#Y#Y#Y#Y#Y#Y#Y"};
